SugeethGopinathan/ManipubalityHRI/data/test/test4.dat
 TimeStamp manip.manip_measure_out_port manip.force_transmission_out_port tt.outport_grip.position.x tt.outport_grip.position.y tt.outport_grip.position.z tt.outport_grip.orientation.x tt.outport_grip.orientation.y tt.outport_grip.orientation.z tt.outport_grip.orientation.w jr3.ForceTorqueOutputPort.forces.0 jr3.ForceTorqueOutputPort.forces.1 jr3.ForceTorqueOutputPort.forces.2 jr3.ForceTorqueOutputPort.torques.0 jr3.ForceTorqueOutputPort.torques.1 jr3.ForceTorqueOutputPort.torques.2 test.cart_pose_loop_out_port.p.X test.cart_pose_loop_out_port.p.Y test.cart_pose_loop_out_port.p.Z test.cart_pose_loop_out_port.M.X_x test.cart_pose_loop_out_port.M.X_y test.cart_pose_loop_out_port.M.X_z test.cart_pose_loop_out_port.M.Y_x test.cart_pose_loop_out_port.M.Y_y test.cart_pose_loop_out_port.M.Y_z test.cart_pose_loop_out_port.M.Z_x test.cart_pose_loop_out_port.M.Z_y test.cart_pose_loop_out_port.M.Z_z stiff.cart_stiffdamp_out_port.stiffness.0 stiff.cart_stiffdamp_out_port.stiffness.1 stiff.cart_stiffdamp_out_port.stiffness.2 stiff.cart_stiffdamp_out_port.stiffness.3 stiff.cart_stiffdamp_out_port.stiffness.4 stiff.cart_stiffdamp_out_port.stiffness.5 stiff.cart_stiffdamp_out_port.damping.0 stiff.cart_stiffdamp_out_port.damping.1 stiff.cart_stiffdamp_out_port.damping.2 stiff.cart_stiffdamp_out_port.damping.3 stiff.cart_stiffdamp_out_port.damping.4 stiff.cart_stiffdamp_out_port.damping.5 lwr.current_joint_values.angles.0 lwr.current_joint_values.angles.1 lwr.current_joint_values.angles.2 lwr.current_joint_values.angles.3 lwr.current_joint_values.angles.4 lwr.current_joint_values.angles.5 lwr.current_joint_values.angles.6
 6.42e-07 0.0175854 0.0396121   -0.0544032 -0.160678 0.303853  -0.735356 -0.139106 0.504501 -0.430558   -0.397339 -0.550659 -0.657959  -0.865173 0.0998535 -0.574219   -0.381881 0.00932754 0.564748  0.855706 0.504762 -0.113945 0.516663 -0.845652 0.133911 -0.0287642 -0.173459 -0.984421   337.951 337.951 337.951 20.2771 20.2771 20.2771  0 0 0 0 0 0   0.737362 0.411729 -0.67298 0.00126419 -2.68346 -1.45939 -0.907849 
 0.0222912 0.0175988 0.0390762   -0.0536727 -0.161096 0.303841  -0.733882 -0.136459 0.510267 -0.427111   0 -0.78363 -0.0939941  -0.939331 -0.399414 -0.410156   -0.381881 0.00933698 0.564748  0.855718 0.504741 -0.113946 0.516643 -0.845665 0.133908 -0.0287711 -0.173457 -0.984421   332.392 332.392 332.392 19.9435 19.9435 19.9435  0 0 0 0 0 0   0.737362 0.411729 -0.67298 0.00126419 -2.68346 -1.45939 -0.907849 
 0.0322724 0.0175988 0.0390762   -0.0536727 -0.161096 0.303841  -0.733882 -0.136459 0.510267 -0.427111   -0.151367 -0.953064 -0.281982  -1.03821 -0.299561 -0.328125   -0.381882 0.00934233 0.564748  0.855724 0.50473 -0.113944 0.516631 -0.845672 0.133905 -0.0287735 -0.173453 -0.984422   332.392 332.392 332.392 19.9435 19.9435 19.9435  0 0 0 0 0 0   0.737362 0.411729 -0.67298 0.00126419 -2.68346 -1.45939 -0.907849 
 0.0422934 0.0175988 0.0390762   -0.0536727 -0.161096 0.303841  -0.733882 -0.136459 0.510267 -0.427111   -0.0756836 -0.889526 -0.0939941  -1.23596 -0.274597 -0.328125   -0.381882 0.00934577 0.564748  0.855729 0.504722 -0.113944 0.516623 -0.845677 0.133905 -0.0287751 -0.173453 -0.984422   332.392 332.392 332.392 19.9435 19.9435 19.9435  0 0 0 0 0 0   0.737362 0.411729 -0.67298 0.00126419 -2.68346 -1.45939 -0.907849 
 0.0522985 0.0175988 0.0390762   -0.0536727 -0.161096 0.303841  -0.733882 -0.136459 0.510267 -0.427111   -0.20813 -0.974243 0.0939941  -1.23596 -0.274597 -0.328125   -0.381881 0.00934835 0.564748  0.855732 0.504717 -0.113943 0.516618 -0.84568 0.133904 -0.028776 -0.173451 -0.984422   332.392 332.392 332.392 19.9435 19.9435 19.9435  0 0 0 0 0 0   0.737362 0.411729 -0.67298 0.00126419 -2.68346 -1.45939 -0.907849 
 0.0623001 0.0175988 0.0390762   -0.0536727 -0.161096 0.303841  -0.733882 -0.136459 0.510267 -0.427111   -0.283813 -1.05896 0.0939941  -1.45844 -0.349487 -0.246094   -0.381881 0.00934883 0.564748  0.855734 0.504715 -0.113943 0.516616 -0.845682 0.133904 -0.0287762 -0.173451 -0.984422   332.392 332.392 332.392 19.9435 19.9435 19.9435  0 0 0 0 0 0   0.737362 0.411729 -0.67298 0.00126419 -2.68346 -1.45939 -0.907849 
 0.0722578 0.0175988 0.0390762   -0.0536727 -0.161096 0.303841  -0.733882 -0.136459 0.510267 -0.427111   -0.132446 -1.05896 0.281982  -1.35956 -0.449341 -0.328125   -0.381881 0.00934947 0.564748  0.855734 0.504714 -0.113942 0.516615 -0.845683 0.133902 -0.0287763 -0.173449 -0.984422   332.392 332.392 332.392 19.9435 19.9435 19.9435  0 0 0 0 0 0   0.737362 0.411729 -0.67298 0.00126419 -2.68346 -1.45939 -0.907849 
 0.0822585 0.0175988 0.0390762   -0.0536727 -0.161096 0.303841  -0.733882 -0.136459 0.510267 -0.427111   -0.20813 -1.14368 0.281982  -1.58203 -0.649048 -0.246094   -0.381881 0.00934946 0.564748  0.855734 0.504714 -0.113941 0.516615 -0.845683 0.133903 -0.0287751 -0.173449 -0.984422   332.392 332.392 332.392 19.9435 19.9435 19.9435  0 0 0 0 0 0   0.737362 0.411729 -0.67298 0.00126419 -2.68346 -1.45939 -0.907849 
 0.0922961 0.0175988 0.0390762   -0.0536727 -0.161096 0.303841  -0.733882 -0.136459 0.510267 -0.427111   -0.132446 -1.22839 -0.0939941  -1.48315 -0.549194 -0.0820312   -0.381881 0.00935013 0.564748  0.855735 0.504714 -0.11394 0.516614 -0.845683 0.133901 -0.0287751 -0.173447 -0.984423   332.392 332.392 332.392 19.9435 19.9435 19.9435  0 0 0 0 0 0   0.737362 0.411729 -0.67298 0.00126419 -2.68346 -1.45939 -0.907849 
 0.102616 0.0175988 0.0390762   -0.0536727 -0.161096 0.303841  -0.733882 -0.136459 0.510267 -0.427111   -0.113525 -1.39783 0.0939941  -1.58203 -0.649048 0   -0.381881 0.0093516 0.564748  0.855737 0.504711 -0.11394 0.516611 -0.845685 0.133901 -0.0287758 -0.173446 -0.984423   332.392 332.392 332.392 19.9435 19.9435 19.9435  0 0 0 0 0 0   0.737362 0.411729 -0.67298 0.00126419 -2.68346 -1.45939 -0.907849 
 0.112301 0.0175217 0.0370901   -0.0510135 -0.161358 0.303627  -0.729951 -0.126153 0.521582 -0.423332   -0.340576 -1.31311 -0.0939941  -1.68091 -0.649048 -0.0820312   -0.381881 0.00935367 0.564748  0.855739 0.504707 -0.113939 0.516607 -0.845688 0.133899 -0.0287765 -0.173444 -0.984423   311.788 311.788 311.788 18.7073 18.7073 18.7073  0 0 0 0 0 0   0.737362 0.411729 -0.67298 0.00126419 -2.68346 -1.45939 -0.907849 
 0.1223 0.0175217 0.0370901   -0.0510135 -0.161358 0.303627  -0.729951 -0.126153 0.521582 -0.423332   -0.340576 -1.39783 0.281982  -1.73035 -0.848755 0   -0.381881 0.00935724 0.564748  0.855743 0.504699 -0.113938 0.5166 -0.845693 0.133898 -0.028778 -0.173442 -0.984423   311.788 311.788 311.788 18.7073 18.7073 18.7073  0 0 0 0 0 0   0.737362 0.411729 -0.67298 0.00126419 -2.68346 -1.45939 -0.907849 
 0.132298 0.0175217 0.0370901   -0.0510135 -0.161358 0.303627  -0.729951 -0.126153 0.521582 -0.423332   -0.491943 -1.39783 0.140991  -1.48315 -0.674011 0   -0.381881 0.00936017 0.564748  0.855747 0.504693 -0.113938 0.516593 -0.845697 0.133898 -0.0287793 -0.173442 -0.984423   311.788 311.788 311.788 18.7073 18.7073 18.7073  0 0 0 0 0 0   0.737362 0.411729 -0.67298 0.00126419 -2.68346 -1.45939 -0.907849 
 0.142261 0.0175217 0.0370901   -0.0510135 -0.161358 0.303627  -0.729951 -0.126153 0.521582 -0.423332   -0.189209 -1.39783 -0.657959  -1.60675 -0.848755 0.0820312   -0.381881 0.00936332 0.564748  0.855752 0.504685 -0.113939 0.516586 -0.845702 0.133894 -0.0287834 -0.173439 -0.984424   311.788 311.788 311.788 18.7073 18.7073 18.7073  0 0 0 0 0 0   0.737362 0.411729 -0.67298 0.00126419 -2.68346 -1.45939 -0.907849 
 0.152258 0.0175217 0.0370901   -0.0510135 -0.161358 0.303627  -0.729951 -0.126153 0.521582 -0.423332   -0.113525 -1.46136 0.0939941  -1.55731 -1.27313 0.0820312   -0.381881 0.00936622 0.564748  0.855755 0.504679 -0.113939 0.516579 -0.845706 0.133894 -0.0287848 -0.173439 -0.984424   311.788 311.788 311.788 18.7073 18.7073 18.7073  0 0 0 0 0 0   0.737362 0.411729 -0.67298 0.00126419 -2.68346 -1.45939 -0.907849 
 0.162324 0.0175217 0.0370901   -0.0510135 -0.161358 0.303627  -0.729951 -0.126153 0.521582 -0.423332   -0.113525 -1.46136 -0.281982  -1.45844 -1.17328 0.164062   -0.381881 0.00936862 0.564748  0.855759 0.504674 -0.113936 0.516574 -0.845709 0.133893 -0.0287847 -0.173436 -0.984424   311.788 311.788 311.788 18.7073 18.7073 18.7073  0 0 0 0 0 0   0.737362 0.411729 -0.67298 0.00126419 -2.68346 -1.45939 -0.907849 
 0.172242 0.0175217 0.0370901   -0.0510135 -0.161358 0.303627  -0.729951 -0.126153 0.521582 -0.423332   0.113525 -1.37665 -0.140991  -1.409 -1.37299 0.164062   -0.381881 0.00937223 0.564748  0.855763 0.504666 -0.113938 0.516567 -0.845714 0.133893 -0.0287873 -0.173437 -0.984424   311.788 311.788 311.788 18.7073 18.7073 18.7073  0 0 0 0 0 0   0.737362 0.411729 -0.67298 0.00126419 -2.68346 -1.45939 -0.907849 
 0.182289 0.0175217 0.0370901   -0.0510135 -0.161358 0.303627  -0.729951 -0.126153 0.521582 -0.423332   0.170288 -1.27075 -0.328979  -1.11237 -1.52277 0.246094   -0.381881 0.00937666 0.564749  0.855769 0.504656 -0.11394 0.516557 -0.84572 0.133891 -0.0287922 -0.173436 -0.984424   311.788 311.788 311.788 18.7073 18.7073 18.7073  0 0 0 0 0 0   0.737362 0.411729 -0.67298 0.00126419 -2.68346 -1.45939 -0.907849 
 0.192293 0.0175217 0.0370901   -0.0510135 -0.161358 0.303627  -0.729951 -0.126153 0.521582 -0.423332   0.245972 -1.18604 0.0469971  -1.13708 -1.62262 0.328125   -0.381881 0.00938009 0.56475  0.855774 0.504647 -0.113942 0.516548 -0.845725 0.13389 -0.0287962 -0.173436 -0.984424   311.788 311.788 311.788 18.7073 18.7073 18.7073  0 0 0 0 0 0   0.737362 0.411729 -0.67298 0.00126419 -2.68346 -1.45939 -0.907849 
 0.202452 0.0175217 0.0370901   -0.0510135 -0.161358 0.303627  -0.729951 -0.126153 0.521582 -0.423332   0.245972 -1.27075 0.0469971  -1.23596 -1.59766 0.328125   -0.381882 0.0093836 0.564752  0.855778 0.504638 -0.113948 0.51654 -0.845731 0.133886 -0.0288058 -0.173435 -0.984424   311.788 311.788 311.788 18.7073 18.7073 18.7073  0 0 0 0 0 0   0.737362 0.411729 -0.67298 0.00126419 -2.68346 -1.45939 -0.907849 
 0.212319 0.0172627 0.0365119   -0.0504342 -0.160055 0.30208  -0.717948 -0.111109 0.528407 -0.439307   -0.0567627 -1.18604 -0.328979  -1.11237 -1.52277 0.164062   -0.381884 0.00938569 0.564756  0.85578 0.504633 -0.113958 0.516537 -0.845734 0.133879 -0.0288185 -0.173434 -0.984424   305.789 305.789 305.789 18.3473 18.3473 18.3473  0 0 0 0 0 0   0.737362 0.411729 -0.67298 0.00126419 -2.68346 -1.45939 -0.907849 
 0.222338 0.0172627 0.0365119   -0.0504342 -0.160055 0.30208  -0.717948 -0.111109 0.528407 -0.439307   -0.132446 -1.18604 -0.140991  -1.03821 -1.62262 0.246094   -0.381886 0.00938781 0.564762  0.855783 0.504625 -0.113971 0.516531 -0.845739 0.13387 -0.028835 -0.173433 -0.984423   305.789 305.789 305.789 18.3473 18.3473 18.3473  0 0 0 0 0 0   0.737362 0.411729 -0.67298 0.00126419 -2.68346 -1.45939 -0.907849 
 0.232313 0.0172627 0.0365119   -0.0504342 -0.160055 0.30208  -0.717948 -0.111109 0.528407 -0.439307   0 -1.0166 0.375977  -0.840454 -1.74744 0.164062   -0.381888 0.00938796 0.564767  0.855782 0.504624 -0.113982 0.516532 -0.84574 0.133863 -0.0288489 -0.173433 -0.984423   305.789 305.789 305.789 18.3473 18.3473 18.3473  0 0 0 0 0 0   0.737362 0.411729 -0.67298 0.00126419 -2.68346 -1.45939 -0.907849 
 0.2423 0.0172627 0.0365119   -0.0504342 -0.160055 0.30208  -0.717948 -0.111109 0.528407 -0.439307   0.302734 -0.910706 0.375977  -0.692139 -1.94714 0.328125   -0.38189 0.00938858 0.564773  0.855783 0.50462 -0.113994 0.51653 -0.845742 0.133855 -0.0288642 -0.173432 -0.984423   305.789 305.789 305.789 18.3473 18.3473 18.3473  0 0 0 0 0 0   0.737362 0.411729 -0.67298 0.00126419 -2.68346 -1.45939 -0.907849 
 0.252297 0.0172627 0.0365119   -0.0504342 -0.160055 0.30208  -0.717948 -0.111109 0.528407 -0.439307   0.378418 -1.08014 0.375977  -0.593262 -2.07196 0.164062   -0.381893 0.00938876 0.564779  0.855782 0.504618 -0.114008 0.51653 -0.845743 0.133845 -0.0288808 -0.173431 -0.984423   305.789 305.789 305.789 18.3473 18.3473 18.3473  0 0 0 0 0 0   0.737362 0.411729 -0.67298 0.00126419 -2.68346 -1.45939 -0.907849 
 0.262298 0.0172627 0.0365119   -0.0504342 -0.160055 0.30208  -0.717948 -0.111109 0.528407 -0.439307   0.454102 -0.995422 0.187988  -0.692139 -2.14685 0.246094   -0.381895 0.00938894 0.564785  0.855781 0.504617 -0.114022 0.516531 -0.845744 0.133836 -0.0288971 -0.17343 -0.984422   305.789 305.789 305.789 18.3473 18.3473 18.3473  0 0 0 0 0 0   0.737362 0.411729 -0.67298 0.00126419 -2.68346 -1.45939 -0.907849 
 0.272271 0.0172627 0.0365119   -0.0504342 -0.160055 0.30208  -0.717948 -0.111109 0.528407 -0.439307   0.151367 -1.18604 0.375977  -0.840454 -1.74744 0.164062   -0.381898 0.00938912 0.564791  0.855779 0.504617 -0.114036 0.516533 -0.845745 0.133826 -0.0289142 -0.173429 -0.984422   305.789 305.789 305.789 18.3473 18.3473 18.3473  0 0 0 0 0 0   0.737362 0.411729 -0.67298 0.00126419 -2.68346 -1.45939 -0.907849 
 0.282299 0.0172627 0.0365119   -0.0504342 -0.160055 0.30208  -0.717948 -0.111109 0.528407 -0.439307   0.227051 -1.24957 0  -0.766296 -1.84729 0.0820312   -0.3819 0.00938995 0.564798  0.855779 0.504615 -0.114048 0.516533 -0.845747 0.133816 -0.0289305 -0.173426 -0.984422   305.789 305.789 305.789 18.3473 18.3473 18.3473  0 0 0 0 0 0   0.737362 0.411729 -0.67298 0.00126419 -2.68346 -1.45939 -0.907849 
 0.292275 0.0172627 0.0365119   -0.0504342 -0.160055 0.30208  -0.717948 -0.111109 0.528407 -0.439307   0.227051 -1.16486 -0.187988  -0.568542 -1.7724 0.164062   -0.381903 0.00939031 0.564805  0.855777 0.504613 -0.114065 0.516534 -0.845748 0.133806 -0.0289501 -0.173426 -0.984421   305.789 305.789 305.789 18.3473 18.3473 18.3473  0 0 0 0 0 0   0.737362 0.411729 -0.67298 0.00126419 -2.68346 -1.45939 -0.907849 
 0.302298 0.0172627 0.0365119   -0.0504342 -0.160055 0.30208  -0.717948 -0.111109 0.528407 -0.439307   0.132446 -1.0166 0  -0.370789 -1.27313 0.0820312   -0.381907 0.00939079 0.564815  0.855774 0.504613 -0.114087 0.516537 -0.845748 0.133791 -0.0289762 -0.173426 -0.984421   305.789 305.789 305.789 18.3473 18.3473 18.3473  0 0 0 0 0 0   0.737362 0.411729 -0.67298 0.00126419 -2.68346 -1.45939 -0.907849 
 0.312293 0.0174459 0.0382546   -0.0526341 -0.160121 0.30345  0.494263 0.581462 0.375097 -0.526221   0.0378418 -0.741272 -0.0469971  0.0247192 -1.42291 0.164062   -0.38191 0.00939159 0.564826  0.855772 0.504612 -0.11411 0.516539 -0.845749 0.133776 -0.0290029 -0.173424 -0.98442   323.868 323.868 323.868 19.4321 19.4321 19.4321  0 0 0 0 0 0   0.737362 0.411729 -0.67298 0.00126419 -2.68346 -1.45939 -0.907849 
 0.322291 0.0174459 0.0382546   -0.0526341 -0.160121 0.30345  0.494263 0.581462 0.375097 -0.526221   0.321655 -0.487122 0.328979  0.32135 -1.34802 0.102539   -0.381915 0.00939169 0.564836  0.855769 0.504612 -0.114132 0.516543 -0.845749 0.13376 -0.0290296 -0.173422 -0.98442   323.868 323.868 323.868 19.4321 19.4321 19.4321  0 0 0 0 0 0   0.737362 0.411729 -0.67298 0.00126419 -2.68346 -1.45939 -0.907849 
 0.332272 0.0174459 0.0382546   -0.0526341 -0.160121 0.30345  0.494263 0.581462 0.375097 -0.526221   0.170288 -0.571838 -0.422974  0.247192 -1.0235 0   -0.381919 0.00939201 0.564847  0.855765 0.504613 -0.114156 0.516548 -0.845749 0.133744 -0.0290586 -0.17342 -0.984419   323.868 323.868 323.868 19.4321 19.4321 19.4321  0 0 0 0 0 0   0.737362 0.411729 -0.67298 0.00126419 -2.68346 -1.45939 -0.907849 
 0.342291 0.0174459 0.0382546   -0.0526341 -0.160121 0.30345  0.494263 0.581462 0.375097 -0.526221   0 -0.25415 -0.422974  0.593262 -0.773865 0   -0.381923 0.0093918 0.564858  0.855761 0.504614 -0.114179 0.516553 -0.845748 0.133728 -0.029086 -0.173419 -0.984419   323.868 323.868 323.868 19.4321 19.4321 19.4321  0 0 0 0 0 0   0.737362 0.411729 -0.67298 0.00126419 -2.68346 -1.45939 -0.907849 
 0.352272 0.0174459 0.0382546   -0.0526341 -0.160121 0.30345  0.494263 0.581462 0.375097 -0.526221   -0.62439 -0.27533 -0.187988  0.766296 -0.0748901 0   -0.381927 0.00939168 0.564869  0.855758 0.504615 -0.114204 0.516557 -0.845748 0.133715 -0.0291134 -0.17342 -0.984417   323.868 323.868 323.868 19.4321 19.4321 19.4321  0 0 0 0 0 0   0.737362 0.411729 -0.67298 0.00126419 -2.68346 -1.45939 -0.907849 
 0.362298 0.0174459 0.0382546   -0.0526341 -0.160121 0.30345  0.494263 0.581462 0.375097 -0.526221   -0.700073 -0.296509 0  0.815735 0.0249634 0   -0.381929 0.00939186 0.564876  0.855756 0.504615 -0.114217 0.516559 -0.845748 0.133706 -0.0291291 -0.173419 -0.984417   323.868 323.868 323.868 19.4321 19.4321 19.4321  0 0 0 0 0 0   0.737362 0.411729 -0.67298 0.00126419 -2.68346 -1.45939 -0.907849 
 0.372293 0.0174459 0.0382546   -0.0526341 -0.160121 0.30345  0.494263 0.581462 0.375097 -0.526221   -0.85144 -0.127075 0.375977  0.914612 0.0998535 0   -0.38193 0.00939075 0.564877  0.855754 0.504617 -0.114222 0.516562 -0.845746 0.133705 -0.0291326 -0.173422 -0.984417   323.868 323.868 323.868 19.4321 19.4321 19.4321  0 0 0 0 0 0   0.737362 0.411729 -0.67298 0.00126419 -2.68346 -1.45939 -0.907849 
 0.38229 0.0174459 0.0382546   -0.0526341 -0.160121 0.30345  0.494263 0.581462 0.375097 -0.526221   -1.02173 -0.127075 0.563965  1.06293 0.299561 0   -0.381929 0.00938907 0.564876  0.855752 0.504621 -0.114219 0.516566 -0.845743 0.13371 -0.0291268 -0.173424 -0.984416   323.868 323.868 323.868 19.4321 19.4321 19.4321  0 0 0 0 0 0   0.737362 0.411729 -0.67298 0.00126419 -2.68346 -1.45939 -0.907849 
 0.392302 0.0174459 0.0382546   -0.0526341 -0.160121 0.30345  0.494263 0.581462 0.375097 -0.526221   -1.15417 -0.148254 0.375977  0.889893 0.524231 0.0820312   -0.381927 0.00938798 0.564871  0.855752 0.504623 -0.114207 0.516566 -0.845742 0.133718 -0.0291121 -0.173425 -0.984417   323.868 323.868 323.868 19.4321 19.4321 19.4321  0 0 0 0 0 0   0.737362 0.411729 -0.67298 0.00126419 -2.68346 -1.45939 -0.907849 
 0.402308 0.0174459 0.0382546   -0.0526341 -0.160121 0.30345  0.494263 0.581462 0.375097 -0.526221   -1.02173 0.105896 0.563965  1.11237 0.499268 0.0820312   -0.381925 0.00938719 0.564866  0.855753 0.504624 -0.114197 0.516565 -0.845741 0.133727 -0.0290994 -0.173427 -0.984417   323.868 323.868 323.868 19.4321 19.4321 19.4321  0 0 0 0 0 0   0.737362 0.411729 -0.67298 0.00126419 -2.68346 -1.45939 -0.907849 
 0.412294 0.0181773 0.0409144   -0.0556949 -0.164078 0.306889  -0.480605 -0.568552 -0.39754 0.536404   -1.22986 -0.0635376 0.375977  1.03821 0.698975 0   -0.381925 0.00938651 0.564866  0.855753 0.504625 -0.114197 0.516566 -0.84574 0.133729 -0.0290981 -0.17343 -0.984416   351.461 351.461 351.461 21.0877 21.0877 21.0877  0 0 0 0 0 0   0.737362 0.411729 -0.67298 0.00126419 -2.68346 -1.45939 -0.907849 
 0.422306 0.0181773 0.0409144   -0.0556949 -0.164078 0.306889  -0.480605 -0.568552 -0.39754 0.536404   -1.1731 0.27533 0  1.23596 0.698975 0.0820312   -0.381925 0.00938341 0.564866  0.85575 0.504628 -0.114202 0.51657 -0.845736 0.133736 -0.0290977 -0.173438 -0.984415   351.461 351.461 351.461 21.0877 21.0877 21.0877  0 0 0 0 0 0   0.737362 0.411729 -0.67298 0.00126419 -2.68346 -1.45939 -0.907849 
 0.432295 0.0181773 0.0409144   -0.0556949 -0.164078 0.306889  -0.480605 -0.568552 -0.39754 0.536404   -1.6272 0.169434 0.422974  1.06293 0.998535 -0.0820312   -0.381925 0.00937598 0.564866  0.855744 0.504636 -0.114212 0.51658 -0.845728 0.133753 -0.0290956 -0.173458 -0.984411   351.461 351.461 351.461 21.0877 21.0877 21.0877  0 0 0 0 0 0   0.737362 0.411729 -0.67298 0.00126419 -2.68346 -1.45939 -0.907849 
 0.442303 0.0181773 0.0409144   -0.0556949 -0.164078 0.306889  -0.480605 -0.568552 -0.39754 0.536404   -1.55151 0.0847168 0.234985  1.1618 0.998535 -0.164062   -0.381926 0.00936372 0.564866  0.855734 0.504649 -0.114229 0.516597 -0.845713 0.133779 -0.0290939 -0.17349 -0.984406   351.461 351.461 351.461 21.0877 21.0877 21.0877  0 0 0 0 0 0   0.737362 0.411729 -0.67298 0.00126419 -2.68346 -1.45939 -0.907849 
 0.452322 0.0181773 0.0409144   -0.0556949 -0.164078 0.306889  -0.480605 -0.568552 -0.39754 0.536404   -1.55151 0.105896 0.422974  0.96405 0.923645 -0.328125   -0.381926 0.00934797 0.564867  0.855717 0.504675 -0.114241 0.516626 -0.845693 0.133795 -0.0290893 -0.173511 -0.984402   351.461 351.461 351.461 21.0877 21.0877 21.0877  0 0 0 0 0 0   0.737362 0.411729 -0.67298 0.00126419 -2.68346 -1.45939 -0.907849 
 0.462257 0.0181773 0.0409144   -0.0556949 -0.164078 0.306889  -0.480605 -0.568552 -0.39754 0.536404   -1.09741 0.211792 0.422974  0.889893 0.424377 -0.328125   -0.381926 0.00932978 0.564866  0.855693 0.504718 -0.114237 0.516667 -0.845668 0.133797 -0.0290769 -0.173512 -0.984402   351.461 351.461 351.461 21.0877 21.0877 21.0877  0 0 0 0 0 0   0.737362 0.411729 -0.67298 0.00126419 -2.68346 -1.45939 -0.907849 
 0.472296 0.0181773 0.0409144   -0.0556949 -0.164078 0.306889  -0.480605 -0.568552 -0.39754 0.536404   -1.22986 0.127075 0.610962  0.667419 0.549194 -0.410156   -0.381927 0.00931291 0.564865  0.855671 0.504755 -0.114235 0.516703 -0.845645 0.133798 -0.0290674 -0.173512 -0.984403   351.461 351.461 351.461 21.0877 21.0877 21.0877  0 0 0 0 0 0   0.737362 0.411729 -0.67298 0.00126419 -2.68346 -1.45939 -0.907849 
 0.482295 0.0181773 0.0409144   -0.0556949 -0.164078 0.306889  -0.480605 -0.568552 -0.39754 0.536404   -1.00281 0.0423584 0.610962  0.766296 0.324524 -0.410156   -0.381927 0.00929775 0.564864  0.855651 0.504789 -0.114235 0.516737 -0.845625 0.133797 -0.0290612 -0.173513 -0.984403   351.461 351.461 351.461 21.0877 21.0877 21.0877  0 0 0 0 0 0   0.737362 0.411729 -0.67298 0.00126419 -2.68346 -1.45939 -0.907849 
 0.492291 0.0181773 0.0409144   -0.0556949 -0.164078 0.306889  -0.480605 -0.568552 -0.39754 0.536404   -1.07849 -0.0423584 0.0469971  0.617981 0.14978 -0.492188   -0.381927 0.0092811 0.564865  0.855629 0.504826 -0.114236 0.516773 -0.845603 0.133796 -0.029055 -0.173514 -0.984403   351.461 351.461 351.461 21.0877 21.0877 21.0877  0 0 0 0 0 0   0.737362 0.411729 -0.67298 0.00126419 -2.68346 -1.45939 -0.907849 
 0.502291 0.0181773 0.0409144   -0.0556949 -0.164078 0.306889  -0.480605 -0.568552 -0.39754 0.536404   -1.00281 -0.0423584 0.0469971  0.617981 0.14978 -0.492188   -0.381927 0.00926707 0.564865  0.85561 0.504857 -0.114238 0.516805 -0.845583 0.133796 -0.0290497 -0.173516 -0.984403   351.461 351.461 351.461 21.0877 21.0877 21.0877  0 0 0 0 0 0   0.737362 0.411729 -0.67298 0.00126419 -2.68346 -1.45939 -0.907849 
 0.512296 0.0189138 0.048307   -0.0649266 -0.165319 0.310724  -0.744384 -0.125398 0.500954 -0.423335   -1.07849 -0.127075 -0.516968  0.469666 0.474304 -0.65625   -0.381928 0.00925338 0.564866  0.855592 0.504888 -0.114239 0.516835 -0.845565 0.133795 -0.0290448 -0.173517 -0.984403   428.154 428.154 428.154 25.6892 25.6892 25.6892  0 0 0 0 0 0   0.737362 0.411729 -0.67298 0.00126419 -2.68346 -1.45939 -0.907849 
 0.522298 0.0189138 0.048307   -0.0649266 -0.165319 0.310724  -0.744384 -0.125398 0.500954 -0.423335   -1.30554 -0.0635376 -0.140991  0.494385 0.574158 -0.574219   -0.381928 0.00924133 0.564866  0.855575 0.504918 -0.114239 0.516864 -0.845548 0.133792 -0.0290405 -0.173515 -0.984403   428.154 428.154 428.154 25.6892 25.6892 25.6892  0 0 0 0 0 0   0.737362 0.411729 -0.67298 0.00126419 -2.68346 -1.45939 -0.907849 
 0.532302 0.0189138 0.048307   -0.0649266 -0.165319 0.310724  -0.744384 -0.125398 0.500954 -0.423335   -1.38123 0.105896 -0.281982  0.494385 0.674011 -0.65625   -0.381929 0.00923004 0.564866  0.85556 0.504943 -0.114239 0.516889 -0.845532 0.133792 -0.0290355 -0.173516 -0.984403   428.154 428.154 428.154 25.6892 25.6892 25.6892  0 0 0 0 0 0   0.737362 0.411729 -0.67298 0.00126419 -2.68346 -1.45939 -0.907849 
 0.542272 0.0189138 0.048307   -0.0649266 -0.165319 0.310724  -0.744384 -0.125398 0.500954 -0.423335   -1.32446 0.27533 0.0469971  0.716858 0.649048 -0.574219   -0.381929 0.00921832 0.564866  0.855544 0.504969 -0.114238 0.516915 -0.845517 0.133792 -0.0290291 -0.173516 -0.984403   428.154 428.154 428.154 25.6892 25.6892 25.6892  0 0 0 0 0 0   0.737362 0.411729 -0.67298 0.00126419 -2.68346 -1.45939 -0.907849 
 0.552301 0.0189138 0.048307   -0.0649266 -0.165319 0.310724  -0.744384 -0.125398 0.500954 -0.423335   -1.6272 0.360046 0.281982  0.865173 1.0235 -0.65625   -0.381929 0.00920357 0.564866  0.855525 0.505002 -0.114235 0.516947 -0.845497 0.133794 -0.0290197 -0.173518 -0.984403   428.154 428.154 428.154 25.6892 25.6892 25.6892  0 0 0 0 0 0   0.737362 0.411729 -0.67298 0.00126419 -2.68346 -1.45939 -0.907849 
 0.5623 0.0189138 0.048307   -0.0649266 -0.165319 0.310724  -0.744384 -0.125398 0.500954 -0.423335   -1.6272 0.25415 0.0939941  0.667419 1.04846 -0.574219   -0.381929 0.00918282 0.564865  0.855498 0.505047 -0.114236 0.516992 -0.845469 0.133796 -0.0290096 -0.173521 -0.984403   428.154 428.154 428.154 25.6892 25.6892 25.6892  0 0 0 0 0 0   0.737362 0.411729 -0.67298 0.00126419 -2.68346 -1.45939 -0.907849 
 0.572297 0.0189138 0.048307   -0.0649266 -0.165319 0.310724  -0.744384 -0.125398 0.500954 -0.423335   -1.60828 0.190613 0.657959  0.6427 0.948608 -0.65625   -0.381929 0.00915503 0.564864  0.855462 0.505111 -0.114231 0.517054 -0.845431 0.133796 -0.0289926 -0.173521 -0.984403   428.154 428.154 428.154 25.6892 25.6892 25.6892  0 0 0 0 0 0   0.737362 0.411729 -0.67298 0.00126419 -2.68346 -1.45939 -0.907849 
 0.582297 0.0189138 0.048307   -0.0649266 -0.165319 0.310724  -0.744384 -0.125398 0.500954 -0.423335   -1.51367 -0.0635376 0.281982  0.444946 0.873718 -0.738281   -0.381929 0.00912613 0.564863  0.855424 0.505175 -0.114229 0.517117 -0.845392 0.133797 -0.0289772 -0.173523 -0.984403   428.154 428.154 428.154 25.6892 25.6892 25.6892  0 0 0 0 0 0   0.737362 0.411729 -0.67298 0.00126419 -2.68346 -1.45939 -0.907849 
 0.59227 0.0189138 0.048307   -0.0649266 -0.165319 0.310724  -0.744384 -0.125398 0.500954 -0.423335   -1.53259 0.0211792 0.0939941  0.519104 0.773865 -0.902344   -0.38193 0.0091002 0.564863  0.85539 0.505233 -0.114228 0.517175 -0.845357 0.133798 -0.0289645 -0.173525 -0.984403   428.154 428.154 428.154 25.6892 25.6892 25.6892  0 0 0 0 0 0   0.737362 0.411729 -0.67298 0.00126419 -2.68346 -1.45939 -0.907849 
 0.602289 0.0189138 0.048307   -0.0649266 -0.165319 0.310724  -0.744384 -0.125398 0.500954 -0.423335   -1.07849 0.127075 0.0469971  0.444946 0.374451 -0.902344   -0.38193 0.00907524 0.564863  0.855357 0.505289 -0.114228 0.51723 -0.845323 0.133797 -0.0289533 -0.173527 -0.984403   428.154 428.154 428.154 25.6892 25.6892 25.6892  0 0 0 0 0 0   0.737362 0.411729 -0.67298 0.00126419 -2.68346 -1.45939 -0.907849 
 0.612294 0.0196494 0.049472   -0.0659692 -0.171264 0.31279  -0.748472 -0.130295 0.496219 -0.420213   -0.85144 -0.105896 0.422974  0.494385 0.0499268 -0.902344   -0.381931 0.0090557 0.564864  0.855331 0.505332 -0.11423 0.517273 -0.845297 0.133795 -0.0289474 -0.173528 -0.984403   440.24 440.24 440.24 26.4144 26.4144 26.4144  0 0 0 0 0 0   0.737362 0.411729 -0.67298 0.00126419 -2.68346 -1.45939 -0.907849 
 0.622299 0.0196494 0.049472   -0.0659692 -0.171264 0.31279  -0.748472 -0.130295 0.496219 -0.420213   -0.245972 0 0.375977  0.519104 -0.449341 -0.799805   -0.381931 0.00904104 0.564864  0.855311 0.505365 -0.114232 0.517305 -0.845278 0.133794 -0.0289425 -0.173529 -0.984403   440.24 440.24 440.24 26.4144 26.4144 26.4144  0 0 0 0 0 0   0.737362 0.411729 -0.67298 0.00126419 -2.68346 -1.45939 -0.907849 
 0.632306 0.0196494 0.049472   -0.0659692 -0.171264 0.31279  -0.748472 -0.130295 0.496219 -0.420213   0.132446 -0.0423584 0.751953  0.568542 -0.848755 -0.799805   -0.381932 0.00903521 0.564865  0.855303 0.505378 -0.114235 0.517319 -0.84527 0.133792 -0.0289442 -0.173529 -0.984403   440.24 440.24 440.24 26.4144 26.4144 26.4144  0 0 0 0 0 0   0.737362 0.411729 -0.67298 0.00126419 -2.68346 -1.45939 -0.907849 
 0.642299 0.0196494 0.049472   -0.0659692 -0.171264 0.31279  -0.748472 -0.130295 0.496219 -0.420213   0.359497 -0.0423584 0.704956  0.716858 -1.17328 -0.881836   -0.381933 0.00903409 0.564866  0.855302 0.50538 -0.114239 0.517321 -0.845269 0.133789 -0.0289482 -0.173528 -0.984403   440.24 440.24 440.24 26.4144 26.4144 26.4144  0 0 0 0 0 0   0.737362 0.411729 -0.67298 0.00126419 -2.68346 -1.45939 -0.907849 
 0.652259 0.0196494 0.049472   -0.0659692 -0.171264 0.31279  -0.748472 -0.130295 0.496219 -0.420213   0.435181 -0.190613 0.328979  0.692139 -1.27313 -0.881836   -0.381934 0.00903481 0.564868  0.8553 0.505381 -0.114244 0.517323 -0.845269 0.133782 -0.0289563 -0.173525 -0.984404   440.24 440.24 440.24 26.4144 26.4144 26.4144  0 0 0 0 0 0   0.737362 0.411729 -0.67298 0.00126419 -2.68346 -1.45939 -0.907849 
 0.662265 0.0196494 0.049472   -0.0659692 -0.171264 0.31279  -0.748472 -0.130295 0.496219 -0.420213   0.435181 -0.105896 0.328979  0.716858 -1.27313 -0.963867   -0.381937 0.00903697 0.564876  0.855301 0.505376 -0.11426 0.517321 -0.845272 0.133771 -0.0289761 -0.173524 -0.984403   440.24 440.24 440.24 26.4144 26.4144 26.4144  0 0 0 0 0 0   0.737362 0.411729 -0.67298 0.00126419 -2.68346 -1.45939 -0.907849 
 0.672252 0.0196494 0.049472   -0.0659692 -0.171264 0.31279  -0.748472 -0.130295 0.496219 -0.420213   0.491943 0.0635376 0.328979  0.98877 -1.39795 -0.963867   -0.381941 0.00903831 0.564887  0.855299 0.505374 -0.114287 0.517322 -0.845274 0.133753 -0.0290083 -0.173522 -0.984403   440.24 440.24 440.24 26.4144 26.4144 26.4144  0 0 0 0 0 0   0.737362 0.411729 -0.67298 0.00126419 -2.68346 -1.45939 -0.907849 
 0.682324 0.0196494 0.049472   -0.0659692 -0.171264 0.31279  -0.748472 -0.130295 0.496219 -0.420213   0.567627 -0.0211792 -0.0939941  0.98877 -1.4978 -0.963867   -0.38195 0.00903938 0.56491  0.855293 0.505373 -0.114334 0.517329 -0.845275 0.133721 -0.0290653 -0.173519 -0.984402   440.24 440.24 440.24 26.4144 26.4144 26.4144  0 0 0 0 0 0   0.737362 0.411729 -0.67298 0.00126419 -2.68346 -1.45939 -0.907849 
 0.692294 0.0196494 0.049472   -0.0659692 -0.171264 0.31279  -0.748472 -0.130295 0.496219 -0.420213   0.794678 0.169434 0.469971  1.01349 -1.79736 -1.0459   -0.381963 0.00904034 0.564944  0.855283 0.505372 -0.11441 0.51734 -0.845276 0.13367 -0.029155 -0.173514 -0.9844   440.24 440.24 440.24 26.4144 26.4144 26.4144  0 0 0 0 0 0   0.737362 0.411729 -0.67298 0.00126419 -2.68346 -1.45939 -0.907849 
 0.702292 0.0196494 0.049472   -0.0659692 -0.171264 0.31279  -0.748472 -0.130295 0.496219 -0.420213   1.24878 0.127075 0.422974  1.1618 -2.19678 -0.963867   -0.381982 0.00904176 0.564994  0.855269 0.505372 -0.114521 0.517356 -0.845278 0.133594 -0.0292871 -0.173507 -0.984397   440.24 440.24 440.24 26.4144 26.4144 26.4144  0 0 0 0 0 0   0.737362 0.411729 -0.67298 0.00126419 -2.68346 -1.45939 -0.907849 
 0.712335 0.0201837 0.0555385   -0.0733811 -0.171812 0.31543  -0.75134 -0.127999 0.484138 -0.429785   1.40015 0.0423584 0.234985  0.914612 -2.49634 -0.963867   -0.382009 0.00904356 0.565063  0.855249 0.50537 -0.114678 0.517379 -0.845281 0.133486 -0.0294754 -0.173496 -0.984393   503.175 503.175 503.175 30.1905 30.1905 30.1905  0 0 0 0 0 0   0.737362 0.411729 -0.67298 0.00126419 -2.68346 -1.45939 -0.907849 
 0.722302 0.0201837 0.0555385   -0.0733811 -0.171812 0.31543  -0.75134 -0.127999 0.484138 -0.429785   1.57043 -0.105896 0.0469971  0.766296 -2.77094 -1.12793   -0.382047 0.00904616 0.565157  0.855221 0.505366 -0.114902 0.517409 -0.845287 0.133332 -0.0297437 -0.17348 -0.984388   503.175 503.175 503.175 30.1905 30.1905 30.1905  0 0 0 0 0 0   0.737362 0.411729 -0.67298 0.00126419 -2.68346 -1.45939 -0.907849 
 0.732266 0.0201837 0.0555385   -0.0733811 -0.171812 0.31543  -0.75134 -0.127999 0.484138 -0.429785   1.66504 -0.444763 -0.0939941  0.420227 -2.94568 -1.20996   -0.382097 0.00905056 0.565273  0.855186 0.505354 -0.115213 0.517445 -0.845299 0.133116 -0.0301188 -0.173456 -0.984381   503.175 503.175 503.175 30.1905 30.1905 30.1905  0 0 0 0 0 0   0.737362 0.411729 -0.67298 0.00126419 -2.68346 -1.45939 -0.907849 
 0.742303 0.0201837 0.0555385   -0.0733811 -0.171812 0.31543  -0.75134 -0.127999 0.484138 -0.429785   1.85425 -0.868347 -0.657959  -0.098877 -3.09546 -1.37402   -0.382163 0.00905721 0.565419  0.855142 0.505329 -0.115648 0.517487 -0.845321 0.132814 -0.0306448 -0.173421 -0.984371   503.175 503.175 503.175 30.1905 30.1905 30.1905  0 0 0 0 0 0   0.737362 0.411729 -0.67298 0.00126419 -2.68346 -1.45939 -0.907849 
 0.752307 0.0201837 0.0555385   -0.0733811 -0.171812 0.31543  -0.75134 -0.127999 0.484138 -0.429785   1.70288 -1.03778 -0.657959  -0.271912 -2.97064 -1.37402   -0.382245 0.00906677 0.56559  0.85509 0.50529 -0.116206 0.517533 -0.845354 0.132423 -0.0313227 -0.173374 -0.984358   503.175 503.175 503.175 30.1905 30.1905 30.1905  0 0 0 0 0 0   0.737362 0.411729 -0.67298 0.00126419 -2.68346 -1.45939 -0.907849 
 0.76233 0.0201837 0.0555385   -0.0733811 -0.171812 0.31543  -0.75134 -0.127999 0.484138 -0.429785   1.79749 -1.20721 -0.657959  -0.420227 -3.17035 -1.53809   -0.382347 0.00907812 0.565788  0.855026 0.505236 -0.116909 0.517586 -0.8454 0.131924 -0.0321823 -0.173309 -0.984342   503.175 503.175 503.175 30.1905 30.1905 30.1905  0 0 0 0 0 0   0.737362 0.411729 -0.67298 0.00126419 -2.68346 -1.45939 -0.907849 
 0.772299 0.0201837 0.0555385   -0.0733811 -0.171812 0.31543  -0.75134 -0.127999 0.484138 -0.429785   1.94885 -1.20721 -0.610962  -0.741577 -3.24524 -1.53809   -0.382465 0.00909085 0.566025  0.85495 0.505175 -0.117726 0.517649 -0.845451 0.131346 -0.0331785 -0.173235 -0.984321   503.175 503.175 503.175 30.1905 30.1905 30.1905  0 0 0 0 0 0   0.737362 0.411729 -0.67298 0.00126419 -2.68346 -1.45939 -0.907849 
 0.782296 0.0201837 0.0555385   -0.0733811 -0.171812 0.31543  -0.75134 -0.127999 0.484138 -0.429785   1.96777 -1.37665 -0.422974  -0.815735 -3.12042 -1.62012   -0.382594 0.00910577 0.566287  0.854867 0.50511 -0.118603 0.517716 -0.845506 0.130728 -0.0342476 -0.173158 -0.984299   503.175 503.175 503.175 30.1905 30.1905 30.1905  0 0 0 0 0 0   0.737362 0.411729 -0.67298 0.00126419 -2.68346 -1.45939 -0.907849 
 0.7923 0.0201837 0.0555385   -0.0733811 -0.171812 0.31543  -0.75134 -0.127999 0.484138 -0.429785   2.06238 -1.54608 -0.422974  -1.13708 -3.19531 -1.62012   -0.382739 0.00912134 0.566588  0.854769 0.505044 -0.119587 0.517798 -0.845562 0.130037 -0.0354441 -0.173074 -0.984271   503.175 503.175 503.175 30.1905 30.1905 30.1905  0 0 0 0 0 0   0.737362 0.411729 -0.67298 0.00126419 -2.68346 -1.45939 -0.907849 
 0.802301 0.0201837 0.0555385   -0.0733811 -0.171812 0.31543  -0.75134 -0.127999 0.484138 -0.429785   2.36511 -1.69434 -0.422974  -1.2854 -3.49487 -1.70215   -0.382889 0.00913527 0.566914  0.854662 0.504987 -0.120589 0.517889 -0.845614 0.129337 -0.0366578 -0.172991 -0.984241   503.175 503.175 503.175 30.1905 30.1905 30.1905  0 0 0 0 0 0   0.737362 0.411729 -0.67298 0.00126419 -2.68346 -1.45939 -0.907849 
 0.8123 0.00985499 0.0763157   0.193563 0.0657255 -0.314826  -0.630348 0.00110616 -0.654737 0.41711   2.5354 -2.0332 -0.610962  -1.48315 -3.56976 -1.78418   -0.383039 0.00914955 0.567258  0.854552 0.50494 -0.121561 0.517987 -0.845657 0.12866 -0.0378328 -0.172914 -0.98421   718.722 718.722 718.722 43.1233 43.1233 43.1233  0 0 0 0 0 0   0.737362 0.411729 -0.67298 0.00126419 -2.68346 -1.45939 -0.907849 
 0.822292 0.00985499 0.0763157   0.193563 0.0657255 -0.314826  -0.630348 0.00110616 -0.654737 0.41711   2.40295 -2.28735 -0.563965  -1.9281 -3.61969 -1.94824   -0.383196 0.00916675 0.567641  0.854434 0.504904 -0.122535 0.518094 -0.845695 0.127977 -0.0390113 -0.172832 -0.984178   718.722 718.722 718.722 43.1233 43.1233 43.1233  0 0 0 0 0 0   0.737362 0.411729 -0.67298 0.00126419 -2.68346 -1.45939 -0.907849 
 0.832324 0.00985499 0.0763157   0.193563 0.0657255 -0.314826  -0.630348 0.00110616 -0.654737 0.41711   2.42188 -2.28735 -0.563965  -2.00226 -3.61969 -1.94824   -0.383355 0.00918977 0.568055  0.854314 0.504874 -0.123492 0.518203 -0.845731 0.127296 -0.0401725 -0.172745 -0.984147   718.722 718.722 718.722 43.1233 43.1233 43.1233  0 0 0 0 0 0   0.737362 0.411729 -0.67298 0.00126419 -2.68346 -1.45939 -0.907849 
 0.842297 0.00985499 0.0763157   0.193563 0.0657255 -0.314826  -0.630348 0.00110616 -0.654737 0.41711   2.42188 -2.45679 -0.187988  -2.20001 -3.49487 -2.03027   -0.383516 0.0092169 0.568486  0.854192 0.504851 -0.124423 0.518314 -0.845765 0.126621 -0.041308 -0.172649 -0.984117   718.722 718.722 718.722 43.1233 43.1233 43.1233  0 0 0 0 0 0   0.737362 0.411729 -0.67298 0.00126419 -2.68346 -1.45939 -0.907849 
 0.852296 0.00985499 0.0763157   0.193563 0.0657255 -0.314826  -0.630348 0.00110616 -0.654737 0.41711   2.81921 -2.68976 -0.563965  -2.54608 -3.86932 -2.1123   -0.38367 0.00924856 0.568909  0.854079 0.504823 -0.125306 0.518412 -0.845801 0.12597 -0.0423912 -0.172549 -0.984088   718.722 718.722 718.722 43.1233 43.1233 43.1233  0 0 0 0 0 0   0.737362 0.411729 -0.67298 0.00126419 -2.68346 -1.45939 -0.907849 
 0.862297 0.00985499 0.0763157   0.193563 0.0657255 -0.314826  -0.630348 0.00110616 -0.654737 0.41711   2.30835 -3.07098 -0.516968  -2.89215 -3.51984 -2.21484   -0.383835 0.00929188 0.569364  0.853967 0.50478 -0.126248 0.518501 -0.845852 0.12526 -0.0435587 -0.172428 -0.984059   718.722 718.722 718.722 43.1233 43.1233 43.1233  0 0 0 0 0 0   0.737362 0.411729 -0.67298 0.00126419 -2.68346 -1.45939 -0.907849 
 0.872304 0.00985499 0.0763157   0.193563 0.0657255 -0.314826  -0.630348 0.00110616 -0.654737 0.41711   2.47864 -3.32513 -0.140991  -3.11462 -3.51984 -2.21484   -0.383997 0.00934627 0.569817  0.853867 0.504716 -0.127177 0.518567 -0.845917 0.124547 -0.0447207 -0.172296 -0.984029   718.722 718.722 718.722 43.1233 43.1233 43.1233  0 0 0 0 0 0   0.737362 0.411729 -0.67298 0.00126419 -2.68346 -1.45939 -0.907849 
 0.882296 0.00985499 0.0763157   0.193563 0.0657255 -0.314826  -0.630348 0.00110616 -0.654737 0.41711   2.80029 -3.38867 -0.704956  -3.36182 -3.89429 -2.29688   -0.384163 0.00940824 0.57028  0.853777 0.504623 -0.128146 0.518611 -0.845993 0.123846 -0.0459154 -0.172195 -0.983992   718.722 718.722 718.722 43.1233 43.1233 43.1233  0 0 0 0 0 0   0.737362 0.411729 -0.67298 0.00126419 -2.68346 -1.45939 -0.907849 
 0.892337 0.00985499 0.0763157   0.193563 0.0657255 -0.314826  -0.630348 0.00110616 -0.654737 0.41711   2.59216 -3.81226 -0.0939941  -3.68317 -3.96918 -2.29688   -0.384334 0.00948753 0.57076  0.853705 0.504487 -0.129155 0.518617 -0.846094 0.123128 -0.0471608 -0.172097 -0.98395   718.722 718.722 718.722 43.1233 43.1233 43.1233  0 0 0 0 0 0   0.737362 0.411729 -0.67298 0.00126419 -2.68346 -1.45939 -0.907849 
 0.902315 0.00985499 0.0763157   0.193563 0.0657255 -0.314826  -0.630348 0.00110616 -0.654737 0.41711   2.59216 -3.72754 -0.0939941  -3.58429 -4.06903 -2.29688   -0.384501 0.00959271 0.571231  0.853667 0.504298 -0.130137 0.518566 -0.84623 0.122413 -0.0483935 -0.171985 -0.98391   718.722 718.722 718.722 43.1233 43.1233 43.1233  0 0 0 0 0 0   0.737362 0.411729 -0.67298 0.00126419 -2.68346 -1.45939 -0.907849 
 0.912297 0.00994897 0.0837183   0.203236 0.0722296 -0.316007  -0.618554 0.0078972 -0.664013 0.420018   2.8949 -3.62164 0.0469971  -3.63373 -4.26874 -2.27637   -0.384669 0.00971074 0.571706  0.853647 0.504074 -0.131135 0.518481 -0.846384 0.121704 -0.0496427 -0.171883 -0.983866   795.519 795.519 795.519 47.7311 47.7311 47.7311  0 0 0 0 0 0   0.737362 0.411729 -0.67298 0.00126419 -2.68346 -1.45939 -0.907849 
 0.922311 0.00994897 0.0837183   0.203236 0.0722296 -0.316007  -0.618554 0.0078972 -0.664013 0.420018   2.83813 -3.98169 0.0939941  -4.02924 -4.34363 -2.29688   -0.384839 0.00984468 0.57219  0.853641 0.503818 -0.132153 0.518367 -0.846558 0.120981 -0.0509225 -0.171777 -0.983819   795.519 795.519 795.519 47.7311 47.7311 47.7311  0 0 0 0 0 0   0.737362 0.411729 -0.67298 0.00126419 -2.68346 -1.45939 -0.907849 
 0.932327 0.00994897 0.0837183   0.203236 0.0722296 -0.316007  -0.618554 0.0078972 -0.664013 0.420018   2.91382 -4.12994 -0.0939941  -4.05396 -4.34363 -2.37891   -0.385008 0.00999614 0.572677  0.853655 0.503526 -0.133172 0.518215 -0.846755 0.120248 -0.0522161 -0.171662 -0.983771   795.519 795.519 795.519 47.7311 47.7311 47.7311  0 0 0 0 0 0   0.737362 0.411729 -0.67298 0.00126419 -2.68346 -1.45939 -0.907849 
 0.942295 0.00994897 0.0837183   0.203236 0.0722296 -0.316007  -0.618554 0.0078972 -0.664013 0.420018   3.15979 -4.38409 0.0939941  -4.30115 -4.71808 -2.46094   -0.385179 0.010163 0.573171  0.853686 0.503197 -0.134215 0.518029 -0.846973 0.119511 -0.0535394 -0.171552 -0.983719   795.519 795.519 795.519 47.7311 47.7311 47.7311  0 0 0 0 0 0   0.737362 0.411729 -0.67298 0.00126419 -2.68346 -1.45939 -0.907849 
 0.952295 0.00994897 0.0837183   0.203236 0.0722296 -0.316007  -0.618554 0.0078972 -0.664013 0.420018   3.17871 -4.72296 0.0939941  -4.72137 -4.76801 -2.46094   -0.385352 0.0103518 0.573664  0.853741 0.502816 -0.135285 0.517794 -0.847223 0.118752 -0.0549063 -0.171433 -0.983665   795.519 795.519 795.519 47.7311 47.7311 47.7311  0 0 0 0 0 0   0.737362 0.411729 -0.67298 0.00126419 -2.68346 -1.45939 -0.907849 
 0.96232 0.00994897 0.0837183   0.203236 0.0722296 -0.316007  -0.618554 0.0078972 -0.664013 0.420018   3.12195 -4.72296 0.657959  -4.82025 -4.86786 -2.46094   -0.385528 0.010563 0.574163  0.853818 0.502387 -0.13639 0.517515 -0.847506 0.117949 -0.0563356 -0.171291 -0.983609   795.519 795.519 795.519 47.7311 47.7311 47.7311  0 0 0 0 0 0   0.737362 0.411729 -0.67298 0.00126419 -2.68346 -1.45939 -0.907849 
 0.972296 0.00994897 0.0837183   0.203236 0.0722296 -0.316007  -0.618554 0.0078972 -0.664013 0.420018   3.19763 -4.8924 0.0939941  -4.82025 -4.86786 -2.46094   -0.385707 0.0107898 0.574664  0.853912 0.50192 -0.137512 0.517198 -0.847813 0.117134 -0.057793 -0.171143 -0.98355   795.519 795.519 795.519 47.7311 47.7311 47.7311  0 0 0 0 0 0   0.737362 0.411729 -0.67298 0.00126419 -2.68346 -1.45939 -0.907849 
 0.982307 0.00994897 0.0837183   0.203236 0.0722296 -0.316007  -0.618554 0.0078972 -0.664013 0.420018   3.29224 -4.97711 0.0939941  -5.06744 -5.0426 -2.54297   -0.385883 0.0110246 0.575153  0.854019 0.501427 -0.138644 0.516855 -0.848133 0.116322 -0.0592617 -0.171 -0.983487   795.519 795.519 795.519 47.7311 47.7311 47.7311  0 0 0 0 0 0   0.737362 0.411729 -0.67298 0.00126419 -2.68346 -1.45939 -0.907849 
 0.992296 0.00994897 0.0837183   0.203236 0.0722296 -0.316007  -0.618554 0.0078972 -0.664013 0.420018   3.12195 -4.97711 0.516968  -5.04272 -4.94275 -2.46094   -0.386062 0.0112819 0.575647  0.854145 0.500885 -0.139824 0.516469 -0.848486 0.115464 -0.0608049 -0.170838 -0.983421   795.519 795.519 795.519 47.7311 47.7311 47.7311  0 0 0 0 0 0   0.737362 0.411729 -0.67298 0.00126419 -2.68346 -1.45939 -0.907849 
 1.0023 0.00994897 0.0837183   0.203236 0.0722296 -0.316007  -0.618554 0.0078972 -0.664013 0.420018   3.04626 -4.97711 0.140991  -5.1416 -4.94275 -2.54297   -0.38624 0.0115599 0.576129  0.854301 0.50028 -0.14103 0.516022 -0.848872 0.114616 -0.0623762 -0.170691 -0.983348   795.519 795.519 795.519 47.7311 47.7311 47.7311  0 0 0 0 0 0   0.737362 0.411729 -0.67298 0.00126419 -2.68346 -1.45939 -0.907849 
 1.01231 0.0236692 0.0756327   -0.0962042 -0.19491 0.32239  -0.776969 -0.135802 0.438409 -0.430899   3.29224 -5.21008 0.516968  -5.31464 -5.21735 -2.46094   -0.386411 0.0118493 0.576583  0.854481 0.499636 -0.14222 0.515534 -0.84928 0.11379 -0.0639316 -0.170551 -0.983273   711.637 711.637 711.637 42.6982 42.6982 42.6982  0 0 0 0 0 0   0.737362 0.411729 -0.67298 0.00126419 -2.68346 -1.45939 -0.907849 
 1.02232 0.0236692 0.0756327   -0.0962042 -0.19491 0.32239  -0.776969 -0.135802 0.438409 -0.430899   2.9895 -5.23126 0.704956  -5.36407 -5.01764 -2.54297   -0.386591 0.0121611 0.57704  0.854679 0.49893 -0.143503 0.514995 -0.849727 0.112894 -0.0656123 -0.170391 -0.98319   711.637 711.637 711.637 42.6982 42.6982 42.6982  0 0 0 0 0 0   0.737362 0.411729 -0.67298 0.00126419 -2.68346 -1.45939 -0.907849 
 1.0323 0.0236692 0.0756327   -0.0962042 -0.19491 0.32239  -0.776969 -0.135802 0.438409 -0.430899   3.00842 -5.48541 1.08093  -5.58655 -5.19238 -2.54297   -0.38677 0.012489 0.577484  0.854894 0.49818 -0.144823 0.514414 -0.8502 0.111974 -0.0673449 -0.170225 -0.983101   711.637 711.637 711.637 42.6982 42.6982 42.6982  0 0 0 0 0 0   0.737362 0.411729 -0.67298 0.00126419 -2.68346 -1.45939 -0.907849 
 1.04227 0.0236692 0.0756327   -0.0962042 -0.19491 0.32239  -0.776969 -0.135802 0.438409 -0.430899   3.15979 -5.65485 0.704956  -5.71014 -5.29224 -2.54297   -0.386953 0.0128238 0.577911  0.855113 0.497397 -0.146212 0.513806 -0.850696 0.110996 -0.0691723 -0.170039 -0.983007   711.637 711.637 711.637 42.6982 42.6982 42.6982  0 0 0 0 0 0   0.737362 0.411729 -0.67298 0.00126419 -2.68346 -1.45939 -0.907849 
 1.05227 0.0236692 0.0756327   -0.0962042 -0.19491 0.32239  -0.776969 -0.135802 0.438409 -0.430899   3.23547 -5.31598 1.08093  -5.51239 -5.3172 -2.54297   -0.387146 0.0131984 0.578328  0.855367 0.496512 -0.147726 0.513108 -0.851258 0.109908 -0.0711821 -0.169811 -0.982902   711.637 711.637 711.637 42.6982 42.6982 42.6982  0 0 0 0 0 0   0.737362 0.411729 -0.67298 0.00126419 -2.68346 -1.45939 -0.907849 
 1.0623 0.0236692 0.0756327   -0.0962042 -0.19491 0.32239  -0.776969 -0.135802 0.438409 -0.430899   3.61389 -5.54895 1.03394  -5.68542 -5.89136 -2.52246   -0.387326 0.0135905 0.578725  0.855654 0.495589 -0.149155 0.512361 -0.851838 0.108897 -0.0730878 -0.169599 -0.982799   711.637 711.637 711.637 42.6982 42.6982 42.6982  0 0 0 0 0 0   0.737362 0.411729 -0.67298 0.00126419 -2.68346 -1.45939 -0.907849 
 1.07227 0.0236692 0.0756327   -0.0962042 -0.19491 0.32239  -0.776969 -0.135802 0.438409 -0.430899   3.25439 -5.54895 0.704956  -5.75958 -5.5918 -2.54297   -0.387507 0.0140014 0.579121  0.855967 0.494625 -0.150554 0.511566 -0.852444 0.10789 -0.0749734 -0.169369 -0.982697   711.637 711.637 711.637 42.6982 42.6982 42.6982  0 0 0 0 0 0   0.737362 0.411729 -0.67298 0.00126419 -2.68346 -1.45939 -0.907849 
 1.08229 0.0236692 0.0756327   -0.0962042 -0.19491 0.32239  -0.776969 -0.135802 0.438409 -0.430899   3.02734 -5.73956 0.563965  -5.93262 -5.46698 -2.54297   -0.387693 0.0144276 0.579493  0.856302 0.493607 -0.151985 0.510717 -0.853084 0.10685 -0.0769138 -0.169117 -0.98259   711.637 711.637 711.637 42.6982 42.6982 42.6982  0 0 0 0 0 0   0.737362 0.411729 -0.67298 0.00126419 -2.68346 -1.45939 -0.907849 
 1.09229 0.0236692 0.0756327   -0.0962042 -0.19491 0.32239  -0.776969 -0.135802 0.438409 -0.430899   2.97058 -5.84546 0.751953  -6.10565 -5.36713 -2.54297   -0.387877 0.0148884 0.57986  0.856664 0.492511 -0.15349 0.509795 -0.85377 0.105757 -0.0789588 -0.168846 -0.982475   711.637 711.637 711.637 42.6982 42.6982 42.6982  0 0 0 0 0 0   0.737362 0.411729 -0.67298 0.00126419 -2.68346 -1.45939 -0.907849 
 1.10232 0.0236692 0.0756327   -0.0962042 -0.19491 0.32239  -0.776969 -0.135802 0.438409 -0.430899   3.65173 -5.95135 0.704956  -6.13037 -6.0661 -2.625   -0.388053 0.0153717 0.580215  0.857055 0.49137 -0.154958 0.508823 -0.854483 0.104686 -0.0809689 -0.168568 -0.982359   711.637 711.637 711.637 42.6982 42.6982 42.6982  0 0 0 0 0 0   0.737362 0.411729 -0.67298 0.00126419 -2.68346 -1.45939 -0.907849 
 1.11231 0.0242266 0.0800375   -0.100277 -0.194225 0.328753  0.772153 0.137347 -0.431715 0.445576   3.29224 -6.14197 1.12793  -6.62476 -6.11603 -2.625   -0.388222 0.0158666 0.580558  0.857478 0.490214 -0.156274 0.507813 -0.855203 0.103698 -0.082812 -0.168276 -0.982255   757.333 757.333 757.333 45.44 45.44 45.44  0 0 0 0 0 0   0.737362 0.411729 -0.67298 0.00126419 -2.68346 -1.45939 -0.907849 
 1.12227 0.0242266 0.0800375   -0.100277 -0.194225 0.328753  0.772153 0.137347 -0.431715 0.445576   3.14087 -6.16315 0.751953  -6.67419 -5.81647 -2.54297   -0.388387 0.0163871 0.580881  0.857942 0.489001 -0.157523 0.506733 -0.85596 0.10273 -0.0845978 -0.167959 -0.982157   757.333 757.333 757.333 45.44 45.44 45.44  0 0 0 0 0 0   0.737362 0.411729 -0.67298 0.00126419 -2.68346 -1.45939 -0.907849 
 1.13229 0.0242266 0.0800375   -0.100277 -0.194225 0.328753  0.772153 0.137347 -0.431715 0.445576   2.91382 -6.09961 0.79895  -6.74835 -5.5918 -2.46094   -0.388546 0.0169517 0.581193  0.858454 0.487682 -0.158817 0.505553 -0.856773 0.101762 -0.0864421 -0.167649 -0.98205   757.333 757.333 757.333 45.44 45.44 45.44  0 0 0 0 0 0   0.737362 0.411729 -0.67298 0.00126419 -2.68346 -1.45939 -0.907849 
 1.14229 0.0242266 0.0800375   -0.100277 -0.194225 0.328753  0.772153 0.137347 -0.431715 0.445576   3.15979 -6.16315 1.17493  -6.87195 -5.7915 -2.46094   -0.388696 0.0175264 0.581476  0.858996 0.486327 -0.160034 0.504328 -0.857602 0.100859 -0.0881953 -0.167347 -0.981945   757.333 757.333 757.333 45.44 45.44 45.44  0 0 0 0 0 0   0.737362 0.411729 -0.67298 0.00126419 -2.68346 -1.45939 -0.907849 
 1.1523 0.0242266 0.0800375   -0.100277 -0.194225 0.328753  0.772153 0.137347 -0.431715 0.445576   3.17871 -6.67145 0.986938  -7.21802 -5.96625 -2.46094   -0.38884 0.0181063 0.581751  0.859553 0.484971 -0.161158 0.503088 -0.858429 0.10001 -0.0898406 -0.16704 -0.981848   757.333 757.333 757.333 45.44 45.44 45.44  0 0 0 0 0 0   0.737362 0.411729 -0.67298 0.00126419 -2.68346 -1.45939 -0.907849 
 1.1623 0.0242266 0.0800375   -0.100277 -0.194225 0.328753  0.772153 0.137347 -0.431715 0.445576   3.04626 -6.60791 0.79895  -7.46521 -5.74158 -2.54297   -0.388966 0.01872 0.582019  0.860163 0.483567 -0.16212 0.501779 -0.859283 0.0992504 -0.0913129 -0.16672 -0.981767   757.333 757.333 757.333 45.44 45.44 45.44  0 0 0 0 0 0   0.737362 0.411729 -0.67298 0.00126419 -2.68346 -1.45939 -0.907849 
 1.1723 0.0242266 0.0800375   -0.100277 -0.194225 0.328753  0.772153 0.137347 -0.431715 0.445576   2.51648 -6.71381 0.845947  -7.53937 -5.44202 -2.46094   -0.389076 0.0193778 0.582257  0.860847 0.482073 -0.162937 0.500362 -0.860186 0.0985803 -0.0926332 -0.16639 -0.981699   757.333 757.333 757.333 45.44 45.44 45.44  0 0 0 0 0 0   0.737362 0.411729 -0.67298 0.00126419 -2.68346 -1.45939 -0.907849 
 1.1823 0.0242266 0.0800375   -0.100277 -0.194225 0.328753  0.772153 0.137347 -0.431715 0.445576   2.51648 -6.88324 0.845947  -7.63824 -5.51691 -2.48145   -0.389175 0.0200579 0.582464  0.861572 0.480528 -0.163668 0.498883 -0.861115 0.0979655 -0.0938618 -0.166055 -0.981639   757.333 757.333 757.333 45.44 45.44 45.44  0 0 0 0 0 0   0.737362 0.411729 -0.67298 0.00126419 -2.68346 -1.45939 -0.907849 
 1.19232 0.0242266 0.0800375   -0.100277 -0.194225 0.328753  0.772153 0.137347 -0.431715 0.445576   2.30835 -6.90442 0.704956  -7.91016 -5.29224 -2.56348   -0.389261 0.0207563 0.582661  0.862321 0.47895 -0.164345 0.497365 -0.862057 0.0973959 -0.0950271 -0.165726 -0.981583   757.333 757.333 757.333 45.44 45.44 45.44  0 0 0 0 0 0   0.737362 0.411729 -0.67298 0.00126419 -2.68346 -1.45939 -0.907849 
 1.20229 0.0242266 0.0800375   -0.100277 -0.194225 0.328753  0.772153 0.137347 -0.431715 0.445576   2.23267 -7.24329 0.516968  -8.03375 -5.39209 -2.56348   -0.389332 0.0214651 0.582842  0.863094 0.477353 -0.164933 0.49582 -0.863002 0.0969035 -0.0960801 -0.165414 -0.981533   757.333 757.333 757.333 45.44 45.44 45.44  0 0 0 0 0 0   0.737362 0.411729 -0.67298 0.00126419 -2.68346 -1.45939 -0.907849 
 1.21229 0.0247668 0.0868139   -0.107421 -0.193335 0.333193  -0.772338 -0.13497 0.420571 -0.456505   2.15698 -6.98914 1.08093  -7.98431 -5.19238 -2.39941   -0.389391 0.0222234 0.583004  0.863934 0.475651 -0.165452 0.494161 -0.864003 0.096456 -0.0970721 -0.165092 -0.98149   827.632 827.632 827.632 49.6579 49.6579 49.6579  0 0 0 0 0 0   0.737362 0.411729 -0.67298 0.00126419 -2.68346 -1.45939 -0.907849 
 1.22227 0.0247668 0.0868139   -0.107421 -0.193335 0.333193  -0.772338 -0.13497 0.420571 -0.456505   1.6272 -6.86206 0.563965  -8.03375 -4.89282 -2.48145   -0.389435 0.0230304 0.583142  0.864842 0.473834 -0.165919 0.492384 -0.86506 0.0960665 -0.0980107 -0.164778 -0.981449   827.632 827.632 827.632 49.6579 49.6579 49.6579  0 0 0 0 0 0   0.737362 0.411729 -0.67298 0.00126419 -2.68346 -1.45939 -0.907849 
 1.23233 0.0247668 0.0868139   -0.107421 -0.193335 0.333193  -0.772338 -0.13497 0.420571 -0.456505   1.64612 -7.37036 0.563965  -8.3551 -4.96771 -2.48145   -0.389468 0.0238286 0.583248  0.865763 0.472032 -0.166252 0.490606 -0.866104 0.0957583 -0.0987905 -0.164468 -0.981423   827.632 827.632 827.632 49.6579 49.6579 49.6579  0 0 0 0 0 0   0.737362 0.411729 -0.67298 0.00126419 -2.68346 -1.45939 -0.907849 
 1.2423 0.0247668 0.0868139   -0.107421 -0.193335 0.333193  -0.772338 -0.13497 0.420571 -0.456505   1.51367 -7.62451 0.375977  -8.77533 -5.01764 -2.31738   -0.389479 0.0246546 0.583338  0.866721 0.470182 -0.166501 0.488774 -0.867164 0.095531 -0.0994663 -0.16418 -0.981403   827.632 827.632 827.632 49.6579 49.6579 49.6579  0 0 0 0 0 0   0.737362 0.411729 -0.67298 0.00126419 -2.68346 -1.45939 -0.907849 
 1.2523 0.0247668 0.0868139   -0.107421 -0.193335 0.333193  -0.772338 -0.13497 0.420571 -0.456505   1.34338 -7.11621 0.234985  -8.45398 -4.8429 -2.48145   -0.389469 0.0255106 0.583423  0.867709 0.468281 -0.166717 0.48689 -0.868243 0.0953515 -0.1001 -0.16391 -0.981383   827.632 827.632 827.632 49.6579 49.6579 49.6579  0 0 0 0 0 0   0.737362 0.411729 -0.67298 0.00126419 -2.68346 -1.45939 -0.907849 
 1.2623 0.0247668 0.0868139   -0.107421 -0.193335 0.333193  -0.772338 -0.13497 0.420571 -0.456505   1.3623 -7.28564 0.375977  -8.45398 -4.94275 -2.31738   -0.389443 0.0263962 0.583474  0.868751 0.466308 -0.16682 0.484922 -0.869354 0.0952542 -0.100608 -0.163647 -0.981375   827.632 827.632 827.632 49.6579 49.6579 49.6579  0 0 0 0 0 0   0.737362 0.411729 -0.67298 0.00126419 -2.68346 -1.45939 -0.907849 
 1.27228 0.0247668 0.0868139   -0.107421 -0.193335 0.333193  -0.772338 -0.13497 0.420571 -0.456505   1.1731 -7.73041 0.0469971  -9.02252 -4.79297 -2.33789   -0.389405 0.0273013 0.583496  0.869826 0.464288 -0.166852 0.482901 -0.870485 0.0951975 -0.101043 -0.163378 -0.981376   827.632 827.632 827.632 49.6579 49.6579 49.6579  0 0 0 0 0 0   0.737362 0.411729 -0.67298 0.00126419 -2.68346 -1.45939 -0.907849 
 1.28232 0.0247668 0.0868139   -0.107421 -0.193335 0.333193  -0.772338 -0.13497 0.420571 -0.456505   0.775757 -7.58215 0.0939941  -9.07196 -4.49341 -2.33789   -0.389346 0.0282382 0.583504  0.87093 0.462212 -0.166857 0.480821 -0.871639 0.0951688 -0.101451 -0.163114 -0.981377   827.632 827.632 827.632 49.6579 49.6579 49.6579  0 0 0 0 0 0   0.737362 0.411729 -0.67298 0.00126419 -2.68346 -1.45939 -0.907849 
 1.29227 0.0247668 0.0868139   -0.107421 -0.193335 0.333193  -0.772338 -0.13497 0.420571 -0.456505   0.321655 -7.4339 -0.0469971  -9.09668 -3.99414 -2.33789   -0.389276 0.0291968 0.583498  0.872061 0.460079 -0.166841 0.478685 -0.872813 0.0951727 -0.101834 -0.162861 -0.98138   827.632 827.632 827.632 49.6579 49.6579 49.6579  0 0 0 0 0 0   0.737362 0.411729 -0.67298 0.00126419 -2.68346 -1.45939 -0.907849 
 1.30229 0.0247668 0.0868139   -0.107421 -0.193335 0.333193  -0.772338 -0.13497 0.420571 -0.456505   0.189209 -7.70923 -0.0469971  -9.19556 -3.99414 -2.33789   -0.389198 0.0301744 0.583477  0.873218 0.457895 -0.166798 0.476495 -0.874007 0.0952084 -0.102187 -0.162616 -0.981384   827.632 827.632 827.632 49.6579 49.6579 49.6579  0 0 0 0 0 0   0.737362 0.411729 -0.67298 0.00126419 -2.68346 -1.45939 -0.907849 
 1.31231 0.0250784 0.0921176   -0.112554 -0.189327 0.339144  -0.775901 -0.12749 0.414933 -0.457771   -0.170288 -7.98456 -0.187988  -9.46747 -3.76947 -2.41992   -0.389114 0.0311869 0.583453  0.87441 0.455636 -0.166744 0.474227 -0.875237 0.0952348 -0.102548 -0.162349 -0.98139   882.654 882.654 882.654 52.9592 52.9592 52.9592  0 0 0 0 0 0   0.737362 0.411729 -0.67298 0.00126419 -2.68346 -1.45939 -0.907849 
 1.3223 0.0250784 0.0921176   -0.112554 -0.189327 0.339144  -0.775901 -0.12749 0.414933 -0.457771   -0.737915 -7.49744 0.375977  -8.97308 -3.22028 -2.33789   -0.389025 0.0322407 0.583432  0.875644 0.453276 -0.166697 0.47186 -0.876511 0.0952659 -0.10293 -0.162077 -0.981395   882.654 882.654 882.654 52.9592 52.9592 52.9592  0 0 0 0 0 0   0.737362 0.411729 -0.67298 0.00126419 -2.68346 -1.45939 -0.907849 
 1.33229 0.0250784 0.0921176   -0.112554 -0.189327 0.339144  -0.775901 -0.12749 0.414933 -0.457771   -0.775757 -7.92102 0  -9.41803 -3.46991 -2.3584   -0.388934 0.0332836 0.58341  0.876862 0.45093 -0.166657 0.46951 -0.877768 0.0953087 -0.103308 -0.16182 -0.981398   882.654 882.654 882.654 52.9592 52.9592 52.9592  0 0 0 0 0 0   0.737362 0.411729 -0.67298 0.00126419 -2.68346 -1.45939 -0.907849 
 1.34229 0.0250784 0.0921176   -0.112554 -0.189327 0.339144  -0.775901 -0.12749 0.414933 -0.457771   -0.340576 -7.56097 -0.187988  -9.29443 -3.86932 -2.33789   -0.38884 0.0343311 0.58339  0.878078 0.448572 -0.16662 0.467147 -0.879024 0.0953442 -0.103694 -0.161556 -0.981401   882.654 882.654 882.654 52.9592 52.9592 52.9592  0 0 0 0 0 0   0.737362 0.411729 -0.67298 0.00126419 -2.68346 -1.45939 -0.907849 
 1.35229 0.0250784 0.0921176   -0.112554 -0.189327 0.339144  -0.775901 -0.12749 0.414933 -0.457771   -0.889282 -7.41272 -0.563965  -8.92365 -3.51984 -2.44043   -0.388744 0.0354072 0.583381  0.879315 0.446146 -0.166608 0.464719 -0.880307 0.0953685 -0.104118 -0.161285 -0.9814   882.654 882.654 882.654 52.9592 52.9592 52.9592  0 0 0 0 0 0   0.737362 0.411729 -0.67298 0.00126419 -2.68346 -1.45939 -0.907849 
 1.36233 0.0250784 0.0921176   -0.112554 -0.189327 0.339144  -0.775901 -0.12749 0.414933 -0.457771   -0.643311 -7.64569 -0.187988  -9.14612 -3.59473 -2.3584   -0.388648 0.0364731 0.583376  0.880533 0.443739 -0.166603 0.462311 -0.881573 0.0953848 -0.104546 -0.161012 -0.9814   882.654 882.654 882.654 52.9592 52.9592 52.9592  0 0 0 0 0 0   0.737362 0.411729 -0.67298 0.00126419 -2.68346 -1.45939 -0.907849 
 1.3723 0.0250784 0.0921176   -0.112554 -0.189327 0.339144  -0.775901 -0.12749 0.414933 -0.457771   -0.718994 -7.56097 -0.375977  -9.26971 -3.66962 -2.52246   -0.388548 0.037553 0.583372  0.881759 0.4413 -0.166599 0.459869 -0.882847 0.0953972 -0.104983 -0.160731 -0.981399   882.654 882.654 882.654 52.9592 52.9592 52.9592  0 0 0 0 0 0   0.737362 0.411729 -0.67298 0.00126419 -2.68346 -1.45939 -0.907849 
 1.3823 0.0250784 0.0921176   -0.112554 -0.189327 0.339144  -0.775901 -0.12749 0.414933 -0.457771   -0.964966 -7.49744 -0.751953  -8.92365 -3.41998 -2.44043   -0.388444 0.0386477 0.58337  0.882995 0.43882 -0.166602 0.457388 -0.884134 0.0954104 -0.105431 -0.160449 -0.981397   882.654 882.654 882.654 52.9592 52.9592 52.9592  0 0 0 0 0 0   0.737362 0.411729 -0.67298 0.00126419 -2.68346 -1.45939 -0.907849 
 1.3923 0.0250784 0.0921176   -0.112554 -0.189327 0.339144  -0.775901 -0.12749 0.414933 -0.457771   -0.85144 -7.8363 -0.328979  -9.46747 -3.66962 -2.52246   -0.388339 0.0397194 0.583367  0.8842 0.436389 -0.166601 0.454955 -0.885387 0.0954237 -0.105864 -0.160169 -0.981396   882.654 882.654 882.654 52.9592 52.9592 52.9592  0 0 0 0 0 0   0.737362 0.411729 -0.67298 0.00126419 -2.68346 -1.45939 -0.907849 
 1.40229 0.0250784 0.0921176   -0.112554 -0.189327 0.339144  -0.775901 -0.12749 0.414933 -0.457771   -1.04065 -7.49744 -0.751953  -9.1214 -3.49487 -2.52246   -0.388227 0.0408143 0.583363  0.885423 0.433901 -0.166599 0.452465 -0.886661 0.0954391 -0.106305 -0.159884 -0.981395   882.654 882.654 882.654 52.9592 52.9592 52.9592  0 0 0 0 0 0   0.737362 0.411729 -0.67298 0.00126419 -2.68346 -1.45939 -0.907849 
 1.4123 0.0256994 0.100311   -0.121182 -0.189563 0.342407  -0.342049 -0.366225 0.217507 0.837599   -1.49475 -7.60333 -0.704956  -9.26971 -3.17035 -2.44043   -0.388112 0.0419205 0.58336  0.886653 0.431384 -0.166598 0.449945 -0.88794 0.0954532 -0.106752 -0.159594 -0.981394   967.654 967.654 967.654 58.0593 58.0593 58.0593  0 0 0 0 0 0   0.737362 0.411729 -0.67298 0.00126419 -2.68346 -1.45939 -0.907849 
 1.42228 0.0256994 0.100311   -0.121182 -0.189563 0.342407  -0.342049 -0.366225 0.217507 0.837599   -1.07849 -7.8363 -0.328979  -9.54163 -3.56976 -2.52246   -0.387996 0.0430016 0.583355  0.887849 0.428919 -0.166593 0.447478 -0.889184 0.0954693 -0.107184 -0.159309 -0.981393   967.654 967.654 967.654 58.0593 58.0593 58.0593  0 0 0 0 0 0   0.737362 0.411729 -0.67298 0.00126419 -2.68346 -1.45939 -0.907849 
 1.43233 0.0256994 0.100311   -0.121182 -0.189563 0.342407  -0.342049 -0.366225 0.217507 0.837599   -1.41907 -7.34918 -0.328979  -9.1214 -3.29517 -2.52246   -0.387874 0.0441154 0.58335  0.889073 0.426377 -0.16659 0.444933 -0.890459 0.0954854 -0.107629 -0.159015 -0.981392   967.654 967.654 967.654 58.0593 58.0593 58.0593  0 0 0 0 0 0   0.737362 0.411729 -0.67298 0.00126419 -2.68346 -1.45939 -0.907849 
 1.44232 0.0256994 0.100311   -0.121182 -0.189563 0.342407  -0.342049 -0.366225 0.217507 0.837599   -1.40015 -7.60333 -0.328979  -9.36859 -3.17035 -2.3584   -0.387748 0.0452255 0.583347  0.890286 0.423838 -0.166589 0.442392 -0.891723 0.0955008 -0.108074 -0.15872 -0.981391   967.654 967.654 967.654 58.0593 58.0593 58.0593  0 0 0 0 0 0   0.737362 0.411729 -0.67298 0.00126419 -2.68346 -1.45939 -0.907849 
 1.45227 0.0256994 0.100311   -0.121182 -0.189563 0.342407  -0.342049 -0.366225 0.217507 0.837599   -1.68396 -8.0481 -1.03394  -9.7641 -3.14539 -2.52246   -0.387619 0.046344 0.583342  0.891503 0.421276 -0.166581 0.439826 -0.892989 0.0955167 -0.108516 -0.15842 -0.98139   967.654 967.654 967.654 58.0593 58.0593 58.0593  0 0 0 0 0 0   0.737362 0.411729 -0.67298 0.00126419 -2.68346 -1.45939 -0.907849 
 1.4623 0.0256994 0.100311   -0.121182 -0.189563 0.342407  -0.342049 -0.366225 0.217507 0.837599   -2.25159 -7.22211 -0.845947  -9.19556 -2.59619 -2.52246   -0.387481 0.0474993 0.583338  0.892751 0.418624 -0.16658 0.437172 -0.894289 0.0955367 -0.108977 -0.158115 -0.981389   967.654 967.654 967.654 58.0593 58.0593 58.0593  0 0 0 0 0 0   0.737362 0.411729 -0.67298 0.00126419 -2.68346 -1.45939 -0.907849 
 1.47229 0.0256994 0.100311   -0.121182 -0.189563 0.342407  -0.342049 -0.366225 0.217507 0.837599   -2.51648 -7.8363 -0.986938  -9.54163 -2.34656 -2.54297   -0.387343 0.0486238 0.583335  0.893959 0.416041 -0.166576 0.434586 -0.895547 0.0955548 -0.109422 -0.157813 -0.981388   967.654 967.654 967.654 58.0593 58.0593 58.0593  0 0 0 0 0 0   0.737362 0.411729 -0.67298 0.00126419 -2.68346 -1.45939 -0.907849 
 1.4823 0.0256994 0.100311   -0.121182 -0.189563 0.342407  -0.342049 -0.366225 0.217507 0.837599   -2.68677 -7.58215 -0.986938  -9.54163 -2.2467 -2.54297   -0.387202 0.0497429 0.583326  0.895157 0.413463 -0.166562 0.432003 -0.896793 0.0955784 -0.109854 -0.157513 -0.981388   967.654 967.654 967.654 58.0593 58.0593 58.0593  0 0 0 0 0 0   0.737362 0.411729 -0.67298 0.00126419 -2.68346 -1.45939 -0.907849 
 1.4923 0.0256994 0.100311   -0.121182 -0.189563 0.342407  -0.342049 -0.366225 0.217507 0.837599   -3.08411 -7.26447 -0.986938  -9.19556 -1.99707 -2.54297   -0.387055 0.0508719 0.583319  0.896356 0.41086 -0.166554 0.429396 -0.898042 0.0956026 -0.110293 -0.157212 -0.981387   967.654 967.654 967.654 58.0593 58.0593 58.0593  0 0 0 0 0 0   0.737362 0.411729 -0.67298 0.00126419 -2.68346 -1.45939 -0.907849 
 1.5023 0.0256994 0.100311   -0.121182 -0.189563 0.342407  -0.342049 -0.366225 0.217507 0.837599   -3.14087 -7.4339 -0.79895  -9.39331 -1.97211 -2.37891   -0.386907 0.0519698 0.583304  0.897521 0.408323 -0.166522 0.426853 -0.899249 0.0956385 -0.110693 -0.156918 -0.981389   967.654 967.654 967.654 58.0593 58.0593 58.0593  0 0 0 0 0 0   0.737362 0.411729 -0.67298 0.00126419 -2.68346 -1.45939 -0.907849 
 1.51229 0.0260584 0.10735   -0.128468 -0.186783 0.345921  -0.766279 -0.112269 0.409749 -0.481992   -3.29224 -7.37036 -0.751953  -9.59106 -1.74744 -2.46094   -0.386752 0.0530721 0.583275  0.898689 0.405766 -0.166466 0.424289 -0.900456 0.0956904 -0.111068 -0.156626 -0.981393   1040.68 1040.68 1040.68 62.4407 62.4407 62.4407  0 0 0 0 0 0   0.737362 0.411729 -0.67298 0.00126419 -2.68346 -1.45939 -0.907849 
 1.52233 0.0260584 0.10735   -0.128468 -0.186783 0.345921  -0.766279 -0.112269 0.409749 -0.481992   -3.82202 -7.22211 -0.892944  -9.56635 -1.14832 -2.37891   -0.386589 0.0541683 0.583242  0.899845 0.403221 -0.166408 0.421737 -0.901647 0.0957584 -0.111429 -0.156348 -0.981396   1040.68 1040.68 1040.68 62.4407 62.4407 62.4407  0 0 0 0 0 0   0.737362 0.411729 -0.67298 0.00126419 -2.68346 -1.45939 -0.907849 
 1.53234 0.0260584 0.10735   -0.128468 -0.186783 0.345921  -0.766279 -0.112269 0.409749 -0.481992   -3.85986 -7.98456 -1.08093  -10.0854 -1.2981 -2.54297   -0.386424 0.055225 0.583191  0.900967 0.400761 -0.16628 0.419263 -0.90279 0.0958593 -0.1117 -0.156081 -0.981408   1040.68 1040.68 1040.68 62.4407 62.4407 62.4407  0 0 0 0 0 0   0.737362 0.411729 -0.67298 0.00126419 -2.68346 -1.45939 -0.907849 
 1.54234 0.0260584 0.10735   -0.128468 -0.186783 0.345921  -0.766279 -0.112269 0.409749 -0.481992   -3.97339 -7.47626 -1.08093  -9.7641 -1.12335 -2.54297   -0.386245 0.0562957 0.583126  0.902103 0.398267 -0.166111 0.416753 -0.903937 0.0959976 -0.111921 -0.155827 -0.981423   1040.68 1040.68 1040.68 62.4407 62.4407 62.4407  0 0 0 0 0 0   0.737362 0.411729 -0.67298 0.00126419 -2.68346 -1.45939 -0.907849 
 1.55232 0.0260584 0.10735   -0.128468 -0.186783 0.345921  -0.766279 -0.112269 0.409749 -0.481992   -4.33289 -7.51862 -1.03394  -9.78882 -0.624084 -2.46094   -0.386056 0.0573445 0.583056  0.903216 0.395823 -0.165905 0.414293 -0.905047 0.096181 -0.112081 -0.155605 -0.98144   1040.68 1040.68 1040.68 62.4407 62.4407 62.4407  0 0 0 0 0 0   0.737362 0.411729 -0.67298 0.00126419 -2.68346 -1.45939 -0.907849 
 1.56227 0.0260584 0.10735   -0.128468 -0.186783 0.345921  -0.766279 -0.112269 0.409749 -0.481992   -4.18152 -7.49744 -1.03394  -9.73938 -0.923645 -2.54297   -0.385858 0.0583661 0.58296  0.904318 0.393439 -0.165572 0.41188 -0.906121 0.0964372 -0.112086 -0.155406 -0.981471   1040.68 1040.68 1040.68 62.4407 62.4407 62.4407  0 0 0 0 0 0   0.737362 0.411729 -0.67298 0.00126419 -2.68346 -1.45939 -0.907849 
 1.57232 0.0260584 0.10735   -0.128468 -0.186783 0.345921  -0.766279 -0.112269 0.409749 -0.481992   -4.50317 -7.26447 -0.845947  -9.68994 -0.624084 -2.54297   -0.38564 0.0593886 0.58285  0.905425 0.391056 -0.165172 0.409466 -0.907179 0.0967645 -0.112 -0.155245 -0.981506   1040.68 1040.68 1040.68 62.4407 62.4407 62.4407  0 0 0 0 0 0   0.737362 0.411729 -0.67298 0.00126419 -2.68346 -1.45939 -0.907849 
 1.5823 0.0260584 0.10735   -0.128468 -0.186783 0.345921  -0.766279 -0.112269 0.409749 -0.481992   -4.55994 -7.51862 -0.657959  -9.86298 -0.524231 -2.46094   -0.385412 0.0603886 0.582728  0.906519 0.388723 -0.164676 0.407095 -0.908203 0.0971595 -0.111791 -0.155116 -0.981551   1040.68 1040.68 1040.68 62.4407 62.4407 62.4407  0 0 0 0 0 0   0.737362 0.411729 -0.67298 0.00126419 -2.68346 -1.45939 -0.907849 
 1.59227 0.0260584 0.10735   -0.128468 -0.186783 0.345921  -0.766279 -0.112269 0.409749 -0.481992   -4.33289 -7.77277 -0.845947  -10.0854 -0.698975 -2.54297   -0.385166 0.0613684 0.582586  0.907609 0.386443 -0.164036 0.404767 -0.90919 0.0976606 -0.111399 -0.155034 -0.981608   1040.68 1040.68 1040.68 62.4407 62.4407 62.4407  0 0 0 0 0 0   0.737362 0.411729 -0.67298 0.00126419 -2.68346 -1.45939 -0.907849 
 1.60232 0.0260584 0.10735   -0.128468 -0.186783 0.345921  -0.766279 -0.112269 0.409749 -0.481992   -4.65454 -7.4339 -1.03394  -9.86298 -0.524231 -2.46094   -0.3849 0.0623584 0.582445  0.908709 0.384149 -0.163331 0.402423 -0.910168 0.0982352 -0.110921 -0.154995 -0.981668   1040.68 1040.68 1040.68 62.4407 62.4407 62.4407  0 0 0 0 0 0   0.737362 0.411729 -0.67298 0.00126419 -2.68346 -1.45939 -0.907849 
 1.6123 0.0262362 0.112215   -0.133419 -0.183391 0.348806  -0.769814 -0.109456 0.403777 -0.482048   -4.93835 -7.62451 -1.17493  -10.1102 -0.174744 -2.56348   -0.384619 0.0633248 0.582286  0.909804 0.381914 -0.162476 0.400126 -0.911107 0.098915 -0.110256 -0.155004 -0.981742   1091.15 1091.15 1091.15 65.4687 65.4687 65.4687  0 0 0 0 0 0   0.737362 0.411729 -0.67298 0.00126419 -2.68346 -1.45939 -0.907849 
 1.62229 0.0262362 0.112215   -0.133419 -0.183391 0.348806  -0.769814 -0.109456 0.403777 -0.482048   -5.60059 -7.8363 -1.31592  -10.3574 0.22467 -2.56348   -0.384325 0.0642536 0.5821  0.910878 0.379764 -0.161495 0.397903 -0.911996 0.0996847 -0.109426 -0.15506 -0.981826   1091.15 1091.15 1091.15 65.4687 65.4687 65.4687  0 0 0 0 0 0   0.737362 0.411729 -0.67298 0.00126419 -2.68346 -1.45939 -0.907849 
 1.63229 0.0262362 0.112215   -0.133419 -0.183391 0.348806  -0.769814 -0.109456 0.403777 -0.482048   -5.39246 -7.41272 -1.50391  -10.2585 0.22467 -2.64551   -0.384019 0.0651828 0.581909  0.911942 0.377611 -0.160538 0.395683 -0.912875 0.100467 -0.108614 -0.155142 -0.981903   1091.15 1091.15 1091.15 65.4687 65.4687 65.4687  0 0 0 0 0 0   0.737362 0.411729 -0.67298 0.00126419 -2.68346 -1.45939 -0.907849 
 1.64231 0.0262362 0.112215   -0.133419 -0.183391 0.348806  -0.769814 -0.109456 0.403777 -0.482048   -5.46814 -7.41272 -1.31592  -10.0607 0.199707 -2.56348   -0.383696 0.0660855 0.581701  0.912989 0.375525 -0.159473 0.393524 -0.913712 0.101343 -0.107656 -0.155281 -0.981987   1091.15 1091.15 1091.15 65.4687 65.4687 65.4687  0 0 0 0 0 0   0.737362 0.411729 -0.67298 0.00126419 -2.68346 -1.45939 -0.907849 
 1.6523 0.0262362 0.112215   -0.133419 -0.183391 0.348806  -0.769814 -0.109456 0.403777 -0.482048   -5.0708 -7.81512 -1.31592  -10.4068 -0.174744 -2.56348   -0.383357 0.0669487 0.581481  0.914028 0.373542 -0.158173 0.391447 -0.914488 0.102376 -0.106406 -0.155491 -0.98209   1091.15 1091.15 1091.15 65.4687 65.4687 65.4687  0 0 0 0 0 0   0.737362 0.411729 -0.67298 0.00126419 -2.68346 -1.45939 -0.907849 
 1.66231 0.0262362 0.112215   -0.133419 -0.183391 0.348806  -0.769814 -0.109456 0.403777 -0.482048   -6.01685 -8.02692 -1.26892  -10.9012 0.574158 -2.56348   -0.383 0.0678115 0.581258  0.915075 0.371571 -0.156757 0.389371 -0.915248 0.1035 -0.105014 -0.155747 -0.982199   1091.15 1091.15 1091.15 65.4687 65.4687 65.4687  0 0 0 0 0 0   0.737362 0.411729 -0.67298 0.00126419 -2.68346 -1.45939 -0.907849 
 1.67231 0.0262362 0.112215   -0.133419 -0.183391 0.348806  -0.769814 -0.109456 0.403777 -0.482048   -6.22498 -7.45508 -1.45691  -10.209 1.0235 -2.56348   -0.382628 0.0686976 0.581021  0.916133 0.369536 -0.155382 0.387238 -0.916024 0.104625 -0.10367 -0.15602 -0.982298   1091.15 1091.15 1091.15 65.4687 65.4687 65.4687  0 0 0 0 0 0   0.737362 0.411729 -0.67298 0.00126419 -2.68346 -1.45939 -0.907849 
 1.68232 0.0262362 0.112215   -0.133419 -0.183391 0.348806  -0.769814 -0.109456 0.403777 -0.482048   -5.33569 -8.09045 -1.69189  -10.9012 -0.0249634 -2.64551   -0.38224 0.0695231 0.580766  0.917153 0.367654 -0.15382 0.385241 -0.91672 0.105894 -0.102078 -0.156379 -0.982408   1091.15 1091.15 1091.15 65.4687 65.4687 65.4687  0 0 0 0 0 0   0.737362 0.411729 -0.67298 0.00126419 -2.68346 -1.45939 -0.907849 
 1.69233 0.0262362 0.112215   -0.133419 -0.183391 0.348806  -0.769814 -0.109456 0.403777 -0.482048   -6.698 -8.32343 -1.5509  -11.3214 1.22321 -2.58398   -0.381838 0.0703384 0.580505  0.918168 0.365803 -0.15217 0.383267 -0.917391 0.107237 -0.100372 -0.156783 -0.98252   1091.15 1091.15 1091.15 65.4687 65.4687 65.4687  0 0 0 0 0 0   0.737362 0.411729 -0.67298 0.00126419 -2.68346 -1.45939 -0.907849 
 1.70226 0.0262362 0.112215   -0.133419 -0.183391 0.348806  -0.769814 -0.109456 0.403777 -0.482048   -6.28174 -7.62451 -1.45691  -10.5057 1.24817 -2.64551   -0.381427 0.0711557 0.58024  0.919167 0.363942 -0.150591 0.38129 -0.918059 0.108562 -0.0987413 -0.157206 -0.982617   1091.15 1091.15 1091.15 65.4687 65.4687 65.4687  0 0 0 0 0 0   0.737362 0.411729 -0.67298 0.00126419 -2.68346 -1.45939 -0.907849 
 1.71229 0.0171748 0.0997903   0.20079 0.114258 -0.347465  -0.624907 0.0766653 -0.643078 0.435964   -6.09253 -8.13281 -1.78589  -10.9753 0.698975 -2.66602   -0.380988 0.071967 0.579973  0.920166 0.362113 -0.148889 0.379336 -0.918695 0.110018 -0.0969449 -0.157714 -0.982715   962.253 962.253 962.253 57.7352 57.7352 57.7352  0 0 0 0 0 0   0.737362 0.411729 -0.67298 0.00126419 -2.68346 -1.45939 -0.907849 
 1.72232 0.0171748 0.0997903   0.20079 0.114258 -0.347465  -0.624907 0.0766653 -0.643078 0.435964   -6.41418 -7.73041 -1.78589  -10.7034 1.17328 -2.58398   -0.380548 0.0727553 0.579682  0.921151 0.360325 -0.147126 0.377413 -0.919308 0.111499 -0.0950785 -0.158235 -0.982813   962.253 962.253 962.253 57.7352 57.7352 57.7352  0 0 0 0 0 0   0.737362 0.411729 -0.67298 0.00126419 -2.68346 -1.45939 -0.907849 
 1.73228 0.0171748 0.0997903   0.20079 0.114258 -0.347465  -0.624907 0.0766653 -0.643078 0.435964   -5.67627 -7.68805 -1.87988  -10.3821 0.649048 -2.64551   -0.380084 0.0735495 0.579368  0.922143 0.358521 -0.145311 0.375469 -0.919914 0.113051 -0.0931426 -0.158809 -0.982906   962.253 962.253 962.253 57.7352 57.7352 57.7352  0 0 0 0 0 0   0.737362 0.411729 -0.67298 0.00126419 -2.68346 -1.45939 -0.907849 
 1.74232 0.0171748 0.0997903   0.20079 0.114258 -0.347465  -0.624907 0.0766653 -0.643078 0.435964   -6.71692 -7.89984 -1.5979  -10.827 1.07343 -2.50195   -0.379596 0.0743242 0.57908  0.923104 0.356797 -0.143444 0.373603 -0.920469 0.114705 -0.091109 -0.159476 -0.982989   962.253 962.253 962.253 57.7352 57.7352 57.7352  0 0 0 0 0 0   0.737362 0.411729 -0.67298 0.00126419 -2.68346 -1.45939 -0.907849 
 1.75231 0.0171748 0.0997903   0.20079 0.114258 -0.347465  -0.624907 0.0766653 -0.643078 0.435964   -5.63843 -7.07385 -1.31592  -9.91241 0.399414 -2.48145   -0.379104 0.0750935 0.57876  0.924072 0.355065 -0.14149 0.371715 -0.921021 0.116396 -0.0889874 -0.160152 -0.983073   962.253 962.253 962.253 57.7352 57.7352 57.7352  0 0 0 0 0 0   0.737362 0.411729 -0.67298 0.00126419 -2.68346 -1.45939 -0.907849 
 1.76232 0.0171748 0.0997903   0.20079 0.114258 -0.347465  -0.624907 0.0766653 -0.643078 0.435964   -6.48987 -7.87866 -1.97388  -10.7776 0.674011 -2.58398   -0.378589 0.075844 0.57844  0.925032 0.3534 -0.139369 0.369874 -0.921529 0.118224 -0.0866521 -0.16091 -0.983158   962.253 962.253 962.253 57.7352 57.7352 57.7352  0 0 0 0 0 0   0.737362 0.411729 -0.67298 0.00126419 -2.68346 -1.45939 -0.907849 
 1.77227 0.0171748 0.0997903   0.20079 0.114258 -0.347465  -0.624907 0.0766653 -0.643078 0.435964   -5.99792 -7.51862 -1.87988  -10.3079 0.324524 -2.39941   -0.378064 0.076578 0.578102  0.925979 0.351769 -0.137194 0.368058 -0.922013 0.120105 -0.0842452 -0.16171 -0.983236   962.253 962.253 962.253 57.7352 57.7352 57.7352  0 0 0 0 0 0   0.737362 0.411729 -0.67298 0.00126419 -2.68346 -1.45939 -0.907849 
 1.7823 0.0171748 0.0997903   0.20079 0.114258 -0.347465  -0.624907 0.0766653 -0.643078 0.435964   -6.73584 -7.62451 -1.45691  -10.4068 0.524231 -2.41992   -0.377513 0.0773092 0.577784  0.926917 0.350175 -0.134915 0.366265 -0.922464 0.122104 -0.0816965 -0.162595 -0.983305   962.253 962.253 962.253 57.7352 57.7352 57.7352  0 0 0 0 0 0   0.737362 0.411729 -0.67298 0.00126419 -2.68346 -1.45939 -0.907849 
 1.79229 0.0171748 0.0997903   0.20079 0.114258 -0.347465  -0.624907 0.0766653 -0.643078 0.435964   -5.58167 -6.54437 -0.986938  -9.51691 -0.249634 -2.31738   -0.376964 0.078016 0.577446  0.927831 0.348627 -0.132621 0.36451 -0.922892 0.124105 -0.0791281 -0.16349 -0.983366   962.253 962.253 962.253 57.7352 57.7352 57.7352  0 0 0 0 0 0   0.737362 0.411729 -0.67298 0.00126419 -2.68346 -1.45939 -0.907849 
 1.80233 0.0171748 0.0997903   0.20079 0.114258 -0.347465  -0.624907 0.0766653 -0.643078 0.435964   -6.77368 -6.88324 -1.26892  -9.93713 0.898682 -2.23535   -0.376407 0.0787031 0.577109  0.928715 0.34713 -0.130342 0.362804 -0.92329 0.126127 -0.076561 -0.164424 -0.983414   962.253 962.253 962.253 57.7352 57.7352 57.7352  0 0 0 0 0 0   0.737362 0.411729 -0.67298 0.00126419 -2.68346 -1.45939 -0.907849 
 1.81229 0.0266159 0.113725   -0.134968 -0.189061 0.347607  0.350662 0.363081 -0.203164 -0.839007   -6.52771 -7.26447 -0.892944  -10.036 0.199707 -2.31738   -0.375849 0.0793495 0.576759  0.929558 0.345725 -0.128046 0.361181 -0.923645 0.12817 -0.0739572 -0.165389 -0.983451   1106.81 1106.81 1106.81 66.4086 66.4086 66.4086  0 0 0 0 0 0   0.737362 0.411729 -0.67298 0.00126419 -2.68346 -1.45939 -0.907849 
 1.82229 0.0266159 0.113725   -0.134968 -0.189061 0.347607  0.350662 0.363081 -0.203164 -0.839007   -6.86829 -6.52319 -1.26892  -9.68994 0.549194 -2.15332   -0.375284 0.079972 0.576409  0.930368 0.344387 -0.125752 0.35962 -0.923965 0.130239 -0.0713377 -0.166393 -0.983476   1106.81 1106.81 1106.81 66.4086 66.4086 66.4086  0 0 0 0 0 0   0.737362 0.411729 -0.67298 0.00126419 -2.68346 -1.45939 -0.907849 
 1.8323 0.0266159 0.113725   -0.134968 -0.189061 0.347607  0.350662 0.363081 -0.203164 -0.839007   -6.3385 -6.56555 -1.31592  -9.71466 -0.14978 -2.07129   -0.374708 0.0805584 0.576044  0.93114 0.343138 -0.123431 0.35814 -0.924238 0.132361 -0.0686613 -0.167452 -0.983486   1106.81 1106.81 1106.81 66.4086 66.4086 66.4086  0 0 0 0 0 0   0.737362 0.411729 -0.67298 0.00126419 -2.68346 -1.45939 -0.907849 
 1.84234 0.0266159 0.113725   -0.134968 -0.189061 0.347607  0.350662 0.363081 -0.203164 -0.839007   -5.90332 -6.29022 -0.79895  -9.41803 -0.374451 -2.15332   -0.374141 0.0811249 0.575674  0.93188 0.341926 -0.121189 0.356699 -0.924498 0.134424 -0.0660757 -0.168494 -0.983485   1106.81 1106.81 1106.81 66.4086 66.4086 66.4086  0 0 0 0 0 0   0.737362 0.411729 -0.67298 0.00126419 -2.68346 -1.45939 -0.907849 
 1.85232 0.0266159 0.113725   -0.134968 -0.189061 0.347607  0.350662 0.363081 -0.203164 -0.839007   -6.84937 -6.94678 -1.08093  -9.86298 0.0748901 -2.07129   -0.373567 0.0816533 0.575304  0.932583 0.340817 -0.118877 0.355345 -0.924707 0.136556 -0.0633861 -0.169592 -0.983474   1106.81 1106.81 1106.81 66.4086 66.4086 66.4086  0 0 0 0 0 0   0.737362 0.411729 -0.67298 0.00126419 -2.68346 -1.45939 -0.907849 
 1.8623 0.0266159 0.113725   -0.134968 -0.189061 0.347607  0.350662 0.363081 -0.203164 -0.839007   -6.14929 -5.95135 -1.36292  -8.94836 -0.524231 -2.07129   -0.372996 0.0821583 0.574947  0.933247 0.339775 -0.11663 0.35406 -0.924886 0.138666 -0.060754 -0.170704 -0.983448   1106.81 1106.81 1106.81 66.4086 66.4086 66.4086  0 0 0 0 0 0   0.737362 0.411729 -0.67298 0.00126419 -2.68346 -1.45939 -0.907849 
 1.87232 0.0266159 0.113725   -0.134968 -0.189061 0.347607  0.350662 0.363081 -0.203164 -0.839007   -6.73584 -6.16315 -1.12793  -9.19556 -0.299561 -1.98926   -0.372415 0.0826262 0.574606  0.933864 0.338844 -0.114377 0.352879 -0.92501 0.140829 -0.0580814 -0.171876 -0.983405   1106.81 1106.81 1106.81 66.4086 66.4086 66.4086  0 0 0 0 0 0   0.737362 0.411729 -0.67298 0.00126419 -2.68346 -1.45939 -0.907849 
 1.88227 0.0266159 0.113725   -0.134968 -0.189061 0.347607  0.350662 0.363081 -0.203164 -0.839007   -5.63843 -5.50659 -0.657959  -8.80005 -0.823792 -2.05078   -0.371853 0.083062 0.574261  0.934438 0.337977 -0.112238 0.35177 -0.925114 0.142903 -0.0555349 -0.173016 -0.983352   1106.81 1106.81 1106.81 66.4086 66.4086 66.4086  0 0 0 0 0 0   0.737362 0.411729 -0.67298 0.00126419 -2.68346 -1.45939 -0.907849 
 1.89232 0.0266159 0.113725   -0.134968 -0.189061 0.347607  0.350662 0.363081 -0.203164 -0.839007   -7.18994 -6.09961 -0.563965  -9.26971 0 -1.90723   -0.371298 0.0834715 0.573921  0.934974 0.337173 -0.110173 0.350725 -0.925194 0.144938 -0.0530622 -0.174154 -0.983288   1106.81 1106.81 1106.81 66.4086 66.4086 66.4086  0 0 0 0 0 0   0.737362 0.411729 -0.67298 0.00126419 -2.68346 -1.45939 -0.907849 
 1.90229 0.0266159 0.113725   -0.134968 -0.189061 0.347607  0.350662 0.363081 -0.203164 -0.839007   -6.37634 -5.8031 -0.610962  -8.97308 -0.723938 -1.98926   -0.370745 0.08384 0.573567  0.935458 0.336463 -0.108214 0.349784 -0.925235 0.146938 -0.0506842 -0.175306 -0.983209   1106.81 1106.81 1106.81 66.4086 66.4086 66.4086  0 0 0 0 0 0   0.737362 0.411729 -0.67298 0.00126419 -2.68346 -1.45939 -0.907849 
 1.91229 0.0266899 0.114598   -0.136121 -0.190308 0.346475  -0.770363 -0.099269 0.413796 -0.474826   -6.92505 -5.57013 -0.422974  -8.89893 -0.324524 -1.98926   -0.370197 0.0841782 0.573229  0.935899 0.335839 -0.106329 0.348932 -0.925242 0.148907 -0.0483716 -0.176464 -0.983118   1115.87 1115.87 1115.87 66.9523 66.9523 66.9523  0 0 0 0 0 0   0.737362 0.411729 -0.67298 0.00126419 -2.68346 -1.45939 -0.907849 
 1.92234 0.0266899 0.114598   -0.136121 -0.190308 0.346475  -0.770363 -0.099269 0.413796 -0.474826   -6.56555 -5.21008 -0.845947  -8.45398 -0.674011 -1.90723   -0.36966 0.0844788 0.572862  0.936299 0.335281 -0.104552 0.348156 -0.925227 0.150807 -0.0461715 -0.177601 -0.983019   1115.87 1115.87 1115.87 66.9523 66.9523 66.9523  0 0 0 0 0 0   0.737362 0.411729 -0.67298 0.00126419 -2.68346 -1.45939 -0.907849 
 1.93229 0.0266899 0.114598   -0.136121 -0.190308 0.346475  -0.770363 -0.099269 0.413796 -0.474826   -6.41418 -5.1889 -0.469971  -8.50342 -0.973572 -1.88672   -0.369117 0.0847433 0.572503  0.936656 0.33483 -0.102784 0.347482 -0.925163 0.152738 -0.0439508 -0.178779 -0.982907   1115.87 1115.87 1115.87 66.9523 66.9523 66.9523  0 0 0 0 0 0   0.737362 0.411729 -0.67298 0.00126419 -2.68346 -1.45939 -0.907849 
 1.94229 0.0266899 0.114598   -0.136121 -0.190308 0.346475  -0.770363 -0.099269 0.413796 -0.474826   -6.47095 -4.34174 -0.328979  -7.73712 -0.524231 -1.96875   -0.368594 0.0849847 0.572129  0.936983 0.334411 -0.101149 0.346854 -0.925097 0.154558 -0.0418868 -0.179902 -0.982792   1115.87 1115.87 1115.87 66.9523 66.9523 66.9523  0 0 0 0 0 0   0.737362 0.411729 -0.67298 0.00126419 -2.68346 -1.45939 -0.907849 
 1.9523 0.0266899 0.114598   -0.136121 -0.190308 0.346475  -0.770363 -0.099269 0.413796 -0.474826   -5.71411 -4.36292 -0.187988  -7.81128 -1.72247 -1.88672   -0.368056 0.0851978 0.571736  0.937289 0.334066 -0.0994446 0.346283 -0.924989 0.156474 -0.0397128 -0.181097 -0.982663   1115.87 1115.87 1115.87 66.9523 66.9523 66.9523  0 0 0 0 0 0   0.737362 0.411729 -0.67298 0.00126419 -2.68346 -1.45939 -0.907849 
 1.9623 0.0266899 0.114598   -0.136121 -0.190308 0.346475  -0.770363 -0.099269 0.413796 -0.474826   -7.28455 -4.80768 0.140991  -7.95959 -0.0998535 -1.74316   -0.367526 0.085396 0.571394  0.937557 0.333793 -0.097827 0.345792 -0.924854 0.158344 -0.0376215 -0.182284 -0.982526   1115.87 1115.87 1115.87 66.9523 66.9523 66.9523  0 0 0 0 0 0   0.737362 0.411729 -0.67298 0.00126419 -2.68346 -1.45939 -0.907849 
 1.97232 0.0266899 0.114598   -0.136121 -0.190308 0.346475  -0.770363 -0.099269 0.413796 -0.474826   -6.11145 -4.06641 0  -7.41577 -1.14832 -1.72266   -0.366991 0.085552 0.570971  0.937817 0.333585 -0.0960234 0.345329 -0.924688 0.160311 -0.0353146 -0.183502 -0.982385   1115.87 1115.87 1115.87 66.9523 66.9523 66.9523  0 0 0 0 0 0   0.737362 0.411729 -0.67298 0.00126419 -2.68346 -1.45939 -0.907849 
 1.9823 0.0266899 0.114598   -0.136121 -0.190308 0.346475  -0.770363 -0.099269 0.413796 -0.474826   -6.52771 -4.57471 0.234985  -7.95959 -1.32306 -1.72266   -0.366459 0.0856923 0.570598  0.938043 0.33345 -0.0942711 0.34494 -0.924491 0.162275 -0.0330422 -0.184739 -0.982232   1115.87 1115.87 1115.87 66.9523 66.9523 66.9523  0 0 0 0 0 0   0.737362 0.411729 -0.67298 0.00126419 -2.68346 -1.45939 -0.907849 
 1.9923 0.0266899 0.114598   -0.136121 -0.190308 0.346475  -0.770363 -0.099269 0.413796 -0.474826   -6.88721 -3.7699 -0.328979  -7.11914 -0.674011 -1.72266   -0.36593 0.0858246 0.570199  0.938258 0.333321 -0.0925653 0.344559 -0.924295 0.164189 -0.03083 -0.185946 -0.982076   1115.87 1115.87 1115.87 66.9523 66.9523 66.9523  0 0 0 0 0 0   0.737362 0.411729 -0.67298 0.00126419 -2.68346 -1.45939 -0.907849 
 2.0023 0.0266899 0.114598   -0.136121 -0.190308 0.346475  -0.770363 -0.099269 0.413796 -0.474826   -5.77087 -3.34631 0.516968  -6.82251 -1.82233 -1.62012   -0.365417 0.085935 0.56981  0.938449 0.333232 -0.0909414 0.344224 -0.924084 0.166071 -0.0286974 -0.187153 -0.981911   1115.87 1115.87 1115.87 66.9523 66.9523 66.9523  0 0 0 0 0 0   0.737362 0.411729 -0.67298 0.00126419 -2.68346 -1.45939 -0.907849 
 2.0123 0.0269603 0.114483   -0.136535 -0.197541 0.342209  -0.780152 -0.100703 0.41148 -0.460331   -6.81152 -3.57928 0.234985  -6.97083 -0.898682 -1.55859   -0.3649 0.0860225 0.569433  0.938603 0.33322 -0.089383 0.343971 -0.92384 0.167939 -0.026615 -0.188373 -0.981737   1114.67 1114.67 1114.67 66.8805 66.8805 66.8805  0 0 0 0 0 0   0.737362 0.411729 -0.67298 0.00126419 -2.68346 -1.45939 -0.907849 
 2.0223 0.0269603 0.114483   -0.136535 -0.197541 0.342209  -0.780152 -0.100703 0.41148 -0.460331   -7.01965 -2.98627 1.12793  -6.25397 -0.773865 -1.39453   -0.364407 0.0860908 0.569047  0.938734 0.333221 -0.0879901 0.343754 -0.923602 0.169685 -0.0247251 -0.189536 -0.981562   1114.67 1114.67 1114.67 66.8805 66.8805 66.8805  0 0 0 0 0 0   0.737362 0.411729 -0.67298 0.00126419 -2.68346 -1.45939 -0.907849 
 2.03227 0.0269603 0.114483   -0.136535 -0.197541 0.342209  -0.780152 -0.100703 0.41148 -0.460331   -6.13037 -2.77448 1.03394  -6.05621 -1.4978 -1.37402   -0.363918 0.0861131 0.568641  0.938827 0.33331 -0.0866498 0.343629 -0.92332 0.17146 -0.022856 -0.190747 -0.981373   1114.67 1114.67 1114.67 66.8805 66.8805 66.8805  0 0 0 0 0 0   0.737362 0.411729 -0.67298 0.00126419 -2.68346 -1.45939 -0.907849 
 2.04232 0.0269603 0.114483   -0.136535 -0.197541 0.342209  -0.780152 -0.100703 0.41148 -0.460331   -6.75476 -2.45679 0.704956  -5.80902 -1.22321 -1.29199   -0.363439 0.0861092 0.568234  0.93889 0.333471 -0.0853394 0.343575 -0.92302 0.173175 -0.0210212 -0.191913 -0.981187   1114.67 1114.67 1114.67 66.8805 66.8805 66.8805  0 0 0 0 0 0   0.737362 0.411729 -0.67298 0.00126419 -2.68346 -1.45939 -0.907849 
 2.05233 0.0269603 0.114483   -0.136535 -0.197541 0.342209  -0.780152 -0.100703 0.41148 -0.460331   -7.0575 -2.22382 0.704956  -5.51239 -0.649048 -1.23047   -0.362972 0.0860671 0.56778  0.938927 0.333703 -0.0840145 0.343582 -0.922705 0.174836 -0.0191774 -0.193024 -0.981007   1114.67 1114.67 1114.67 66.8805 66.8805 66.8805  0 0 0 0 0 0   0.737362 0.411729 -0.67298 0.00126419 -2.68346 -1.45939 -0.907849 
 2.06227 0.0269603 0.114483   -0.136535 -0.197541 0.342209  -0.780152 -0.100703 0.41148 -0.460331   -7.07642 -2.11792 1.26892  -5.24048 -0.773865 -1.20996   -0.36253 0.085995 0.56734  0.938921 0.333988 -0.0829374 0.343681 -0.922377 0.17636 -0.0175974 -0.194092 -0.980825   1114.67 1114.67 1114.67 66.8805 66.8805 66.8805  0 0 0 0 0 0   0.737362 0.411729 -0.67298 0.00126419 -2.68346 -1.45939 -0.907849 
 2.0723 0.0269603 0.114483   -0.136535 -0.197541 0.342209  -0.780152 -0.100703 0.41148 -0.460331   -6.3385 -1.65198 0.79895  -4.94385 -1.39795 -1.20996   -0.362088 0.0858794 0.566865  0.938878 0.334366 -0.0819014 0.343877 -0.922015 0.177868 -0.0160412 -0.19516 -0.98064   1114.67 1114.67 1114.67 66.8805 66.8805 66.8805  0 0 0 0 0 0   0.737362 0.411729 -0.67298 0.00126419 -2.68346 -1.45939 -0.907849 
 2.08232 0.0269603 0.114483   -0.136535 -0.197541 0.342209  -0.780152 -0.100703 0.41148 -0.460331   -6.98181 -1.18604 1.36292  -4.32587 -0.748901 -1.0459   -0.361675 0.0857124 0.566402  0.938777 0.334866 -0.0810032 0.344214 -0.921621 0.179254 -0.014628 -0.196162 -0.980462   1114.67 1114.67 1114.67 66.8805 66.8805 66.8805  0 0 0 0 0 0   0.737362 0.411729 -0.67298 0.00126419 -2.68346 -1.45939 -0.907849 
 2.09229 0.0269603 0.114483   -0.136535 -0.197541 0.342209  -0.780152 -0.100703 0.41148 -0.460331   -6.31958 -1.22839 1.31592  -4.35059 -1.34802 -1.0459   -0.361251 0.0855 0.565884  0.938646 0.335465 -0.0800482 0.344633 -0.921185 0.180683 -0.0131266 -0.197184 -0.980279   1114.67 1114.67 1114.67 66.8805 66.8805 66.8805  0 0 0 0 0 0   0.737362 0.411729 -0.67298 0.00126419 -2.68346 -1.45939 -0.907849 
 2.10231 0.0269603 0.114483   -0.136535 -0.197541 0.342209  -0.780152 -0.100703 0.41148 -0.460331   -6.7926 -0.825989 1.69189  -3.95508 -0.973572 -0.963867   -0.360857 0.0852671 0.565394  0.938482 0.336104 -0.079283 0.345125 -0.920748 0.181968 -0.0118396 -0.198136 -0.980103   1114.67 1114.67 1114.67 66.8805 66.8805 66.8805  0 0 0 0 0 0   0.737362 0.411729 -0.67298 0.00126419 -2.68346 -1.45939 -0.907849 
 2.1123 0.0270653 0.113922   -0.136336 -0.201406 0.339417  -0.786451 -0.100637 0.410504 -0.450393   -6.20605 -0.444763 1.08093  -3.63373 -1.52277 -1.0459   -0.36047 0.0849864 0.564883  0.938279 0.336844 -0.0785393 0.345718 -0.92027 0.183253 -0.0105498 -0.199094 -0.979924   1108.85 1108.85 1108.85 66.5312 66.5312 66.5312  0 0 0 0 0 0   0.737362 0.411729 -0.67298 0.00126419 -2.68346 -1.45939 -0.907849 
 2.12231 0.0270653 0.113922   -0.136336 -0.201406 0.339417  -0.786451 -0.100637 0.410504 -0.450393   -6.35742 -0.465942 1.08093  -3.53485 -1.42291 -1.0459   -0.360093 0.0846694 0.564417  0.938022 0.337703 -0.0779182 0.346449 -0.919747 0.184493 -0.00936122 -0.200053 -0.97974   1108.85 1108.85 1108.85 66.5312 66.5312 66.5312  0 0 0 0 0 0   0.737362 0.411729 -0.67298 0.00126419 -2.68346 -1.45939 -0.907849 
 2.13229 0.0270653 0.113922   -0.136336 -0.201406 0.339417  -0.786451 -0.100637 0.410504 -0.450393   -6.14929 -0.105896 1.26892  -3.16406 -1.64758 -1.02539   -0.359731 0.0843008 0.563935  0.937723 0.33869 -0.0772283 0.347289 -0.919187 0.185701 -0.00809219 -0.200957 -0.979567   1108.85 1108.85 1108.85 66.5312 66.5312 66.5312  0 0 0 0 0 0   0.737362 0.411729 -0.67298 0.00126419 -2.68346 -1.45939 -0.907849 
 2.14233 0.0270653 0.113922   -0.136336 -0.201406 0.339417  -0.786451 -0.100637 0.410504 -0.450393   -6.52771 -0.211792 1.45691  -3.3371 -1.34802 -0.943359   -0.359373 0.0839044 0.56347  0.937389 0.339761 -0.0765799 0.348217 -0.918594 0.186896 -0.00684593 -0.201861 -0.97939   1108.85 1108.85 1108.85 66.5312 66.5312 66.5312  0 0 0 0 0 0   0.737362 0.411729 -0.67298 0.00126419 -2.68346 -1.45939 -0.907849 
 2.1523 0.0270653 0.113922   -0.136336 -0.201406 0.339417  -0.786451 -0.100637 0.410504 -0.450393   -6.18713 0.402405 1.22192  -2.86743 -1.67255 -0.943359   -0.35901 0.0835031 0.56298  0.937057 0.340838 -0.0758581 0.349134 -0.918 0.1881 -0.00552611 -0.202745 -0.979216   1108.85 1108.85 1108.85 66.5312 66.5312 66.5312  0 0 0 0 0 0   0.737362 0.411729 -0.67298 0.00126419 -2.68346 -1.45939 -0.907849 
 2.16229 0.0270653 0.113922   -0.136336 -0.201406 0.339417  -0.786451 -0.100637 0.410504 -0.450393   -6.39526 0.232971 1.45691  -2.94159 -1.57269 -0.779297   -0.358671 0.0830405 0.562494  0.936672 0.342052 -0.0751442 0.350184 -0.917354 0.189298 -0.00418416 -0.203624 -0.97904   1108.85 1108.85 1108.85 66.5312 66.5312 66.5312  0 0 0 0 0 0   0.737362 0.411729 -0.67298 0.00126419 -2.68346 -1.45939 -0.907849 
 2.17229 0.0270653 0.113922   -0.136336 -0.201406 0.339417  -0.786451 -0.100637 0.410504 -0.450393   -6.05469 0.677734 1.36292  -2.27417 -1.84729 -0.779297   -0.358326 0.0825597 0.562011  0.936261 0.34333 -0.0744374 0.351295 -0.916682 0.19049 -0.00283469 -0.204497 -0.978863   1108.85 1108.85 1108.85 66.5312 66.5312 66.5312  0 0 0 0 0 0   0.737362 0.411729 -0.67298 0.00126419 -2.68346 -1.45939 -0.907849 
 2.18231 0.0270653 0.113922   -0.136336 -0.201406 0.339417  -0.786451 -0.100637 0.410504 -0.450393   -6.43311 0.741272 1.5979  -2.22473 -1.54773 -0.697266   -0.357998 0.082041 0.561539  0.935816 0.344686 -0.0737626 0.352487 -0.915976 0.191678 -0.00149614 -0.205375 -0.978682   1108.85 1108.85 1108.85 66.5312 66.5312 66.5312  0 0 0 0 0 0   0.737362 0.411729 -0.67298 0.00126419 -2.68346 -1.45939 -0.907849 
 2.19231 0.0270653 0.113922   -0.136336 -0.201406 0.339417  -0.786451 -0.100637 0.410504 -0.450393   -6.14929 0.762451 1.36292  -2.0517 -1.67255 -0.615234   -0.357667 0.081495 0.561047  0.935347 0.346109 -0.073038 0.353731 -0.915241 0.192894 -8.51908e-05 -0.206258 -0.978498   1108.85 1108.85 1108.85 66.5312 66.5312 66.5312  0 0 0 0 0 0   0.737362 0.411729 -0.67298 0.00126419 -2.68346 -1.45939 -0.907849 
 2.20229 0.0270653 0.113922   -0.136336 -0.201406 0.339417  -0.786451 -0.100637 0.410504 -0.450393   -5.94116 1.20721 1.50391  -1.82922 -2.19678 -0.697266   -0.35735 0.0809529 0.560576  0.934874 0.34753 -0.0723438 0.354978 -0.914516 0.194038 0.0012746 -0.207082 -0.978323   1108.85 1108.85 1108.85 66.5312 66.5312 66.5312  0 0 0 0 0 0   0.737362 0.411729 -0.67298 0.00126419 -2.68346 -1.45939 -0.907849 
 2.2123 0.0272721 0.116955   -0.140671 -0.205134 0.334592  -0.790322 -0.0972385 0.408011 -0.446613   -5.94116 1.35547 1.50391  -1.58203 -1.89722 -0.533203   -0.35704 0.0803741 0.560098  0.934366 0.349043 -0.0716156 0.356304 -0.913757 0.195181 0.00268744 -0.207888 -0.978149   1140.32 1140.32 1140.32 68.4193 68.4193 68.4193  0 0 0 0 0 0   0.737362 0.411729 -0.67298 0.00126419 -2.68346 -1.45939 -0.907849 
 2.22227 0.0272721 0.116955   -0.140671 -0.205134 0.334592  -0.790322 -0.0972385 0.408011 -0.446613   -5.63843 1.39783 1.69189  -1.58203 -2.5213 -0.451172   -0.356745 0.0797773 0.559668  0.933826 0.35061 -0.0710062 0.357706 -0.912975 0.196271 0.00398771 -0.208682 -0.977975   1140.32 1140.32 1140.32 68.4193 68.4193 68.4193  0 0 0 0 0 0   0.737362 0.411729 -0.67298 0.00126419 -2.68346 -1.45939 -0.907849 
 2.23229 0.0272721 0.116955   -0.140671 -0.205134 0.334592  -0.790322 -0.0972385 0.408011 -0.446613   -5.90332 1.96967 1.26892  -1.08765 -2.047 -0.369141   -0.356456 0.0791628 0.559234  0.933269 0.352217 -0.0703671 0.359138 -0.912182 0.197343 0.00531989 -0.209445 -0.977806   1140.32 1140.32 1140.32 68.4193 68.4193 68.4193  0 0 0 0 0 0   0.737362 0.411729 -0.67298 0.00126419 -2.68346 -1.45939 -0.907849 
 2.2423 0.0272721 0.116955   -0.140671 -0.205134 0.334592  -0.790322 -0.0972385 0.408011 -0.446613   -5.82764 1.80023 1.45691  -1.26068 -2.44641 -0.369141   -0.356186 0.0785311 0.558836  0.932693 0.35385 -0.0698184 0.360612 -0.911375 0.198381 0.00656629 -0.210206 -0.977635   1140.32 1140.32 1140.32 68.4193 68.4193 68.4193  0 0 0 0 0 0   0.737362 0.411729 -0.67298 0.00126419 -2.68346 -1.45939 -0.907849 
 2.2523 0.0272721 0.116955   -0.140671 -0.205134 0.334592  -0.790322 -0.0972385 0.408011 -0.446613   -5.67627 1.80023 1.26892  -1.13708 -2.34656 -0.430664   -0.355913 0.0778839 0.558434  0.932099 0.355523 -0.0692393 0.362118 -0.910556 0.199396 0.00784355 -0.210929 -0.97747   1140.32 1140.32 1140.32 68.4193 68.4193 68.4193  0 0 0 0 0 0   0.737362 0.411729 -0.67298 0.00126419 -2.68346 -1.45939 -0.907849 
 2.26231 0.0272721 0.116955   -0.140671 -0.205134 0.334592  -0.790322 -0.0972385 0.408011 -0.446613   -5.67627 1.99084 1.45691  -1.03821 -2.34656 -0.348633   -0.35565 0.0772262 0.558036  0.931502 0.357198 -0.0686504 0.363621 -0.909738 0.200392 0.00912577 -0.211629 -0.977308   1140.32 1140.32 1140.32 68.4193 68.4193 68.4193  0 0 0 0 0 0   0.737362 0.411729 -0.67298 0.00126419 -2.68346 -1.45939 -0.907849 
 2.27231 0.0272721 0.116955   -0.140671 -0.205134 0.334592  -0.790322 -0.0972385 0.408011 -0.446613   -5.96008 1.54608 1.50391  -1.31012 -2.2467 -0.287109   -0.355405 0.076517 0.557644  0.930867 0.358964 -0.0680572 0.36521 -0.908886 0.201367 0.0104273 -0.212301 -0.977149   1140.32 1140.32 1140.32 68.4193 68.4193 68.4193  0 0 0 0 0 0   0.737362 0.411729 -0.67298 0.00126419 -2.68346 -1.45939 -0.907849 
 2.28233 0.0272721 0.116955   -0.140671 -0.205134 0.334592  -0.790322 -0.0972385 0.408011 -0.446613   -5.69519 2.05438 1.45691  -0.914612 -2.47137 -0.348633   -0.355164 0.0758166 0.557256  0.930252 0.360671 -0.0674421 0.366735 -0.908062 0.202311 0.0117262 -0.212934 -0.976996   1140.32 1140.32 1140.32 68.4193 68.4193 68.4193  0 0 0 0 0 0   0.737362 0.411729 -0.67298 0.00126419 -2.68346 -1.45939 -0.907849 
 2.29229 0.0272721 0.116955   -0.140671 -0.205134 0.334592  -0.790322 -0.0972385 0.408011 -0.446613   -5.90332 1.88495 1.83289  -1.03821 -2.37152 -0.18457   -0.354935 0.0750904 0.556884  0.929621 0.3624 -0.0668614 0.368287 -0.907226 0.203239 0.0129955 -0.213559 -0.976844   1140.32 1140.32 1140.32 68.4193 68.4193 68.4193  0 0 0 0 0 0   0.737362 0.411729 -0.67298 0.00126419 -2.68346 -1.45939 -0.907849 
 2.30231 0.0272721 0.116955   -0.140671 -0.205134 0.334592  -0.790322 -0.0972385 0.408011 -0.446613   -5.99792 2.1391 1.26892  -0.692139 -2.09692 -0.102539   -0.354723 0.0743451 0.556524  0.928993 0.364118 -0.0662612 0.369823 -0.906403 0.20412 0.0142645 -0.214131 -0.976701   1140.32 1140.32 1140.32 68.4193 68.4193 68.4193  0 0 0 0 0 0   0.737362 0.411729 -0.67298 0.00126419 -2.68346 -1.45939 -0.907849 
 2.31233 0.0272341 0.111719   -0.135317 -0.210738 0.331076  0.323162 0.354851 -0.161483 -0.862305   -5.31677 2.35089 1.40991  -0.692139 -2.7959 -0.18457   -0.354508 0.0735972 0.556154  0.928407 0.365723 -0.0656243 0.371239 -0.90562 0.205023 0.015551 -0.214707 -0.976555   1086 1086 1086 65.1601 65.1601 65.1601  0 0 0 0 0 0   0.737362 0.411729 -0.67298 0.00126419 -2.68346 -1.45939 -0.907849 
 2.3223 0.0272341 0.111719   -0.135317 -0.210738 0.331076  0.323162 0.354851 -0.161483 -0.862305   -5.5249 2.07556 1.5979  -0.889893 -2.77094 -0.102539   -0.354315 0.0728249 0.555811  0.927835 0.367283 -0.0649966 0.372611 -0.904863 0.205872 0.0168004 -0.215234 -0.976418   1086 1086 1086 65.1601 65.1601 65.1601  0 0 0 0 0 0   0.737362 0.411729 -0.67298 0.00126419 -2.68346 -1.45939 -0.907849 
 2.3323 0.0272341 0.111719   -0.135317 -0.210738 0.331076  0.323162 0.354851 -0.161483 -0.862305   -5.18433 2.43561 1.03394  -0.519104 -3.02057 -0.102539   -0.35412 0.072089 0.555476  0.927318 0.368697 -0.0643684 0.37384 -0.904167 0.206702 0.0180107 -0.215742 -0.976284   1086 1086 1086 65.1601 65.1601 65.1601  0 0 0 0 0 0   0.737362 0.411729 -0.67298 0.00126419 -2.68346 -1.45939 -0.907849 
 2.3423 0.0272341 0.111719   -0.135317 -0.210738 0.331076  0.323162 0.354851 -0.161483 -0.862305   -5.14648 2.09674 1.22192  -0.96405 -3.17035 -0.102539   -0.353936 0.0713461 0.555183  0.92677 0.370164 -0.0638454 0.375143 -0.903449 0.207481 0.0191211 -0.216239 -0.976153   1086 1086 1086 65.1601 65.1601 65.1601  0 0 0 0 0 0   0.737362 0.411729 -0.67298 0.00126419 -2.68346 -1.45939 -0.907849 
 2.3523 0.0272341 0.111719   -0.135317 -0.210738 0.331076  0.323162 0.354851 -0.161483 -0.862305   -5.14648 2.01202 1.22192  -0.865173 -3.29517 -0.102539   -0.353776 0.070577 0.5549  0.926186 0.371712 -0.0633215 0.376523 -0.902707 0.208208 0.0202326 -0.216681 -0.976033   1086 1086 1086 65.1601 65.1601 65.1601  0 0 0 0 0 0   0.737362 0.411729 -0.67298 0.00126419 -2.68346 -1.45939 -0.907849 
 2.3623 0.0272341 0.111719   -0.135317 -0.210738 0.331076  0.323162 0.354851 -0.161483 -0.862305   -5.41138 2.52032 1.22192  -0.519104 -2.92072 -0.0205078   -0.353622 0.069827 0.554637  0.925589 0.373275 -0.0628541 0.377931 -0.901958 0.208901 0.0212859 -0.217111 -0.975915   1086 1086 1086 65.1601 65.1601 65.1601  0 0 0 0 0 0   0.737362 0.411729 -0.67298 0.00126419 -2.68346 -1.45939 -0.907849 
 2.3723 0.0272341 0.111719   -0.135317 -0.210738 0.331076  0.323162 0.354851 -0.161483 -0.862305   -5.03296 2.37207 1.17493  -0.469666 -3.32013 -0.0205078   -0.353479 0.0690703 0.554399  0.924961 0.374895 -0.0624579 0.379409 -0.901184 0.209564 0.0222786 -0.217536 -0.975798   1086 1086 1086 65.1601 65.1601 65.1601  0 0 0 0 0 0   0.737362 0.411729 -0.67298 0.00126419 -2.68346 -1.45939 -0.907849 
 2.38231 0.0272341 0.111719   -0.135317 -0.210738 0.331076  0.323162 0.354851 -0.161483 -0.862305   -4.80591 2.62622 1.5509  -0.296631 -3.5448 -0.0205078   -0.35334 0.0683187 0.554175  0.924325 0.37652 -0.0620914 0.380898 -0.900409 0.210192 0.0232341 -0.217937 -0.975686   1086 1086 1086 65.1601 65.1601 65.1601  0 0 0 0 0 0   0.737362 0.411729 -0.67298 0.00126419 -2.68346 -1.45939 -0.907849 
 2.39227 0.0272341 0.111719   -0.135317 -0.210738 0.331076  0.323162 0.354851 -0.161483 -0.862305   -4.95728 2.5415 1.17493  -0.271912 -3.24524 0.143555   -0.35322 0.0675393 0.55397  0.923674 0.378172 -0.0617432 0.382416 -0.899626 0.210786 0.0241675 -0.218309 -0.97558   1086 1086 1086 65.1601 65.1601 65.1601  0 0 0 0 0 0   0.737362 0.411729 -0.67298 0.00126419 -2.68346 -1.45939 -0.907849 
 2.40227 0.0272341 0.111719   -0.135317 -0.210738 0.331076  0.323162 0.354851 -0.161483 -0.862305   -4.65454 2.47797 1.69189  -0.197754 -3.5448 0.143555   -0.353114 0.0667356 0.553768  0.923026 0.379811 -0.0613637 0.383916 -0.898855 0.21135 0.0251162 -0.21864 -0.975482   1086 1086 1086 65.1601 65.1601 65.1601  0 0 0 0 0 0   0.737362 0.411729 -0.67298 0.00126419 -2.68346 -1.45939 -0.907849 
 2.4123 0.0271009 0.108254   -0.131947 -0.213021 0.328323  -0.795406 -0.101881 0.434083 -0.410513   -4.59778 2.81683 1.69189  0 -3.66962 0.225586   -0.353012 0.065945 0.553594  0.922376 0.381437 -0.0610555 0.385417 -0.898087 0.211879 0.0259852 -0.218964 -0.975387   1050.06 1050.06 1050.06 63.0037 63.0037 63.0037  0 0 0 0 0 0   0.737362 0.411729 -0.67298 0.00126419 -2.68346 -1.45939 -0.907849 
 2.42231 0.0271009 0.108254   -0.131947 -0.213021 0.328323  -0.795406 -0.101881 0.434083 -0.410513   -4.44641 2.66858 1.6449  0.0494385 -3.86932 0.225586   -0.352925 0.0651302 0.553431  0.921682 0.383156 -0.0607744 0.387016 -0.897281 0.212382 0.0268437 -0.219269 -0.975295   1050.06 1050.06 1050.06 63.0037 63.0037 63.0037  0 0 0 0 0 0   0.737362 0.411729 -0.67298 0.00126419 -2.68346 -1.45939 -0.907849 
