SugeethGopinathan/ManipubalityHRI/data/test/test2.dat
 TimeStamp manip.manip_measure_out_port manip.force_transmission_out_port tt.outport_grip.position.x tt.outport_grip.position.y tt.outport_grip.position.z tt.outport_grip.orientation.x tt.outport_grip.orientation.y tt.outport_grip.orientation.z tt.outport_grip.orientation.w jr3.ForceTorqueOutputPort.forces.0 jr3.ForceTorqueOutputPort.forces.1 jr3.ForceTorqueOutputPort.forces.2 jr3.ForceTorqueOutputPort.torques.0 jr3.ForceTorqueOutputPort.torques.1 jr3.ForceTorqueOutputPort.torques.2 test.cart_pose_loop_out_port.p.X test.cart_pose_loop_out_port.p.Y test.cart_pose_loop_out_port.p.Z test.cart_pose_loop_out_port.M.X_x test.cart_pose_loop_out_port.M.X_y test.cart_pose_loop_out_port.M.X_z test.cart_pose_loop_out_port.M.Y_x test.cart_pose_loop_out_port.M.Y_y test.cart_pose_loop_out_port.M.Y_z test.cart_pose_loop_out_port.M.Z_x test.cart_pose_loop_out_port.M.Z_y test.cart_pose_loop_out_port.M.Z_z stiff.cart_stiffdamp_out_port.stiffness.0 stiff.cart_stiffdamp_out_port.stiffness.1 stiff.cart_stiffdamp_out_port.stiffness.2 stiff.cart_stiffdamp_out_port.stiffness.3 stiff.cart_stiffdamp_out_port.stiffness.4 stiff.cart_stiffdamp_out_port.stiffness.5 stiff.cart_stiffdamp_out_port.damping.0 stiff.cart_stiffdamp_out_port.damping.1 stiff.cart_stiffdamp_out_port.damping.2 stiff.cart_stiffdamp_out_port.damping.3 stiff.cart_stiffdamp_out_port.damping.4 stiff.cart_stiffdamp_out_port.damping.5 lwr.current_joint_values.angles.0 lwr.current_joint_values.angles.1 lwr.current_joint_values.angles.2 lwr.current_joint_values.angles.3 lwr.current_joint_values.angles.4 lwr.current_joint_values.angles.5 lwr.current_joint_values.angles.6
 8.96e-07 0.0190858 0.0958855   0.141219 0.0645825 -0.339484  -0.664689 0.0747989 -0.697601 0.256799   -3.51929 -0.78363 1.03394  1.85394 2.59619 0.738281   -0.480013 -0.0691181 0.558615  0.847685 0.392817 -0.356546 0.336372 -0.917708 -0.211345 -0.410225 0.0592222 -0.91006   921.744 921.744 921.744 55.3046 55.3046 55.3046  0 0 0 0 0 0   0.737362 0.411729 -0.67298 0.00126419 -2.68346 -1.45939 -0.907849 
 0.0119696 0.0190858 0.0958855   0.141219 0.0645825 -0.339484  -0.664689 0.0747989 -0.697601 0.256799   -3.67065 -0.78363 0.657959  1.77979 2.82086 0.799805   -0.480011 -0.069121 0.558607  0.84769 0.392821 -0.356531 0.336381 -0.917706 -0.211336 -0.410208 0.0592169 -0.910068   921.744 921.744 921.744 55.3046 55.3046 55.3046  0 0 0 0 0 0   0.737362 0.411729 -0.67298 0.00126419 -2.68346 -1.45939 -0.907849 
 0.0219733 0.0190858 0.0958855   0.141219 0.0645825 -0.339484  -0.664689 0.0747989 -0.697601 0.256799   -3.51929 -0.698914 0.657959  1.97754 2.89575 0.717773   -0.48001 -0.0691275 0.558605  0.847686 0.392831 -0.356529 0.336395 -0.917703 -0.21133 -0.410205 0.059207 -0.91007   921.744 921.744 921.744 55.3046 55.3046 55.3046  0 0 0 0 0 0   0.737362 0.411729 -0.67298 0.00126419 -2.68346 -1.45939 -0.907849 
 0.0319383 0.0190858 0.0958855   0.141219 0.0645825 -0.339484  -0.664689 0.0747989 -0.697601 0.256799   -3.46252 -0.52948 1.03394  2.07642 2.7959 0.738281   -0.48001 -0.069137 0.558603  0.847678 0.392847 -0.356528 0.336415 -0.917697 -0.211324 -0.410203 0.0591937 -0.910071   921.744 921.744 921.744 55.3046 55.3046 55.3046  0 0 0 0 0 0   0.737362 0.411729 -0.67298 0.00126419 -2.68346 -1.45939 -0.907849 
 0.0419785 0.0190858 0.0958855   0.141219 0.0645825 -0.339484  -0.664689 0.0747989 -0.697601 0.256799   -3.38684 -0.614197 0.657959  1.97754 2.7959 0.820312   -0.480009 -0.0691497 0.558602  0.847668 0.39287 -0.356529 0.336442 -0.917688 -0.211319 -0.410203 0.0591774 -0.910072   921.744 921.744 921.744 55.3046 55.3046 55.3046  0 0 0 0 0 0   0.737362 0.411729 -0.67298 0.00126419 -2.68346 -1.45939 -0.907849 
 0.0519756 0.0190858 0.0958855   0.141219 0.0645825 -0.339484  -0.664689 0.0747989 -0.697601 0.256799   -3.53821 -0.52948 0.657959  2.10114 2.99561 0.635742   -0.480009 -0.0691627 0.558601  0.847658 0.392892 -0.356528 0.336469 -0.917679 -0.211313 -0.410202 0.0591604 -0.910074   921.744 921.744 921.744 55.3046 55.3046 55.3046  0 0 0 0 0 0   0.737362 0.411729 -0.67298 0.00126419 -2.68346 -1.45939 -0.907849 
 0.0619759 0.0186153 0.045043   -0.0717285 -0.139013 0.340578  -0.251774 -0.26818 0.338769 0.865982   -3.61389 -0.444763 0.657959  2.00226 2.99561 0.717773   -0.480009 -0.0691758 0.558599  0.847648 0.392914 -0.356528 0.336496 -0.917671 -0.211306 -0.4102 0.0591428 -0.910076   394.293 394.293 394.293 23.6576 23.6576 23.6576  0 0 0 0 0 0   0.737362 0.411729 -0.67298 0.00126419 -2.68346 -1.45939 -0.907849 
 0.0719722 0.0186153 0.045043   -0.0717285 -0.139013 0.340578  -0.251774 -0.26818 0.338769 0.865982   -3.51929 -0.614197 1.03394  2.00226 2.99561 0.717773   -0.480008 -0.0691908 0.558597  0.847637 0.39294 -0.356525 0.336527 -0.917662 -0.211298 -0.410197 0.0591235 -0.910079   394.293 394.293 394.293 23.6576 23.6576 23.6576  0 0 0 0 0 0   0.737362 0.411729 -0.67298 0.00126419 -2.68346 -1.45939 -0.907849 
 0.0819876 0.0186153 0.045043   -0.0717285 -0.139013 0.340578  -0.251774 -0.26818 0.338769 0.865982   -3.59497 -0.698914 1.22192  1.90338 3.02057 0.65625   -0.480007 -0.0692086 0.558594  0.847624 0.392971 -0.356522 0.336565 -0.91765 -0.211289 -0.410192 0.0591006 -0.910082   394.293 394.293 394.293 23.6576 23.6576 23.6576  0 0 0 0 0 0   0.737362 0.411729 -0.67298 0.00126419 -2.68346 -1.45939 -0.907849 
 0.0919814 0.0186153 0.045043   -0.0717285 -0.139013 0.340578  -0.251774 -0.26818 0.338769 0.865982   -3.51929 -0.614197 0.657959  2.00226 2.89575 0.717773   -0.480006 -0.0692312 0.55859  0.847607 0.393009 -0.356519 0.336612 -0.917635 -0.211278 -0.410188 0.0590724 -0.910086   394.293 394.293 394.293 23.6576 23.6576 23.6576  0 0 0 0 0 0   0.737362 0.411729 -0.67298 0.00126419 -2.68346 -1.45939 -0.907849 
 0.102006 0.0186153 0.045043   -0.0717285 -0.139013 0.340578  -0.251774 -0.26818 0.338769 0.865982   -3.46252 -0.52948 0.657959  2.17529 2.87079 0.820312   -0.480005 -0.0692574 0.558586  0.847588 0.393055 -0.356514 0.336667 -0.917617 -0.211266 -0.410182 0.0590399 -0.910091   394.293 394.293 394.293 23.6576 23.6576 23.6576  0 0 0 0 0 0   0.737362 0.411729 -0.67298 0.00126419 -2.68346 -1.45939 -0.907849 
 0.11198 0.0186153 0.045043   -0.0717285 -0.139013 0.340578  -0.251774 -0.26818 0.338769 0.865982   -3.38684 -0.360046 0.845947  2.17529 2.7959 0.738281   -0.480003 -0.0692849 0.558582  0.847568 0.393103 -0.356509 0.336725 -0.917599 -0.211254 -0.410177 0.0590067 -0.910095   394.293 394.293 394.293 23.6576 23.6576 23.6576  0 0 0 0 0 0   0.737362 0.411729 -0.67298 0.00126419 -2.68346 -1.45939 -0.907849 
 0.12198 0.0186153 0.045043   -0.0717285 -0.139013 0.340578  -0.251774 -0.26818 0.338769 0.865982   -3.17871 -0.338867 1.36292  2.24945 2.67108 0.820312   -0.480001 -0.0693148 0.558577  0.847545 0.393156 -0.356504 0.336787 -0.917579 -0.211242 -0.410172 0.0589708 -0.9101   394.293 394.293 394.293 23.6576 23.6576 23.6576  0 0 0 0 0 0   0.737362 0.411729 -0.67298 0.00126419 -2.68346 -1.45939 -0.907849 
 0.132009 0.0186153 0.045043   -0.0717285 -0.139013 0.340578  -0.251774 -0.26818 0.338769 0.865982   -3.31116 -0.360046 0.986938  2.27417 2.77094 0.820312   -0.479999 -0.0693453 0.558573  0.847522 0.39321 -0.356499 0.336851 -0.917558 -0.211232 -0.410167 0.0589365 -0.910104   394.293 394.293 394.293 23.6576 23.6576 23.6576  0 0 0 0 0 0   0.737362 0.411729 -0.67298 0.00126419 -2.68346 -1.45939 -0.907849 
 0.141981 0.0186153 0.045043   -0.0717285 -0.139013 0.340578  -0.251774 -0.26818 0.338769 0.865982   -3.46252 -0.52948 0.657959  2.10114 2.89575 0.738281   -0.479997 -0.0693729 0.55857  0.847502 0.393258 -0.356496 0.336908 -0.917539 -0.211222 -0.410163 0.0589051 -0.910108   394.293 394.293 394.293 23.6576 23.6576 23.6576  0 0 0 0 0 0   0.737362 0.411729 -0.67298 0.00126419 -2.68346 -1.45939 -0.907849 
 0.151972 0.0186153 0.045043   -0.0717285 -0.139013 0.340578  -0.251774 -0.26818 0.338769 0.865982   -3.53821 -0.614197 1.03394  2.00226 2.89575 0.820312   -0.479994 -0.0694033 0.558566  0.847479 0.393311 -0.356491 0.336969 -0.917519 -0.211214 -0.41016 0.0588731 -0.910111   394.293 394.293 394.293 23.6576 23.6576 23.6576  0 0 0 0 0 0   0.737362 0.411729 -0.67298 0.00126419 -2.68346 -1.45939 -0.907849 
 0.161973 0.0186217 0.0446667   -0.0713428 -0.137914 0.341981  0.252518 0.265968 -0.338695 -0.866476   -3.38684 -0.614197 0.845947  2.17529 2.77094 0.738281   -0.479991 -0.0694305 0.558564  0.847458 0.393359 -0.356488 0.337024 -0.9175 -0.211208 -0.410158 0.0588448 -0.910114   390.388 390.388 390.388 23.4233 23.4233 23.4233  0 0 0 0 0 0   0.737362 0.411729 -0.67298 0.00126419 -2.68346 -1.45939 -0.907849 
 0.171971 0.0186217 0.0446667   -0.0713428 -0.137914 0.341981  0.252518 0.265968 -0.338695 -0.866476   -3.38684 -0.614197 1.22192  2.17529 2.77094 0.738281   -0.479989 -0.0694557 0.558561  0.847439 0.393403 -0.356486 0.337075 -0.917483 -0.211201 -0.410157 0.0588171 -0.910116   390.388 390.388 390.388 23.4233 23.4233 23.4233  0 0 0 0 0 0   0.737362 0.411729 -0.67298 0.00126419 -2.68346 -1.45939 -0.907849 
 0.182023 0.0186217 0.0446667   -0.0713428 -0.137914 0.341981  0.252518 0.265968 -0.338695 -0.866476   -3.25439 -0.338867 0.610962  2.37305 2.77094 0.738281   -0.479987 -0.06948 0.558559  0.84742 0.393446 -0.356483 0.337124 -0.917466 -0.211195 -0.410155 0.0587919 -0.910119   390.388 390.388 390.388 23.4233 23.4233 23.4233  0 0 0 0 0 0   0.737362 0.411729 -0.67298 0.00126419 -2.68346 -1.45939 -0.907849 
 0.192 0.0186217 0.0446667   -0.0713428 -0.137914 0.341981  0.252518 0.265968 -0.338695 -0.866476   -3.25439 -0.25415 0.79895  2.37305 2.77094 0.738281   -0.479985 -0.0695 0.558558  0.847404 0.39348 -0.356483 0.337164 -0.917453 -0.211189 -0.410155 0.0587696 -0.91012   390.388 390.388 390.388 23.4233 23.4233 23.4233  0 0 0 0 0 0   0.737362 0.411729 -0.67298 0.00126419 -2.68346 -1.45939 -0.907849 
 0.201975 0.0186217 0.0446667   -0.0713428 -0.137914 0.341981  0.252518 0.265968 -0.338695 -0.866476   -3.25439 -0.0847168 1.17493  2.5708 2.74597 0.820312   -0.479983 -0.0695178 0.558557  0.84739 0.393512 -0.356481 0.337199 -0.91744 -0.211187 -0.410155 0.0587523 -0.910122   390.388 390.388 390.388 23.4233 23.4233 23.4233  0 0 0 0 0 0   0.737362 0.411729 -0.67298 0.00126419 -2.68346 -1.45939 -0.907849 
 0.211972 0.0186217 0.0446667   -0.0713428 -0.137914 0.341981  0.252518 0.265968 -0.338695 -0.866476   -3.33008 -0.190613 0.986938  2.49664 2.84583 0.820312   -0.479981 -0.0695346 0.558556  0.847377 0.39354 -0.356481 0.337232 -0.917429 -0.211183 -0.410155 0.0587349 -0.910123   390.388 390.388 390.388 23.4233 23.4233 23.4233  0 0 0 0 0 0   0.737362 0.411729 -0.67298 0.00126419 -2.68346 -1.45939 -0.907849 
 0.221969 0.0186217 0.0446667   -0.0713428 -0.137914 0.341981  0.252518 0.265968 -0.338695 -0.866476   -3.42468 -0.0211792 0.610962  2.71912 3.14539 0.738281   -0.479979 -0.0695526 0.558555  0.847363 0.393571 -0.356481 0.337267 -0.917417 -0.21118 -0.410156 0.0587165 -0.910123   390.388 390.388 390.388 23.4233 23.4233 23.4233  0 0 0 0 0 0   0.737362 0.411729 -0.67298 0.00126419 -2.68346 -1.45939 -0.907849 
 0.231975 0.0186217 0.0446667   -0.0713428 -0.137914 0.341981  0.252518 0.265968 -0.338695 -0.866476   -3.57605 -0.0211792 0.422974  2.71912 3.14539 0.65625   -0.479976 -0.0695743 0.558554  0.847346 0.393607 -0.356481 0.337309 -0.917403 -0.211174 -0.410156 0.058693 -0.910125   390.388 390.388 390.388 23.4233 23.4233 23.4233  0 0 0 0 0 0   0.737362 0.411729 -0.67298 0.00126419 -2.68346 -1.45939 -0.907849 
 0.241957 0.0186217 0.0446667   -0.0713428 -0.137914 0.341981  0.252518 0.265968 -0.338695 -0.866476   -3.42468 -0.0211792 0.422974  2.62024 3.14539 0.65625   -0.479974 -0.0695999 0.558553  0.847326 0.393647 -0.356484 0.337357 -0.917388 -0.211163 -0.410158 0.0586616 -0.910126   390.388 390.388 390.388 23.4233 23.4233 23.4233  0 0 0 0 0 0   0.737362 0.411729 -0.67298 0.00126419 -2.68346 -1.45939 -0.907849 
 0.252007 0.0186217 0.0446667   -0.0713428 -0.137914 0.341981  0.252518 0.265968 -0.338695 -0.866476   -3.349 0.0635376 0.610962  2.81799 3.12042 0.65625   -0.479971 -0.0696276 0.558553  0.847303 0.393692 -0.356488 0.337409 -0.917371 -0.211152 -0.410161 0.0586276 -0.910127   390.388 390.388 390.388 23.4233 23.4233 23.4233  0 0 0 0 0 0   0.737362 0.411729 -0.67298 0.00126419 -2.68346 -1.45939 -0.907849 
 0.261973 0.01872 0.0453737   -0.0719466 -0.139509 0.341134  -0.69534 -0.267421 0.478144 -0.465152   -3.36792 0.25415 0.610962  3.04047 3.22028 0.65625   -0.479967 -0.0696595 0.558552  0.847278 0.393744 -0.356489 0.337471 -0.917351 -0.211143 -0.410162 0.0585919 -0.910129   397.723 397.723 397.723 23.8634 23.8634 23.8634  0 0 0 0 0 0   0.737362 0.411729 -0.67298 0.00126419 -2.68346 -1.45939 -0.907849 
 0.271983 0.01872 0.0453737   -0.0719466 -0.139509 0.341134  -0.69534 -0.267421 0.478144 -0.465152   -3.29224 0.0847168 0.610962  3.04047 3.22028 0.574219   -0.479963 -0.0696954 0.55855  0.84725 0.393806 -0.356489 0.337541 -0.917327 -0.211135 -0.410163 0.0585542 -0.910131   397.723 397.723 397.723 23.8634 23.8634 23.8634  0 0 0 0 0 0   0.737362 0.411729 -0.67298 0.00126419 -2.68346 -1.45939 -0.907849 
 0.281991 0.01872 0.0453737   -0.0719466 -0.139509 0.341134  -0.69534 -0.267421 0.478144 -0.465152   -3.349 0.0635376 0.986938  2.86743 3.32013 0.65625   -0.479959 -0.0697329 0.558548  0.84722 0.393871 -0.356487 0.337615 -0.917301 -0.211128 -0.410164 0.0585168 -0.910133   397.723 397.723 397.723 23.8634 23.8634 23.8634  0 0 0 0 0 0   0.737362 0.411729 -0.67298 0.00126419 -2.68346 -1.45939 -0.907849 
 0.291969 0.01872 0.0453737   -0.0719466 -0.139509 0.341134  -0.69534 -0.267421 0.478144 -0.465152   -3.42468 -0.0211792 0.986938  2.76855 3.34509 0.574219   -0.479955 -0.0697692 0.558546  0.847192 0.393934 -0.356485 0.337686 -0.917276 -0.211122 -0.410164 0.0584803 -0.910135   397.723 397.723 397.723 23.8634 23.8634 23.8634  0 0 0 0 0 0   0.737362 0.411729 -0.67298 0.00126419 -2.68346 -1.45939 -0.907849 
 0.301971 0.01872 0.0453737   -0.0719466 -0.139509 0.341134  -0.69534 -0.267421 0.478144 -0.465152   -3.57605 -0.0211792 0.422974  2.76855 3.44495 0.492188   -0.479951 -0.0698053 0.558544  0.847163 0.393998 -0.356483 0.337758 -0.917251 -0.211117 -0.410164 0.0584455 -0.910137   397.723 397.723 397.723 23.8634 23.8634 23.8634  0 0 0 0 0 0   0.737362 0.411729 -0.67298 0.00126419 -2.68346 -1.45939 -0.907849 
 0.311972 0.01872 0.0453737   -0.0719466 -0.139509 0.341134  -0.69534 -0.267421 0.478144 -0.465152   -3.57605 -0.0211792 0.79895  2.84271 3.32013 0.410156   -0.479946 -0.0698418 0.558542  0.847134 0.394061 -0.356481 0.337829 -0.917226 -0.21111 -0.410164 0.0584084 -0.910139   397.723 397.723 397.723 23.8634 23.8634 23.8634  0 0 0 0 0 0   0.737362 0.411729 -0.67298 0.00126419 -2.68346 -1.45939 -0.907849 
 0.322017 0.01872 0.0453737   -0.0719466 -0.139509 0.341134  -0.69534 -0.267421 0.478144 -0.465152   -3.4436 0.148254 0.610962  2.96631 3.41998 0.492188   -0.479942 -0.0698783 0.55854  0.847105 0.394125 -0.356481 0.337901 -0.917201 -0.211104 -0.410166 0.0583721 -0.910141   397.723 397.723 397.723 23.8634 23.8634 23.8634  0 0 0 0 0 0   0.737362 0.411729 -0.67298 0.00126419 -2.68346 -1.45939 -0.907849 
 0.331949 0.01872 0.0453737   -0.0719466 -0.139509 0.341134  -0.69534 -0.267421 0.478144 -0.465152   -3.36792 0.338867 0.234985  3.04047 3.32013 0.410156   -0.479938 -0.0699147 0.558539  0.847076 0.394188 -0.35648 0.337972 -0.917176 -0.211098 -0.410167 0.0583356 -0.910143   397.723 397.723 397.723 23.8634 23.8634 23.8634  0 0 0 0 0 0   0.737362 0.411729 -0.67298 0.00126419 -2.68346 -1.45939 -0.907849 
 0.342015 0.01872 0.0453737   -0.0719466 -0.139509 0.341134  -0.69534 -0.267421 0.478144 -0.465152   -3.46252 0.317688 0.422974  3.38654 3.49487 0.574219   -0.479934 -0.0699542 0.558537  0.847044 0.394256 -0.35648 0.338049 -0.91715 -0.21109 -0.410169 0.0582948 -0.910145   397.723 397.723 397.723 23.8634 23.8634 23.8634  0 0 0 0 0 0   0.737362 0.411729 -0.67298 0.00126419 -2.68346 -1.45939 -0.907849 
 0.351978 0.01872 0.0453737   -0.0719466 -0.139509 0.341134  -0.69534 -0.267421 0.478144 -0.465152   -3.61389 0.317688 0.422974  3.38654 3.56976 0.492188   -0.479928 -0.0699983 0.558535  0.84701 0.394329 -0.356481 0.338135 -0.917122 -0.211076 -0.41017 0.0582448 -0.910147   397.723 397.723 397.723 23.8634 23.8634 23.8634  0 0 0 0 0 0   0.737362 0.411729 -0.67298 0.00126419 -2.68346 -1.45939 -0.907849 
 0.361975 0.0190099 0.0478581   -0.0742851 -0.144243 0.338269  -0.70042 -0.263849 0.47557 -0.462201   -3.67065 0.402405 0.0469971  3.18878 3.59473 0.492188   -0.479924 -0.0700468 0.558532  0.846972 0.394412 -0.356479 0.338229 -0.917089 -0.211064 -0.41017 0.0581936 -0.910151   423.497 423.497 423.497 25.4098 25.4098 25.4098  0 0 0 0 0 0   0.737362 0.411729 -0.67298 0.00126419 -2.68346 -1.45939 -0.907849 
 0.371983 0.0190099 0.0478581   -0.0742851 -0.144243 0.338269  -0.70042 -0.263849 0.47557 -0.462201   -3.67065 0.317688 0.234985  3.2135 3.69458 0.492188   -0.479918 -0.0700958 0.558529  0.846934 0.394497 -0.356476 0.338327 -0.917056 -0.211054 -0.410168 0.0581433 -0.910155   423.497 423.497 423.497 25.4098 25.4098 25.4098  0 0 0 0 0 0   0.737362 0.411729 -0.67298 0.00126419 -2.68346 -1.45939 -0.907849 
 0.381976 0.0190099 0.0478581   -0.0742851 -0.144243 0.338269  -0.70042 -0.263849 0.47557 -0.462201   -3.59497 0.148254 0.610962  2.99103 3.61969 0.492188   -0.479913 -0.0701474 0.558525  0.846893 0.394589 -0.356471 0.33843 -0.91702 -0.211044 -0.410166 0.0580916 -0.910159   423.497 423.497 423.497 25.4098 25.4098 25.4098  0 0 0 0 0 0   0.737362 0.411729 -0.67298 0.00126419 -2.68346 -1.45939 -0.907849 
 0.391977 0.0190099 0.0478581   -0.0742851 -0.144243 0.338269  -0.70042 -0.263849 0.47557 -0.462201   -3.50037 -0.0211792 0.422974  2.89215 3.51984 0.492188   -0.479907 -0.0701967 0.558521  0.846855 0.394675 -0.356467 0.338529 -0.916986 -0.211034 -0.410165 0.0580409 -0.910163   423.497 423.497 423.497 25.4098 25.4098 25.4098  0 0 0 0 0 0   0.737362 0.411729 -0.67298 0.00126419 -2.68346 -1.45939 -0.907849 
 0.401977 0.0190099 0.0478581   -0.0742851 -0.144243 0.338269  -0.70042 -0.263849 0.47557 -0.462201   -3.349 -0.0847168 0.422974  2.74384 3.24524 0.492188   -0.479903 -0.0702396 0.558518  0.846821 0.394751 -0.356463 0.338615 -0.916956 -0.211027 -0.410163 0.0579983 -0.910166   423.497 423.497 423.497 25.4098 25.4098 25.4098  0 0 0 0 0 0   0.737362 0.411729 -0.67298 0.00126419 -2.68346 -1.45939 -0.907849 
 0.41198 0.0190099 0.0478581   -0.0742851 -0.144243 0.338269  -0.70042 -0.263849 0.47557 -0.462201   -3.12195 -0.25415 0.422974  2.62024 3.14539 0.410156   -0.4799 -0.0702699 0.558516  0.846797 0.394805 -0.356461 0.338675 -0.916934 -0.211023 -0.410164 0.0579688 -0.910168   423.497 423.497 423.497 25.4098 25.4098 25.4098  0 0 0 0 0 0   0.737362 0.411729 -0.67298 0.00126419 -2.68346 -1.45939 -0.907849 
 0.421973 0.0190099 0.0478581   -0.0742851 -0.144243 0.338269  -0.70042 -0.263849 0.47557 -0.462201   -3.02734 -0.338867 0.610962  2.59552 3.04553 0.410156   -0.479897 -0.0702866 0.558515  0.846784 0.394834 -0.356459 0.338708 -0.916923 -0.211021 -0.410164 0.0579534 -0.910169   423.497 423.497 423.497 25.4098 25.4098 25.4098  0 0 0 0 0 0   0.737362 0.411729 -0.67298 0.00126419 -2.68346 -1.45939 -0.907849 
 0.431976 0.0190099 0.0478581   -0.0742851 -0.144243 0.338269  -0.70042 -0.263849 0.47557 -0.462201   -2.95166 -0.508301 0.79895  2.49664 3.0705 0.410156   -0.479897 -0.070289 0.558515  0.846782 0.394839 -0.356459 0.338713 -0.916921 -0.211021 -0.410164 0.0579513 -0.910169   423.497 423.497 423.497 25.4098 25.4098 25.4098  0 0 0 0 0 0   0.737362 0.411729 -0.67298 0.00126419 -2.68346 -1.45939 -0.907849 
 0.442002 0.0190099 0.0478581   -0.0742851 -0.144243 0.338269  -0.70042 -0.263849 0.47557 -0.462201   -3.08411 -0.677734 1.03394  2.20001 2.99561 0.328125   -0.479898 -0.0702828 0.558515  0.846787 0.394828 -0.356459 0.338701 -0.916925 -0.211021 -0.410163 0.0579566 -0.910169   423.497 423.497 423.497 25.4098 25.4098 25.4098  0 0 0 0 0 0   0.737362 0.411729 -0.67298 0.00126419 -2.68346 -1.45939 -0.907849 
 0.451971 0.0190099 0.0478581   -0.0742851 -0.144243 0.338269  -0.70042 -0.263849 0.47557 -0.462201   -2.76245 -1.0166 0.986938  2.20001 2.99561 0.328125   -0.4799 -0.0702682 0.558515  0.846799 0.394802 -0.356459 0.338673 -0.916936 -0.211021 -0.410162 0.0579694 -0.910169   423.497 423.497 423.497 25.4098 25.4098 25.4098  0 0 0 0 0 0   0.737362 0.411729 -0.67298 0.00126419 -2.68346 -1.45939 -0.907849 
 0.461985 0.0184738 0.0466526   -0.0743687 -0.137506 0.339578  -0.694813 -0.260563 0.47414 -0.473848   -2.61108 -1.16486 0.234985  1.95282 2.82086 0.246094   -0.479902 -0.070252 0.558516  0.846812 0.394773 -0.35646 0.338641 -0.916947 -0.211023 -0.410161 0.0579843 -0.910168   410.99 410.99 410.99 24.6594 24.6594 24.6594  0 0 0 0 0 0   0.737362 0.411729 -0.67298 0.00126419 -2.68346 -1.45939 -0.907849 
 0.471974 0.0184738 0.0466526   -0.0743687 -0.137506 0.339578  -0.694813 -0.260563 0.47414 -0.473848   -2.51648 -1.33429 0.986938  1.82922 2.62115 0.328125   -0.479904 -0.0702286 0.558518  0.84683 0.394733 -0.356462 0.338595 -0.916963 -0.211027 -0.410162 0.0580073 -0.910166   410.99 410.99 410.99 24.6594 24.6594 24.6594  0 0 0 0 0 0   0.737362 0.411729 -0.67298 0.00126419 -2.68346 -1.45939 -0.907849 
 0.481975 0.0184738 0.0466526   -0.0743687 -0.137506 0.339578  -0.694813 -0.260563 0.47414 -0.473848   -2.28943 -1.56726 0.610962  1.8045 2.5213 0.328125   -0.479908 -0.0702016 0.558519  0.846851 0.394685 -0.356464 0.338542 -0.916982 -0.211029 -0.410161 0.0580325 -0.910165   410.99 410.99 410.99 24.6594 24.6594 24.6594  0 0 0 0 0 0   0.737362 0.411729 -0.67298 0.00126419 -2.68346 -1.45939 -0.907849 
 0.491978 0.0184738 0.0466526   -0.0743687 -0.137506 0.339578  -0.694813 -0.260563 0.47414 -0.473848   -2.21375 -1.56726 0.79895  1.70563 2.5213 0.246094   -0.479912 -0.0701722 0.55852  0.846875 0.394634 -0.356465 0.338486 -0.917003 -0.21103 -0.410159 0.0580573 -0.910164   410.99 410.99 410.99 24.6594 24.6594 24.6594  0 0 0 0 0 0   0.737362 0.411729 -0.67298 0.00126419 -2.68346 -1.45939 -0.907849 
 0.501978 0.0184738 0.0466526   -0.0743687 -0.137506 0.339578  -0.694813 -0.260563 0.47414 -0.473848   -2.13806 -1.65198 1.17493  1.60675 2.44641 0.246094   -0.479916 -0.0701429 0.55852  0.846899 0.394582 -0.356466 0.338429 -0.917023 -0.21103 -0.410156 0.0580829 -0.910164   410.99 410.99 410.99 24.6594 24.6594 24.6594  0 0 0 0 0 0   0.737362 0.411729 -0.67298 0.00126419 -2.68346 -1.45939 -0.907849 
 0.512013 0.0184738 0.0466526   -0.0743687 -0.137506 0.339578  -0.694813 -0.260563 0.47414 -0.473848   -2.19482 -1.90613 1.36292  1.38428 2.34656 0.246094   -0.47992 -0.070113 0.55852  0.846923 0.39453 -0.356465 0.338372 -0.917044 -0.211034 -0.410153 0.0581121 -0.910163   410.99 410.99 410.99 24.6594 24.6594 24.6594  0 0 0 0 0 0   0.737362 0.411729 -0.67298 0.00126419 -2.68346 -1.45939 -0.907849 
 0.521972 0.0184738 0.0466526   -0.0743687 -0.137506 0.339578  -0.694813 -0.260563 0.47414 -0.473848   -1.94885 -2.16028 1.73889  1.11237 1.97211 0.164062   -0.479925 -0.0700755 0.558521  0.846953 0.394465 -0.356465 0.3383 -0.917069 -0.211039 -0.410151 0.0581476 -0.910162   410.99 410.99 410.99 24.6594 24.6594 24.6594  0 0 0 0 0 0   0.737362 0.411729 -0.67298 0.00126419 -2.68346 -1.45939 -0.907849 
 0.531972 0.0184738 0.0466526   -0.0743687 -0.137506 0.339578  -0.694813 -0.260563 0.47414 -0.473848   -1.77856 -2.58386 1.36292  0.716858 1.82233 0.164062   -0.479931 -0.0700217 0.558521  0.846998 0.394371 -0.356464 0.338194 -0.917107 -0.211045 -0.410146 0.0582004 -0.910161   410.99 410.99 410.99 24.6594 24.6594 24.6594  0 0 0 0 0 0   0.737362 0.411729 -0.67298 0.00126419 -2.68346 -1.45939 -0.907849 
 0.541978 0.0184738 0.0466526   -0.0743687 -0.137506 0.339578  -0.694813 -0.260563 0.47414 -0.473848   -1.75964 -2.81683 1.97388  0.568542 1.72247 0.164062   -0.47994 -0.0699473 0.558524  0.847058 0.39424 -0.356466 0.338048 -0.917158 -0.211057 -0.410143 0.0582746 -0.910158   410.99 410.99 410.99 24.6594 24.6594 24.6594  0 0 0 0 0 0   0.737362 0.411729 -0.67298 0.00126419 -2.68346 -1.45939 -0.907849 
 0.551972 0.0184738 0.0466526   -0.0743687 -0.137506 0.339578  -0.694813 -0.260563 0.47414 -0.473848   -1.58936 -3.07098 1.97388  0.469666 1.62262 0.164062   -0.479951 -0.0698587 0.558528  0.847129 0.394084 -0.356468 0.337873 -0.917219 -0.21107 -0.410139 0.0583621 -0.910154   410.99 410.99 410.99 24.6594 24.6594 24.6594  0 0 0 0 0 0   0.737362 0.411729 -0.67298 0.00126419 -2.68346 -1.45939 -0.907849 
 0.562003 0.0181186 0.0444941   -0.0722872 -0.135251 0.338857  -0.688773 -0.263361 0.473858 -0.481344   -1.3623 -3.1557 1.92688  0.370789 1.54773 0.164062   -0.479963 -0.0697464 0.558533  0.847219 0.393888 -0.356473 0.337651 -0.917297 -0.211089 -0.410136 0.0584749 -0.910148   388.598 388.598 388.598 23.3159 23.3159 23.3159  0 0 0 0 0 0   0.737362 0.411729 -0.67298 0.00126419 -2.68346 -1.45939 -0.907849 
 0.571978 0.0181186 0.0444941   -0.0722872 -0.135251 0.338857  -0.688773 -0.263361 0.473858 -0.481344   -1.43799 -3.32513 1.40991  0.370789 1.64758 0.0820312   -0.479977 -0.0696124 0.558539  0.847327 0.393651 -0.356478 0.337386 -0.91739 -0.211109 -0.410132 0.0586076 -0.910141   388.598 388.598 388.598 23.3159 23.3159 23.3159  0 0 0 0 0 0   0.737362 0.411729 -0.67298 0.00126419 -2.68346 -1.45939 -0.907849 
 0.581984 0.0181186 0.0444941   -0.0722872 -0.135251 0.338857  -0.688773 -0.263361 0.473858 -0.481344   -1.41907 -3.49457 1.78589  0.0494385 1.57269 0.164062   -0.479992 -0.0694533 0.558545  0.847456 0.39337 -0.356479 0.337069 -0.9175 -0.211136 -0.410124 0.0587704 -0.910134   388.598 388.598 388.598 23.3159 23.3159 23.3159  0 0 0 0 0 0   0.737362 0.411729 -0.67298 0.00126419 -2.68346 -1.45939 -0.907849 
 0.591979 0.0181186 0.0444941   -0.0722872 -0.135251 0.338857  -0.688773 -0.263361 0.473858 -0.481344   -1.2677 -3.57928 1.78589  -0.0741577 1.39795 0   -0.480006 -0.0692688 0.558547  0.847611 0.393046 -0.35647 0.336704 -0.917627 -0.211168 -0.410105 0.0589635 -0.91013   388.598 388.598 388.598 23.3159 23.3159 23.3159  0 0 0 0 0 0   0.737362 0.411729 -0.67298 0.00126419 -2.68346 -1.45939 -0.907849 
 0.601973 0.0181186 0.0444941   -0.0722872 -0.135251 0.338857  -0.688773 -0.263361 0.473858 -0.481344   -1.1731 -3.81226 2.16187  -0.098877 1.27313 0   -0.480022 -0.0690505 0.558549  0.847795 0.392665 -0.356453 0.336274 -0.917774 -0.211211 -0.410079 0.0591979 -0.910127   388.598 388.598 388.598 23.3159 23.3159 23.3159  0 0 0 0 0 0   0.737362 0.411729 -0.67298 0.00126419 -2.68346 -1.45939 -0.907849 
 0.611975 0.0181186 0.0444941   -0.0722872 -0.135251 0.338857  -0.688773 -0.263361 0.473858 -0.481344   -1.00281 -3.89697 2.16187  -0.222473 1.09839 0   -0.480036 -0.0687969 0.558545  0.848011 0.392233 -0.356413 0.335781 -0.91794 -0.211275 -0.410035 0.0594871 -0.910128   388.598 388.598 388.598 23.3159 23.3159 23.3159  0 0 0 0 0 0   0.737362 0.411729 -0.67298 0.00126419 -2.68346 -1.45939 -0.907849 
 0.621997 0.0181186 0.0444941   -0.0722872 -0.135251 0.338857  -0.688773 -0.263361 0.473858 -0.481344   -0.85144 -4.32056 2.16187  -0.346069 1.19824 0   -0.480051 -0.0685141 0.558538  0.848254 0.391749 -0.356368 0.335229 -0.918126 -0.211343 -0.409984 0.059808 -0.91013   388.598 388.598 388.598 23.3159 23.3159 23.3159  0 0 0 0 0 0   0.737362 0.411729 -0.67298 0.00126419 -2.68346 -1.45939 -0.907849 
 0.631975 0.0181186 0.0444941   -0.0722872 -0.135251 0.338857  -0.688773 -0.263361 0.473858 -0.481344   -0.681152 -4.57471 2.34985  -0.444946 1.0235 0   -0.480066 -0.0682004 0.558531  0.848525 0.391212 -0.356313 0.334617 -0.918332 -0.21142 -0.409923 0.0601668 -0.910133   388.598 388.598 388.598 23.3159 23.3159 23.3159  0 0 0 0 0 0   0.737362 0.411729 -0.67298 0.00126419 -2.68346 -1.45939 -0.907849 
 0.641979 0.0181186 0.0444941   -0.0722872 -0.135251 0.338857  -0.688773 -0.263361 0.473858 -0.481344   -0.605469 -4.63824 2.30286  -0.444946 1.12335 -0.0820312   -0.480081 -0.0678412 0.55852  0.848837 0.390593 -0.356249 0.333914 -0.918568 -0.211503 -0.40985 0.0605755 -0.910139   388.598 388.598 388.598 23.3159 23.3159 23.3159  0 0 0 0 0 0   0.737362 0.411729 -0.67298 0.00126419 -2.68346 -1.45939 -0.907849 
 0.652003 0.0181186 0.0444941   -0.0722872 -0.135251 0.338857  -0.688773 -0.263361 0.473858 -0.481344   -0.756836 -4.91357 1.97388  -0.519104 1.22321 -0.0820312   -0.480096 -0.0674325 0.558507  0.849195 0.389877 -0.356179 0.333109 -0.918843 -0.211582 -0.409763 0.0610277 -0.910148   388.598 388.598 388.598 23.3159 23.3159 23.3159  0 0 0 0 0 0   0.737362 0.411729 -0.67298 0.00126419 -2.68346 -1.45939 -0.907849 
 0.661971 0.0189617 0.0969087   0.143136 0.0576916 -0.337937  -0.673362 0.0665001 -0.690859 0.254707   -0.605469 -4.91357 2.11487  -0.420227 1.09839 0   -0.480113 -0.0669767 0.558485  0.8496 0.389073 -0.356092 0.332213 -0.91915 -0.211656 -0.409651 0.0615244 -0.910165   932.359 932.359 932.359 55.9415 55.9415 55.9415  0 0 0 0 0 0   0.737362 0.411729 -0.67298 0.00126419 -2.68346 -1.45939 -0.907849 
 0.671981 0.0189617 0.0969087   0.143136 0.0576916 -0.337937  -0.673362 0.0665001 -0.690859 0.254707   -0.454102 -4.82886 2.49084  -0.420227 1.19824 0.0820312   -0.480129 -0.0664655 0.55846  0.850055 0.388169 -0.355994 0.331207 -0.919495 -0.211732 -0.409522 0.0620766 -0.910186   932.359 932.359 932.359 55.9415 55.9415 55.9415  0 0 0 0 0 0   0.737362 0.411729 -0.67298 0.00126419 -2.68346 -1.45939 -0.907849 
 0.681982 0.0189617 0.0969087   0.143136 0.0576916 -0.337937  -0.673362 0.0665001 -0.690859 0.254707   -0.283813 -5.31598 2.49084  -0.444946 0.998535 0.164062   -0.480146 -0.0659295 0.558431  0.850534 0.387211 -0.355893 0.330149 -0.91986 -0.211799 -0.409383 0.0626441 -0.910209   932.359 932.359 932.359 55.9415 55.9415 55.9415  0 0 0 0 0 0   0.737362 0.411729 -0.67298 0.00126419 -2.68346 -1.45939 -0.907849 
 0.691979 0.0189617 0.0969087   0.143136 0.0576916 -0.337937  -0.673362 0.0665001 -0.690859 0.254707   -0.283813 -5.4007 2.30286  -0.469666 0.898682 0.164062   -0.480164 -0.0653393 0.558403  0.851056 0.386158 -0.355789 0.328984 -0.920261 -0.211873 -0.409235 0.0632666 -0.910233   932.359 932.359 932.359 55.9415 55.9415 55.9415  0 0 0 0 0 0   0.737362 0.411729 -0.67298 0.00126419 -2.68346 -1.45939 -0.907849 
 0.70199 0.0189617 0.0969087   0.143136 0.0576916 -0.337937  -0.673362 0.0665001 -0.690859 0.254707   -0.359497 -5.31598 2.30286  -0.32135 1.09839 0.164062   -0.480185 -0.0646918 0.558376  0.851625 0.384995 -0.355686 0.327699 -0.920701 -0.211952 -0.409081 0.0639456 -0.910255   932.359 932.359 932.359 55.9415 55.9415 55.9415  0 0 0 0 0 0   0.737362 0.411729 -0.67298 0.00126419 -2.68346 -1.45939 -0.907849 
 0.711973 0.0189617 0.0969087   0.143136 0.0576916 -0.337937  -0.673362 0.0665001 -0.690859 0.254707   -0.227051 -5.48541 2.44385  -0.0247192 1.07343 0.328125   -0.480205 -0.0639994 0.558348  0.852232 0.38375 -0.355579 0.326322 -0.92117 -0.212039 -0.408918 0.0646732 -0.910276   932.359 932.359 932.359 55.9415 55.9415 55.9415  0 0 0 0 0 0   0.737362 0.411729 -0.67298 0.00126419 -2.68346 -1.45939 -0.907849 
 0.721973 0.0189617 0.0969087   0.143136 0.0576916 -0.337937  -0.673362 0.0665001 -0.690859 0.254707   -0.302734 -5.48541 2.06787  0.0741577 0.948608 0.246094   -0.480226 -0.063289 0.558318  0.852855 0.38247 -0.355464 0.324905 -0.921649 -0.212134 -0.408748 0.0654275 -0.910299   932.359 932.359 932.359 55.9415 55.9415 55.9415  0 0 0 0 0 0   0.737362 0.411729 -0.67298 0.00126419 -2.68346 -1.45939 -0.907849 
 0.73198 0.0189617 0.0969087   0.143136 0.0576916 -0.337937  -0.673362 0.0665001 -0.690859 0.254707   -0.302734 -5.31598 1.87988  0.370789 1.12335 0.328125   -0.48025 -0.0625285 0.558299  0.853508 0.3811 -0.355369 0.323386 -0.922159 -0.212236 -0.40859 0.0662242 -0.910312   932.359 932.359 932.359 55.9415 55.9415 55.9415  0 0 0 0 0 0   0.737362 0.411729 -0.67298 0.00126419 -2.68346 -1.45939 -0.907849 
 0.741975 0.0189617 0.0969087   0.143136 0.0576916 -0.337937  -0.673362 0.0665001 -0.690859 0.254707   -0.245972 -5.23126 2.20886  0.692139 1.19824 0.410156   -0.480278 -0.0617406 0.558292  0.85417 0.379681 -0.355297 0.321806 -0.922685 -0.212353 -0.408453 0.0670487 -0.910313   932.359 932.359 932.359 55.9415 55.9415 55.9415  0 0 0 0 0 0   0.737362 0.411729 -0.67298 0.00126419 -2.68346 -1.45939 -0.907849 
 0.751974 0.0189617 0.0969087   0.143136 0.0576916 -0.337937  -0.673362 0.0665001 -0.690859 0.254707   -0.0378418 -5.2948 2.20886  0.96405 1.17328 0.430664   -0.480311 -0.0609094 0.558299  0.854855 0.378182 -0.355249 0.320131 -0.923237 -0.212486 -0.408337 0.0679183 -0.910301   932.359 932.359 932.359 55.9415 55.9415 55.9415  0 0 0 0 0 0   0.737362 0.411729 -0.67298 0.00126419 -2.68346 -1.45939 -0.907849 
 0.761954 0.0189094 0.0933846   0.137591 0.0578544 -0.342044  0.295245 -0.869766 -0.395087 -0.0155917   -0.113525 -4.95593 2.20886  1.11237 1.24817 0.430664   -0.480348 -0.0600237 0.55832  0.855569 0.376585 -0.355227 0.318337 -0.92382 -0.212646 -0.408245 0.0688512 -0.910272   895.798 895.798 895.798 53.7479 53.7479 53.7479  0 0 0 0 0 0   0.737362 0.411729 -0.67298 0.00126419 -2.68346 -1.45939 -0.907849 
 0.771974 0.0189094 0.0933846   0.137591 0.0578544 -0.342044  0.295245 -0.869766 -0.395087 -0.0155917   -0.0189209 -5.37952 1.6449  0.914612 1.37299 0.246094   -0.480386 -0.0591461 0.558351  0.856266 0.375002 -0.355222 0.316554 -0.924394 -0.212811 -0.408169 0.0697756 -0.910236   895.798 895.798 895.798 53.7479 53.7479 53.7479  0 0 0 0 0 0   0.737362 0.411729 -0.67298 0.00126419 -2.68346 -1.45939 -0.907849 
 0.781981 0.0189094 0.0933846   0.137591 0.0578544 -0.342044  0.295245 -0.869766 -0.395087 -0.0155917   -0.0378418 -5.46423 2.02087  1.13708 1.44788 0.18457   -0.480429 -0.0582329 0.558393  0.856977 0.373356 -0.35524 0.314695 -0.924988 -0.21299 -0.408113 0.0707355 -0.910187   895.798 895.798 895.798 53.7479 53.7479 53.7479  0 0 0 0 0 0   0.737362 0.411729 -0.67298 0.00126419 -2.68346 -1.45939 -0.907849 
 0.79202 0.0189094 0.0933846   0.137591 0.0578544 -0.342044  0.295245 -0.869766 -0.395087 -0.0155917   -0.0378418 -5.48541 2.20886  1.2854 1.74744 0.348633   -0.480475 -0.0573092 0.558454  0.857679 0.371689 -0.355293 0.312805 -0.925584 -0.213185 -0.408092 0.0717064 -0.91012   895.798 895.798 895.798 53.7479 53.7479 53.7479  0 0 0 0 0 0   0.737362 0.411729 -0.67298 0.00126419 -2.68346 -1.45939 -0.907849 
 0.802006 0.0189094 0.0933846   0.137591 0.0578544 -0.342044  0.295245 -0.869766 -0.395087 -0.0155917   -0.0567627 -5.21008 1.78589  1.58203 1.72247 0.18457   -0.480525 -0.0563268 0.558529  0.858414 0.369916 -0.355371 0.310786 -0.926213 -0.213405 -0.408091 0.0727456 -0.910038   895.798 895.798 895.798 53.7479 53.7479 53.7479  0 0 0 0 0 0   0.737362 0.411729 -0.67298 0.00126419 -2.68346 -1.45939 -0.907849 
 0.811974 0.0189094 0.0933846   0.137591 0.0578544 -0.342044  0.295245 -0.869766 -0.395087 -0.0155917   0.0756836 -5.2948 1.97388  1.87866 1.79736 0.266602   -0.480576 -0.0553432 0.558611  0.859139 0.36814 -0.355461 0.308761 -0.926838 -0.21363 -0.408101 0.0737854 -0.90995   895.798 895.798 895.798 53.7479 53.7479 53.7479  0 0 0 0 0 0   0.737362 0.411729 -0.67298 0.00126419 -2.68346 -1.45939 -0.907849 
 0.821974 0.0189094 0.0933846   0.137591 0.0578544 -0.342044  0.295245 -0.869766 -0.395087 -0.0155917   0.227051 -5.2948 1.78589  1.87866 1.69751 0.266602   -0.48063 -0.0543231 0.558703  0.859881 0.366297 -0.355572 0.306657 -0.927482 -0.213867 -0.408125 0.0748618 -0.909851   895.798 895.798 895.798 53.7479 53.7479 53.7479  0 0 0 0 0 0   0.737362 0.411729 -0.67298 0.00126419 -2.68346 -1.45939 -0.907849 
 0.831975 0.0189094 0.0933846   0.137591 0.0578544 -0.342044  0.295245 -0.869766 -0.395087 -0.0155917   0.0567627 -5.04065 1.73889  2.12585 1.97211 0.266602   -0.480686 -0.0532721 0.558814  0.860628 0.364398 -0.355715 0.304481 -0.928139 -0.214124 -0.40818 0.0759731 -0.909735   895.798 895.798 895.798 53.7479 53.7479 53.7479  0 0 0 0 0 0   0.737362 0.411729 -0.67298 0.00126419 -2.68346 -1.45939 -0.907849 
 0.841971 0.0189094 0.0933846   0.137591 0.0578544 -0.342044  0.295245 -0.869766 -0.395087 -0.0155917   0.0567627 -4.95593 1.5509  2.34833 2.14685 0.18457   -0.480743 -0.0521812 0.558936  0.861393 0.362424 -0.35588 0.302214 -0.928816 -0.214399 -0.408251 0.0771299 -0.909606   895.798 895.798 895.798 53.7479 53.7479 53.7479  0 0 0 0 0 0   0.737362 0.411729 -0.67298 0.00126419 -2.68346 -1.45939 -0.907849 
 0.851973 0.0189094 0.0933846   0.137591 0.0578544 -0.342044  0.295245 -0.869766 -0.395087 -0.0155917   0.20813 -5.12537 1.36292  2.32361 2.047 0.18457   -0.480801 -0.0510779 0.559061  0.86216 0.360428 -0.35605 0.299921 -0.929495 -0.214678 -0.408323 0.0783001 -0.909473   895.798 895.798 895.798 53.7479 53.7479 53.7479  0 0 0 0 0 0   0.737362 0.411729 -0.67298 0.00126419 -2.68346 -1.45939 -0.907849 
 0.861976 0.019 0.0879723   0.128721 0.0606452 -0.349507  0.761342 0.0252677 0.453051 0.463104   0.20813 -4.87122 1.17493  2.54608 2.2467 0.102539   -0.480856 -0.0499581 0.55919  0.862933 0.358399 -0.356226 0.29759 -0.930178 -0.214962 -0.408396 0.0794887 -0.909337   839.65 839.65 839.65 50.379 50.379 50.379  0 0 0 0 0 0   0.737362 0.411729 -0.67298 0.00126419 -2.68346 -1.45939 -0.907849 
 0.871979 0.019 0.0879723   0.128721 0.0606452 -0.349507  0.761342 0.0252677 0.453051 0.463104   0.20813 -4.95593 1.5509  2.4472 2.14685 0.18457   -0.480908 -0.0488454 0.559325  0.86369 0.356383 -0.356413 0.295268 -0.93085 -0.215255 -0.408481 0.0806765 -0.909195   839.65 839.65 839.65 50.379 50.379 50.379  0 0 0 0 0 0   0.737362 0.411729 -0.67298 0.00126419 -2.68346 -1.45939 -0.907849 
 0.881994 0.019 0.0879723   0.128721 0.0606452 -0.349507  0.761342 0.0252677 0.453051 0.463104   0.435181 -4.93475 1.73889  2.62024 1.92218 0.18457   -0.480959 -0.0476938 0.55946  0.864473 0.354295 -0.356598 0.292866 -0.93154 -0.215551 -0.408554 0.0819019 -0.909052   839.65 839.65 839.65 50.379 50.379 50.379  0 0 0 0 0 0   0.737362 0.411729 -0.67298 0.00126419 -2.68346 -1.45939 -0.907849 
 0.892004 0.019 0.0879723   0.128721 0.0606452 -0.349507  0.761342 0.0252677 0.453051 0.463104   0.397339 -4.59589 1.87988  2.84271 2.22174 0.18457   -0.481006 -0.0465231 0.5596  0.865262 0.352169 -0.356789 0.290421 -0.932235 -0.215855 -0.408629 0.0831519 -0.908905   839.65 839.65 839.65 50.379 50.379 50.379  0 0 0 0 0 0   0.737362 0.411729 -0.67298 0.00126419 -2.68346 -1.45939 -0.907849 
 0.901975 0.019 0.0879723   0.128721 0.0606452 -0.349507  0.761342 0.0252677 0.453051 0.463104   0.491943 -5.01947 1.73889  2.71912 2.12189 0.102539   -0.48105 -0.0453661 0.559736  0.866039 0.350065 -0.356976 0.288 -0.932916 -0.216156 -0.408697 0.0843908 -0.90876   839.65 839.65 839.65 50.379 50.379 50.379  0 0 0 0 0 0   0.737362 0.411729 -0.67298 0.00126419 -2.68346 -1.45939 -0.907849 
 0.911981 0.019 0.0879723   0.128721 0.0606452 -0.349507  0.761342 0.0252677 0.453051 0.463104   0.643311 -4.93475 1.73889  2.71912 1.92218 0.0205078   -0.48109 -0.0441952 0.55987  0.866823 0.347937 -0.357153 0.285553 -0.933598 -0.216459 -0.408751 0.0856453 -0.908618   839.65 839.65 839.65 50.379 50.379 50.379  0 0 0 0 0 0   0.737362 0.411729 -0.67298 0.00126419 -2.68346 -1.45939 -0.907849 
 0.921954 0.019 0.0879723   0.128721 0.0606452 -0.349507  0.761342 0.0252677 0.453051 0.463104   0.41626 -4.93475 1.73889  2.74384 2.22174 -0.0615234   -0.481127 -0.0429885 0.560008  0.867625 0.345739 -0.357339 0.283028 -0.934295 -0.21677 -0.408806 0.0869377 -0.908471   839.65 839.65 839.65 50.379 50.379 50.379  0 0 0 0 0 0   0.737362 0.411729 -0.67298 0.00126419 -2.68346 -1.45939 -0.907849 
 0.931974 0.019 0.0879723   0.128721 0.0606452 -0.349507  0.761342 0.0252677 0.453051 0.463104   0.340576 -5.01947 1.73889  2.66968 2.42145 -0.0615234   -0.481161 -0.0417693 0.56015  0.868429 0.343517 -0.357529 0.280473 -0.934991 -0.217086 -0.40886 0.0882469 -0.908321   839.65 839.65 839.65 50.379 50.379 50.379  0 0 0 0 0 0   0.737362 0.411729 -0.67298 0.00126419 -2.68346 -1.45939 -0.907849 
 0.941976 0.019 0.0879723   0.128721 0.0606452 -0.349507  0.761342 0.0252677 0.453051 0.463104   0.264893 -5.10419 1.92688  2.89215 2.49634 -0.143555   -0.481192 -0.0405622 0.560289  0.86922 0.341314 -0.357716 0.277942 -0.935675 -0.217396 -0.408906 0.0895411 -0.908173   839.65 839.65 839.65 50.379 50.379 50.379  0 0 0 0 0 0   0.737362 0.411729 -0.67298 0.00126419 -2.68346 -1.45939 -0.907849 
 0.951972 0.019 0.0879723   0.128721 0.0606452 -0.349507  0.761342 0.0252677 0.453051 0.463104   0.321655 -4.6806 1.5509  3.0899 2.49634 -0.225586   -0.48122 -0.0393428 0.56043  0.870013 0.339087 -0.357907 0.275382 -0.936358 -0.217713 -0.408953 0.090852 -0.908022   839.65 839.65 839.65 50.379 50.379 50.379  0 0 0 0 0 0   0.737362 0.411729 -0.67298 0.00126419 -2.68346 -1.45939 -0.907849 
 0.961986 0.0191944 0.0821644   0.119219 0.0710819 -0.356266  0.263535 -0.8598 -0.437337 -0.00547419   0.548706 -4.99829 1.69189  2.96631 2.39648 -0.307617   -0.481243 -0.0381593 0.560569  0.870777 0.336922 -0.358094 0.272894 -0.937015 -0.218021 -0.408995 0.0921257 -0.907874   779.398 779.398 779.398 46.7639 46.7639 46.7639  0 0 0 0 0 0   0.737362 0.411729 -0.67298 0.00126419 -2.68346 -1.45939 -0.907849 
 0.971971 0.0191944 0.0821644   0.119219 0.0710819 -0.356266  0.263535 -0.8598 -0.437337 -0.00547419   0.473022 -4.85004 1.92688  2.89215 2.5213 -0.225586   -0.481264 -0.0369317 0.560713  0.871562 0.334679 -0.358287 0.270314 -0.937687 -0.218342 -0.409036 0.093449 -0.907721   779.398 779.398 779.398 46.7639 46.7639 46.7639  0 0 0 0 0 0   0.737362 0.411729 -0.67298 0.00126419 -2.68346 -1.45939 -0.907849 
 0.981973 0.0191944 0.0821644   0.119219 0.0710819 -0.356266  0.263535 -0.8598 -0.437337 -0.00547419   0.245972 -4.70178 2.30286  2.94159 2.82086 -0.143555   -0.481281 -0.035678 0.560862  0.872358 0.332382 -0.358489 0.267671 -0.938368 -0.218673 -0.409078 0.0948041 -0.907561   779.398 779.398 779.398 46.7639 46.7639 46.7639  0 0 0 0 0 0   0.737362 0.411729 -0.67298 0.00126419 -2.68346 -1.45939 -0.907849 
 0.991978 0.0191944 0.0821644   0.119219 0.0710819 -0.356266  0.263535 -0.8598 -0.437337 -0.00547419   0.41626 -5.1889 1.73889  2.71912 2.62115 -0.307617   -0.481295 -0.0344256 0.561008  0.873149 0.330086 -0.358684 0.26503 -0.93904 -0.219002 -0.409108 0.0961596 -0.907405   779.398 779.398 779.398 46.7639 46.7639 46.7639  0 0 0 0 0 0   0.737362 0.411729 -0.67298 0.00126419 -2.68346 -1.45939 -0.907849 
 1.00197 0.0191944 0.0821644   0.119219 0.0710819 -0.356266  0.263535 -0.8598 -0.437337 -0.00547419   0.245972 -4.93475 1.73889  2.91687 2.72101 -0.47168   -0.481305 -0.0331464 0.561161  0.873948 0.32774 -0.35889 0.262331 -0.939719 -0.219342 -0.409143 0.0975453 -0.907241   779.398 779.398 779.398 46.7639 46.7639 46.7639  0 0 0 0 0 0   0.737362 0.411729 -0.67298 0.00126419 -2.68346 -1.45939 -0.907849 
 1.01199 0.0191944 0.0821644   0.119219 0.0710819 -0.356266  0.263535 -0.8598 -0.437337 -0.00547419   0.41626 -5.1889 1.92688  2.81799 2.82086 -0.389648   -0.481313 -0.0318633 0.561314  0.874743 0.325383 -0.359097 0.259621 -0.940392 -0.219679 -0.409172 0.0989335 -0.907078   779.398 779.398 779.398 46.7639 46.7639 46.7639  0 0 0 0 0 0   0.737362 0.411729 -0.67298 0.00126419 -2.68346 -1.45939 -0.907849 
 1.02197 0.0191944 0.0821644   0.119219 0.0710819 -0.356266  0.263535 -0.8598 -0.437337 -0.00547419   0.491943 -4.93475 2.11487  2.79327 2.62115 -0.553711   -0.481316 -0.0305545 0.561471  0.875546 0.322979 -0.35931 0.256857 -0.941071 -0.220021 -0.409198 0.100348 -0.906911   779.398 779.398 779.398 46.7639 46.7639 46.7639  0 0 0 0 0 0   0.737362 0.411729 -0.67298 0.00126419 -2.68346 -1.45939 -0.907849 
 1.03196 0.0191944 0.0821644   0.119219 0.0710819 -0.356266  0.263535 -0.8598 -0.437337 -0.00547419   0.473022 -4.93475 1.73889  2.91687 2.72101 -0.553711   -0.481314 -0.0292522 0.56163  0.876338 0.320582 -0.359525 0.254098 -0.941739 -0.22037 -0.409225 0.101764 -0.906741   779.398 779.398 779.398 46.7639 46.7639 46.7639  0 0 0 0 0 0   0.737362 0.411729 -0.67298 0.00126419 -2.68346 -1.45939 -0.907849 
 1.04196 0.0191944 0.0821644   0.119219 0.0710819 -0.356266  0.263535 -0.8598 -0.437337 -0.00547419   0.643311 -4.99829 1.73889  2.66968 2.42145 -0.553711   -0.48131 -0.0279381 0.561787  0.877133 0.318161 -0.359738 0.251315 -0.942404 -0.220714 -0.409241 0.103188 -0.906573   779.398 779.398 779.398 46.7639 46.7639 46.7639  0 0 0 0 0 0   0.737362 0.411729 -0.67298 0.00126419 -2.68346 -1.45939 -0.907849 
 1.052 0.0191944 0.0821644   0.119219 0.0710819 -0.356266  0.263535 -0.8598 -0.437337 -0.00547419   0.548706 -4.74414 1.73889  2.89215 2.62115 -0.635742   -0.4813 -0.026604 0.56195  0.877931 0.315701 -0.35996 0.248484 -0.943071 -0.22107 -0.40926 0.10464 -0.906398   779.398 779.398 779.398 46.7639 46.7639 46.7639  0 0 0 0 0 0   0.737362 0.411729 -0.67298 0.00126419 -2.68346 -1.45939 -0.907849 
 1.06199 0.0193833 0.0754664   0.10856 0.0743882 -0.364529  0.79277 0.00629427 0.419246 0.44239   0.491943 -5.10419 2.30286  2.59552 2.64612 -0.717773   -0.481287 -0.0252857 0.562111  0.878712 0.313267 -0.360179 0.245683 -0.943722 -0.221423 -0.409273 0.106078 -0.906225   709.911 709.911 709.911 42.5947 42.5947 42.5947  0 0 0 0 0 0   0.737362 0.411729 -0.67298 0.00126419 -2.68346 -1.45939 -0.907849 
 1.07197 0.0193833 0.0754664   0.10856 0.0743882 -0.364529  0.79277 0.00629427 0.419246 0.44239   0.586548 -5.10419 2.53784  2.37305 2.67108 -0.717773   -0.48127 -0.023953 0.562272  0.879497 0.310804 -0.360396 0.242851 -0.944372 -0.221776 -0.409277 0.107529 -0.906052   709.911 709.911 709.911 42.5947 42.5947 42.5947  0 0 0 0 0 0   0.737362 0.411729 -0.67298 0.00126419 -2.68346 -1.45939 -0.907849 
 1.082 0.0193833 0.0754664   0.10856 0.0743882 -0.364529  0.79277 0.00629427 0.419246 0.44239   0.435181 -5.27362 2.16187  2.29889 2.67108 -0.881836   -0.481249 -0.0226288 0.562434  0.880269 0.308355 -0.360616 0.240033 -0.945009 -0.222133 -0.409281 0.108977 -0.905877   709.911 709.911 709.911 42.5947 42.5947 42.5947  0 0 0 0 0 0   0.737362 0.411729 -0.67298 0.00126419 -2.68346 -1.45939 -0.907849 
 1.09197 0.0193833 0.0754664   0.10856 0.0743882 -0.364529  0.79277 0.00629427 0.419246 0.44239   0.662231 -5.25244 2.53784  2.12585 2.29663 -0.963867   -0.481224 -0.0212988 0.562596  0.881037 0.305894 -0.360835 0.237203 -0.94564 -0.222485 -0.409277 0.110426 -0.905703   709.911 709.911 709.911 42.5947 42.5947 42.5947  0 0 0 0 0 0   0.737362 0.411729 -0.67298 0.00126419 -2.68346 -1.45939 -0.907849 
 1.10197 0.0193833 0.0754664   0.10856 0.0743882 -0.364529  0.79277 0.00629427 0.419246 0.44239   0.718994 -5.08301 2.72583  2.24945 2.47137 -0.881836   -0.481195 -0.0199483 0.562764  0.881808 0.303391 -0.361065 0.234324 -0.946273 -0.222846 -0.409275 0.111901 -0.905523   709.911 709.911 709.911 42.5947 42.5947 42.5947  0 0 0 0 0 0   0.737362 0.411729 -0.67298 0.00126419 -2.68346 -1.45939 -0.907849 
 1.11197 0.0193833 0.0754664   0.10856 0.0743882 -0.364529  0.79277 0.00629427 0.419246 0.44239   1.04065 -5.4007 2.30286  2.10114 2.09692 -1.12793   -0.481162 -0.0186069 0.56293  0.882568 0.300903 -0.361291 0.231462 -0.946892 -0.223205 -0.409267 0.113368 -0.905344   709.911 709.911 709.911 42.5947 42.5947 42.5947  0 0 0 0 0 0   0.737362 0.411729 -0.67298 0.00126419 -2.68346 -1.45939 -0.907849 
 1.12198 0.0193833 0.0754664   0.10856 0.0743882 -0.364529  0.79277 0.00629427 0.419246 0.44239   1.04065 -5.23126 2.16187  1.97754 1.99707 -1.12793   -0.481121 -0.0172299 0.563102  0.883339 0.298345 -0.361527 0.228517 -0.947519 -0.223579 -0.409258 0.114881 -0.905158   709.911 709.911 709.911 42.5947 42.5947 42.5947  0 0 0 0 0 0   0.737362 0.411729 -0.67298 0.00126419 -2.68346 -1.45939 -0.907849 
 1.132 0.0193833 0.0754664   0.10856 0.0743882 -0.364529  0.79277 0.00629427 0.419246 0.44239   1.28662 -5.57013 2.49084  1.75507 1.92218 -1.12793   -0.481077 -0.0158376 0.563278  0.884111 0.295757 -0.361768 0.225537 -0.948144 -0.223957 -0.409245 0.11641 -0.904968   709.911 709.911 709.911 42.5947 42.5947 42.5947  0 0 0 0 0 0   0.737362 0.411729 -0.67298 0.00126419 -2.68346 -1.45939 -0.907849 
 1.14198 0.0193833 0.0754664   0.10856 0.0743882 -0.364529  0.79277 0.00629427 0.419246 0.44239   1.11633 -5.23126 2.49084  2.10114 2.09692 -1.18945   -0.481026 -0.0143731 0.563463  0.884914 0.293032 -0.362021 0.222401 -0.948791 -0.224353 -0.409225 0.11802 -0.904768   709.911 709.911 709.911 42.5947 42.5947 42.5947  0 0 0 0 0 0   0.737362 0.411729 -0.67298 0.00126419 -2.68346 -1.45939 -0.907849 
 1.15198 0.0193833 0.0754664   0.10856 0.0743882 -0.364529  0.79277 0.00629427 0.419246 0.44239   1.28662 -5.48541 2.67883  1.85394 2.02203 -1.18945   -0.480968 -0.0128856 0.563652  0.885721 0.290261 -0.362281 0.21921 -0.949437 -0.224758 -0.409201 0.119658 -0.904564   709.911 709.911 709.911 42.5947 42.5947 42.5947  0 0 0 0 0 0   0.737362 0.411729 -0.67298 0.00126419 -2.68346 -1.45939 -0.907849 
 1.16193 0.0179869 0.0453152   -0.0852994 -0.0877917 0.374375  -0.350728 -0.300132 0.404935 0.789264   1.43799 -5.54895 2.30286  1.73035 1.72247 -1.35352   -0.480904 -0.0113479 0.563848  0.886545 0.287393 -0.36255 0.215909 -0.950094 -0.225176 -0.409171 0.121351 -0.904352   397.116 397.116 397.116 23.827 23.827 23.827  0 0 0 0 0 0   0.737362 0.411729 -0.67298 0.00126419 -2.68346 -1.45939 -0.907849 
 1.17197 0.0179869 0.0453152   -0.0852994 -0.0877917 0.374375  -0.350728 -0.300132 0.404935 0.789264   1.57043 -5.46423 2.49084  1.9281 1.72247 -1.35352   -0.480835 -0.00979704 0.564048  0.887365 0.284497 -0.362829 0.212574 -0.950746 -0.225597 -0.40914 0.123059 -0.904135   397.116 397.116 397.116 23.827 23.827 23.827  0 0 0 0 0 0   0.737362 0.411729 -0.67298 0.00126419 -2.68346 -1.45939 -0.907849 
 1.18198 0.0179869 0.0453152   -0.0852994 -0.0877917 0.374375  -0.350728 -0.300132 0.404935 0.789264   1.51367 -5.21008 2.30286  1.75507 1.84729 -1.35352   -0.48076 -0.00823774 0.56425  0.888179 0.281583 -0.36311 0.20922 -0.951389 -0.226021 -0.409103 0.124777 -0.903917   397.116 397.116 397.116 23.827 23.827 23.827  0 0 0 0 0 0   0.737362 0.411729 -0.67298 0.00126419 -2.68346 -1.45939 -0.907849 
 1.19202 0.0179869 0.0453152   -0.0852994 -0.0877917 0.374375  -0.350728 -0.300132 0.404935 0.789264   1.49475 -5.21008 2.30286  1.97754 2.02203 -1.35352   -0.480677 -0.00664512 0.564453  0.889004 0.278601 -0.363391 0.205791 -0.952035 -0.226448 -0.409049 0.126531 -0.903697   397.116 397.116 397.116 23.827 23.827 23.827  0 0 0 0 0 0   0.737362 0.411729 -0.67298 0.00126419 -2.68346 -1.45939 -0.907849 
 1.20198 0.0179869 0.0453152   -0.0852994 -0.0877917 0.374375  -0.350728 -0.300132 0.404935 0.789264   1.1731 -4.80768 2.16187  2.02698 2.32159 -1.51758   -0.480588 -0.00503502 0.564657  0.88983 0.275582 -0.363671 0.202319 -0.952676 -0.226883 -0.408985 0.128309 -0.903475   397.116 397.116 397.116 23.827 23.827 23.827  0 0 0 0 0 0   0.737362 0.411729 -0.67298 0.00126419 -2.68346 -1.45939 -0.907849 
 1.212 0.0179869 0.0453152   -0.0852994 -0.0877917 0.374375  -0.350728 -0.300132 0.404935 0.789264   1.04065 -4.97711 1.97388  2.0517 2.42145 -1.45605   -0.480495 -0.00344039 0.564858  0.890638 0.272591 -0.363948 0.198882 -0.953298 -0.227309 -0.408913 0.130068 -0.903257   397.116 397.116 397.116 23.827 23.827 23.827  0 0 0 0 0 0   0.737362 0.411729 -0.67298 0.00126419 -2.68346 -1.45939 -0.907849 
 1.22198 0.0179869 0.0453152   -0.0852994 -0.0877917 0.374375  -0.350728 -0.300132 0.404935 0.789264   0.964966 -5.06183 2.34985  2.0517 2.5213 -1.53809   -0.480395 -0.00182929 0.565063  0.891442 0.269564 -0.364233 0.195404 -0.953915 -0.227737 -0.408837 0.131842 -0.903034   397.116 397.116 397.116 23.827 23.827 23.827  0 0 0 0 0 0   0.737362 0.411729 -0.67298 0.00126419 -2.68346 -1.45939 -0.907849 
 1.23198 0.0179869 0.0453152   -0.0852994 -0.0877917 0.374375  -0.350728 -0.300132 0.404935 0.789264   0.870361 -4.91357 2.34985  2.29889 2.7959 -1.37402   -0.480288 -0.000194034 0.565271  0.892249 0.266489 -0.364521 0.191873 -0.954528 -0.22817 -0.40875 0.133642 -0.902808   397.116 397.116 397.116 23.827 23.827 23.827  0 0 0 0 0 0   0.737362 0.411729 -0.67298 0.00126419 -2.68346 -1.45939 -0.907849 
 1.24199 0.0179869 0.0453152   -0.0852994 -0.0877917 0.374375  -0.350728 -0.300132 0.404935 0.789264   0.870361 -4.74414 1.78589  2.29889 2.89575 -1.45605   -0.480173 0.00146901 0.565485  0.893056 0.263357 -0.364821 0.188276 -0.955139 -0.228607 -0.40866 0.135472 -0.902577   397.116 397.116 397.116 23.827 23.827 23.827  0 0 0 0 0 0   0.737362 0.411729 -0.67298 0.00126419 -2.68346 -1.45939 -0.907849 
 1.25197 0.0179869 0.0453152   -0.0852994 -0.0877917 0.374375  -0.350728 -0.300132 0.404935 0.789264   1.24878 -4.8924 1.97388  2.17529 2.69604 -1.45605   -0.480053 0.0031244 0.565699  0.893848 0.260235 -0.36512 0.184691 -0.955734 -0.229047 -0.408564 0.137299 -0.902344   397.116 397.116 397.116 23.827 23.827 23.827  0 0 0 0 0 0   0.737362 0.411729 -0.67298 0.00126419 -2.68346 -1.45939 -0.907849 
 1.26201 0.0186151 0.048492   -0.091923 -0.0787517 0.383656  -0.364629 -0.310346 0.412732 0.774844   1.15417 -4.46881 1.92688  2.47192 2.77094 -1.43555   -0.479919 0.00483987 0.565925  0.894655 0.256998 -0.365438 0.18097 -0.956335 -0.229506 -0.408464 0.139195 -0.902098   430.073 430.073 430.073 25.8044 25.8044 25.8044  0 0 0 0 0 0   0.737362 0.411729 -0.67298 0.00126419 -2.68346 -1.45939 -0.907849 
 1.27197 0.0186151 0.048492   -0.091923 -0.0787517 0.383656  -0.364629 -0.310346 0.412732 0.774844   1.07849 -4.72296 1.92688  2.39777 2.7959 -1.37402   -0.479779 0.00656591 0.566149  0.895458 0.253735 -0.36575 0.177222 -0.956926 -0.229968 -0.408347 0.141108 -0.901854   430.073 430.073 430.073 25.8044 25.8044 25.8044  0 0 0 0 0 0   0.737362 0.411729 -0.67298 0.00126419 -2.68346 -1.45939 -0.907849 
 1.28198 0.0186151 0.048492   -0.091923 -0.0787517 0.383656  -0.364629 -0.310346 0.412732 0.774844   1.00281 -4.74414 2.16187  2.42249 2.99561 -1.35352   -0.47963 0.00831887 0.566376  0.896263 0.250414 -0.366066 0.173409 -0.957512 -0.230435 -0.408217 0.143051 -0.901607   430.073 430.073 430.073 25.8044 25.8044 25.8044  0 0 0 0 0 0   0.737362 0.411729 -0.67298 0.00126419 -2.68346 -1.45939 -0.907849 
 1.29198 0.0186151 0.048492   -0.091923 -0.0787517 0.383656  -0.364629 -0.310346 0.412732 0.774844   0.85144 -4.40527 2.34985  2.52136 3.0705 -1.43555   -0.479475 0.0100806 0.566602  0.89706 0.247077 -0.366383 0.169579 -0.958086 -0.2309 -0.408076 0.145 -0.901359   430.073 430.073 430.073 25.8044 25.8044 25.8044  0 0 0 0 0 0   0.737362 0.411729 -0.67298 0.00126419 -2.68346 -1.45939 -0.907849 
 1.30197 0.0186151 0.048492   -0.091923 -0.0787517 0.383656  -0.364629 -0.310346 0.412732 0.774844   0.700073 -4.34174 2.53784  2.47192 3.29517 -1.43555   -0.479315 0.0118213 0.566829  0.897833 0.243772 -0.366703 0.165787 -0.958639 -0.231359 -0.407934 0.146927 -0.901112   430.073 430.073 430.073 25.8044 25.8044 25.8044  0 0 0 0 0 0   0.737362 0.411729 -0.67298 0.00126419 -2.68346 -1.45939 -0.907849 
 1.31199 0.0186151 0.048492   -0.091923 -0.0787517 0.383656  -0.364629 -0.310346 0.412732 0.774844   0.927124 -4.40527 1.97388  2.47192 3.29517 -1.45605   -0.479148 0.0135636 0.567056  0.898595 0.240461 -0.367022 0.161989 -0.959177 -0.231817 -0.407782 0.148857 -0.900864   430.073 430.073 430.073 25.8044 25.8044 25.8044  0 0 0 0 0 0   0.737362 0.411729 -0.67298 0.00126419 -2.68346 -1.45939 -0.907849 
 1.32199 0.0186151 0.048492   -0.091923 -0.0787517 0.383656  -0.364629 -0.310346 0.412732 0.774844   0.983887 -4.32056 1.92688  2.71912 3.0705 -1.43555   -0.478976 0.0152839 0.567281  0.899334 0.23719 -0.367339 0.158237 -0.959693 -0.232271 -0.407625 0.150762 -0.900618   430.073 430.073 430.073 25.8044 25.8044 25.8044  0 0 0 0 0 0   0.737362 0.411729 -0.67298 0.00126419 -2.68346 -1.45939 -0.907849 
 1.33197 0.0186151 0.048492   -0.091923 -0.0787517 0.383656  -0.364629 -0.310346 0.412732 0.774844   0.737915 -3.98169 1.92688  2.99103 3.34509 -1.43555   -0.478795 0.0170102 0.567513  0.900061 0.233903 -0.367667 0.154463 -0.960197 -0.23273 -0.407469 0.152681 -0.900365   430.073 430.073 430.073 25.8044 25.8044 25.8044  0 0 0 0 0 0   0.737362 0.411729 -0.67298 0.00126419 -2.68346 -1.45939 -0.907849 
 1.342 0.0186151 0.048492   -0.091923 -0.0787517 0.383656  -0.364629 -0.310346 0.412732 0.774844   0.813599 -3.98169 2.11487  3.0899 3.41998 -1.35352   -0.478608 0.0187294 0.567741  0.900776 0.230622 -0.367988 0.150698 -0.960684 -0.233187 -0.407299 0.154595 -0.900116   430.073 430.073 430.073 25.8044 25.8044 25.8044  0 0 0 0 0 0   0.737362 0.411729 -0.67298 0.00126419 -2.68346 -1.45939 -0.907849 
 1.35197 0.0186151 0.048492   -0.091923 -0.0787517 0.383656  -0.364629 -0.310346 0.412732 0.774844   0.567627 -3.664 2.11487  3.46069 3.79443 -1.43555   -0.478413 0.0204518 0.567972  0.901479 0.227329 -0.368315 0.146918 -0.961158 -0.233647 -0.407124 0.156516 -0.899863   430.073 430.073 430.073 25.8044 25.8044 25.8044  0 0 0 0 0 0   0.737362 0.411729 -0.67298 0.00126419 -2.68346 -1.45939 -0.907849 
 1.36197 0.0213706 0.0690549   0.094253 0.0927893 -0.389381  -0.453059 -0.181758 0.0756959 -0.869466   0.548706 -3.40985 2.30286  3.46069 3.79443 -1.51758   -0.478217 0.0221335 0.568196  0.902155 0.224114 -0.368631 0.143228 -0.961605 -0.234096 -0.406942 0.158393 -0.899617   643.397 643.397 643.397 38.6038 38.6038 38.6038  0 0 0 0 0 0   0.737362 0.411729 -0.67298 0.00126419 -2.68346 -1.45939 -0.907849 
 1.37198 0.0213706 0.0690549   0.094253 0.0927893 -0.389381  -0.453059 -0.181758 0.0756959 -0.869466   0.813599 -3.98169 1.5509  3.11462 3.51984 -1.53809   -0.478021 0.0237633 0.568415  0.902798 0.220989 -0.368944 0.139644 -0.962027 -0.234528 -0.406762 0.160211 -0.899376   643.397 643.397 643.397 38.6038 38.6038 38.6038  0 0 0 0 0 0   0.737362 0.411729 -0.67298 0.00126419 -2.68346 -1.45939 -0.907849 
 1.38198 0.0213706 0.0690549   0.094253 0.0927893 -0.389381  -0.453059 -0.181758 0.0756959 -0.869466   0.718994 -3.89697 2.30286  3.28766 3.41998 -1.51758   -0.477818 0.0253854 0.568636  0.90342 0.217916 -0.369249 0.136108 -0.962424 -0.234976 -0.406579 0.162024 -0.899134   643.397 643.397 643.397 38.6038 38.6038 38.6038  0 0 0 0 0 0   0.737362 0.411729 -0.67298 0.00126419 -2.68346 -1.45939 -0.907849 
 1.39198 0.0213706 0.0690549   0.094253 0.0927893 -0.389381  -0.453059 -0.181758 0.0756959 -0.869466   0.927124 -3.79108 2.67883  3.48541 3.39502 -1.59961   -0.477611 0.0269966 0.568855  0.904022 0.214903 -0.369543 0.132635 -0.962797 -0.235434 -0.40639 0.163823 -0.898893   643.397 643.397 643.397 38.6038 38.6038 38.6038  0 0 0 0 0 0   0.737362 0.411729 -0.67298 0.00126419 -2.68346 -1.45939 -0.907849 
 1.40198 0.0213706 0.0690549   0.094253 0.0927893 -0.389381  -0.453059 -0.181758 0.0756959 -0.869466   1.02173 -3.87579 2.67883  3.23822 3.12042 -1.68164   -0.477395 0.0286249 0.569079  0.904612 0.211904 -0.369829 0.129163 -0.963148 -0.235928 -0.406194 0.165655 -0.898646   643.397 643.397 643.397 38.6038 38.6038 38.6038  0 0 0 0 0 0   0.737362 0.411729 -0.67298 0.00126419 -2.68346 -1.45939 -0.907849 
 1.41199 0.0213706 0.0690549   0.094253 0.0927893 -0.389381  -0.453059 -0.181758 0.0756959 -0.869466   1.1731 -3.79108 2.63184  3.31238 3.02057 -1.68164   -0.477178 0.0302244 0.569297  0.90518 0.208982 -0.370101 0.125777 -0.963476 -0.236418 -0.405991 0.167451 -0.898405   643.397 643.397 643.397 38.6038 38.6038 38.6038  0 0 0 0 0 0   0.737362 0.411729 -0.67298 0.00126419 -2.68346 -1.45939 -0.907849 
 1.42197 0.0213706 0.0690549   0.094253 0.0927893 -0.389381  -0.453059 -0.181758 0.0756959 -0.869466   1.1731 -3.87579 2.49084  3.2135 2.92072 -1.76367   -0.476957 0.0318002 0.569517  0.905723 0.20614 -0.370368 0.122472 -0.963778 -0.236922 -0.405792 0.169226 -0.898162   643.397 643.397 643.397 38.6038 38.6038 38.6038  0 0 0 0 0 0   0.737362 0.411729 -0.67298 0.00126419 -2.68346 -1.45939 -0.907849 
 1.43197 0.0213706 0.0690549   0.094253 0.0927893 -0.389381  -0.453059 -0.181758 0.0756959 -0.869466   1.32446 -3.68518 2.49084  3.16406 2.72101 -1.8457   -0.476734 0.0333557 0.569735  0.906248 0.203342 -0.37063 0.119215 -0.964063 -0.237424 -0.405589 0.170981 -0.897921   643.397 643.397 643.397 38.6038 38.6038 38.6038  0 0 0 0 0 0   0.737362 0.411729 -0.67298 0.00126419 -2.68346 -1.45939 -0.907849 
 1.44195 0.0213706 0.0690549   0.094253 0.0927893 -0.389381  -0.453059 -0.181758 0.0756959 -0.869466   1.07849 -3.51575 2.81982  3.51013 2.99561 -1.8457   -0.476504 0.0349004 0.569953  0.90676 0.200561 -0.370893 0.115976 -0.964334 -0.237925 -0.405383 0.172727 -0.89768   643.397 643.397 643.397 38.6038 38.6038 38.6038  0 0 0 0 0 0   0.737362 0.411729 -0.67298 0.00126419 -2.68346 -1.45939 -0.907849 
 1.45198 0.0213706 0.0690549   0.094253 0.0927893 -0.389381  -0.453059 -0.181758 0.0756959 -0.869466   0.775757 -3.45221 2.86682  3.36182 3.12042 -1.92773   -0.476277 0.0364004 0.570165  0.907251 0.197849 -0.371148 0.112822 -0.964589 -0.238409 -0.405174 0.174423 -0.897447   643.397 643.397 643.397 38.6038 38.6038 38.6038  0 0 0 0 0 0   0.737362 0.411729 -0.67298 0.00126419 -2.68346 -1.45939 -0.907849 
 1.46197 0.0218811 0.0629639   0.0846088 0.098822 -0.398416  -0.192435 -0.926628 0.0761805 0.313889   0.946045 -3.79108 2.86682  3.13934 3.12042 -1.92773   -0.476053 0.0378494 0.570368  0.907719 0.195235 -0.371388 0.109779 -0.964823 -0.238884 -0.404962 0.176069 -0.897221   580.208 580.208 580.208 34.8125 34.8125 34.8125  0 0 0 0 0 0   0.737362 0.411729 -0.67298 0.00126419 -2.68346 -1.45939 -0.907849 
 1.47199 0.0218811 0.0629639   0.0846088 0.098822 -0.398416  -0.192435 -0.926628 0.0761805 0.313889   1.00281 -3.34631 3.43079  3.41125 2.89575 -1.92773   -0.475822 0.0393012 0.570575  0.908174 0.192638 -0.371632 0.106751 -0.965043 -0.239364 -0.404751 0.177713 -0.896992   580.208 580.208 580.208 34.8125 34.8125 34.8125  0 0 0 0 0 0   0.737362 0.411729 -0.67298 0.00126419 -2.68346 -1.45939 -0.907849 
 1.48197 0.0218811 0.0629639   0.0846088 0.098822 -0.398416  -0.192435 -0.926628 0.0761805 0.313889   1.07849 -3.51575 2.86682  3.31238 3.02057 -1.92773   -0.475593 0.0407078 0.570776  0.908604 0.190158 -0.371858 0.10385 -0.96524 -0.239848 -0.404541 0.17931 -0.896769   580.208 580.208 580.208 34.8125 34.8125 34.8125  0 0 0 0 0 0   0.737362 0.411729 -0.67298 0.00126419 -2.68346 -1.45939 -0.907849 
 1.49196 0.0218811 0.0629639   0.0846088 0.098822 -0.398416  -0.192435 -0.926628 0.0761805 0.313889   1.1731 -3.7699 3.05481  3.18878 2.82086 -1.8457   -0.475364 0.0420908 0.570975  0.909015 0.187769 -0.372069 0.101042 -0.965414 -0.240348 -0.40433 0.180885 -0.896548   580.208 580.208 580.208 34.8125 34.8125 34.8125  0 0 0 0 0 0   0.737362 0.411729 -0.67298 0.00126419 -2.68346 -1.45939 -0.907849 
 1.50198 0.0218811 0.0629639   0.0846088 0.098822 -0.398416  -0.192435 -0.926628 0.0761805 0.313889   1.22986 -3.51575 2.67883  3.41125 3.02057 -1.92773   -0.475131 0.0434596 0.571174  0.909409 0.185457 -0.372265 0.0983122 -0.965567 -0.240864 -0.404117 0.182446 -0.896328   580.208 580.208 580.208 34.8125 34.8125 34.8125  0 0 0 0 0 0   0.737362 0.411729 -0.67298 0.00126419 -2.68346 -1.45939 -0.907849 
 1.51197 0.0218811 0.0629639   0.0846088 0.098822 -0.398416  -0.192435 -0.926628 0.0761805 0.313889   1.30554 -3.34631 2.63184  3.31238 2.92072 -2.00977   -0.474898 0.0448004 0.571375  0.909778 0.183252 -0.372454 0.0956892 -0.965697 -0.241399 -0.403915 0.18398 -0.896105   580.208 580.208 580.208 34.8125 34.8125 34.8125  0 0 0 0 0 0   0.737362 0.411729 -0.67298 0.00126419 -2.68346 -1.45939 -0.907849 
 1.52197 0.0218811 0.0629639   0.0846088 0.098822 -0.398416  -0.192435 -0.926628 0.0761805 0.313889   1.30554 -3.51575 2.81982  3.28766 2.82086 -1.92773   -0.47466 0.0461415 0.571574  0.910151 0.180967 -0.37266 0.0929915 -0.965834 -0.241903 -0.403704 0.185514 -0.895884   580.208 580.208 580.208 34.8125 34.8125 34.8125  0 0 0 0 0 0   0.737362 0.411729 -0.67298 0.00126419 -2.68346 -1.45939 -0.907849 
 1.53201 0.0218811 0.0629639   0.0846088 0.098822 -0.398416  -0.192435 -0.926628 0.0761805 0.313889   1.55151 -3.49457 3.38379  3.26294 2.72101 -2.00977   -0.474413 0.0475072 0.571778  0.91054 0.178469 -0.372916 0.0900798 -0.965996 -0.242357 -0.403489 0.187083 -0.895654   580.208 580.208 580.208 34.8125 34.8125 34.8125  0 0 0 0 0 0   0.737362 0.411729 -0.67298 0.00126419 -2.68346 -1.45939 -0.907849 
 1.54201 0.0218811 0.0629639   0.0846088 0.098822 -0.398416  -0.192435 -0.926628 0.0761805 0.313889   1.47583 -3.664 3.1958  3.16406 2.62115 -2.00977   -0.474165 0.0488605 0.571982  0.910927 0.175861 -0.373208 0.0870679 -0.966171 -0.24276 -0.403275 0.188642 -0.895424   580.208 580.208 580.208 34.8125 34.8125 34.8125  0 0 0 0 0 0   0.737362 0.411729 -0.67298 0.00126419 -2.68346 -1.45939 -0.907849 
 1.55196 0.0218811 0.0629639   0.0846088 0.098822 -0.398416  -0.192435 -0.926628 0.0761805 0.313889   1.45691 -3.32513 3.1958  3.26294 2.62115 -2.00977   -0.473912 0.0502073 0.572185  0.911306 0.173229 -0.373514 0.0840309 -0.966342 -0.243151 -0.403063 0.190198 -0.89519   580.208 580.208 580.208 34.8125 34.8125 34.8125  0 0 0 0 0 0   0.737362 0.411729 -0.67298 0.00126419 -2.68346 -1.45939 -0.907849 
 1.56198 0.0210387 0.0766186   -0.121904 -0.0703672 0.402828  -0.636426 0.576516 -0.482488 0.172616   1.55151 -3.74872 2.81982  3.06519 2.64612 -2.00977   -0.473662 0.0515302 0.572384  0.911671 0.17064 -0.373815 0.0810479 -0.966501 -0.243529 -0.402848 0.191722 -0.894961   721.864 721.864 721.864 43.3119 43.3119 43.3119  0 0 0 0 0 0   0.737362 0.411729 -0.67298 0.00126419 -2.68346 -1.45939 -0.907849 
 1.57197 0.0210387 0.0766186   -0.121904 -0.0703672 0.402828  -0.636426 0.576516 -0.482488 0.172616   1.60828 -3.32513 3.1958  3.36182 2.72101 -2.00977   -0.473406 0.05286 0.572585  0.912031 0.168036 -0.374118 0.0780463 -0.966652 -0.243911 -0.402628 0.193256 -0.894731   721.864 721.864 721.864 43.3119 43.3119 43.3119  0 0 0 0 0 0   0.737362 0.411729 -0.67298 0.00126419 -2.68346 -1.45939 -0.907849 
 1.58197 0.0210387 0.0766186   -0.121904 -0.0703672 0.402828  -0.636426 0.576516 -0.482488 0.172616   1.53259 -3.40985 2.81982  3.46069 2.69604 -2.00977   -0.473156 0.0541382 0.572783  0.91236 0.165535 -0.374429 0.075155 -0.966786 -0.244289 -0.402431 0.194739 -0.894498   721.864 721.864 721.864 43.3119 43.3119 43.3119  0 0 0 0 0 0   0.737362 0.411729 -0.67298 0.00126419 -2.68346 -1.45939 -0.907849 
 1.59198 0.0210387 0.0766186   -0.121904 -0.0703672 0.402828  -0.636426 0.576516 -0.482488 0.172616   1.75964 -3.49457 2.81982  3.2135 2.5213 -2.00977   -0.472905 0.0554057 0.572979  0.912675 0.163055 -0.374749 0.072282 -0.966909 -0.244668 -0.402242 0.196215 -0.89426   721.864 721.864 721.864 43.3119 43.3119 43.3119  0 0 0 0 0 0   0.737362 0.411729 -0.67298 0.00126419 -2.68346 -1.45939 -0.907849 
 1.60198 0.0210387 0.0766186   -0.121904 -0.0703672 0.402828  -0.636426 0.576516 -0.482488 0.172616   1.85425 -3.57928 3.1958  3.23822 2.5213 -2.00977   -0.472654 0.0566609 0.573176  0.91297 0.1606 -0.37509 0.06943 -0.967021 -0.245051 -0.402075 0.197682 -0.894012   721.864 721.864 721.864 43.3119 43.3119 43.3119  0 0 0 0 0 0   0.737362 0.411729 -0.67298 0.00126419 -2.68346 -1.45939 -0.907849 
 1.61197 0.0210387 0.0766186   -0.121904 -0.0703672 0.402828  -0.636426 0.576516 -0.482488 0.172616   1.91101 -3.47339 3.00781  3.2135 2.42145 -2.0918   -0.472402 0.0579055 0.573374  0.913246 0.158172 -0.375452 0.0665946 -0.96712 -0.245447 -0.40193 0.199151 -0.893751   721.864 721.864 721.864 43.3119 43.3119 43.3119  0 0 0 0 0 0   0.737362 0.411729 -0.67298 0.00126419 -2.68346 -1.45939 -0.907849 
 1.62197 0.0210387 0.0766186   -0.121904 -0.0703672 0.402828  -0.636426 0.576516 -0.482488 0.172616   2.11914 -3.30396 3.1488  3.48541 2.19678 -2.07129   -0.472151 0.059135 0.573575  0.913499 0.155774 -0.375839 0.0637835 -0.967207 -0.24585 -0.401811 0.200611 -0.893478   721.864 721.864 721.864 43.3119 43.3119 43.3119  0 0 0 0 0 0   0.737362 0.411729 -0.67298 0.00126419 -2.68346 -1.45939 -0.907849 
 1.63198 0.0210387 0.0766186   -0.121904 -0.0703672 0.402828  -0.636426 0.576516 -0.482488 0.172616   2.45972 -3.70636 3.33679  3.06519 2.047 -2.07129   -0.471901 0.0603561 0.573776  0.913728 0.153404 -0.376255 0.0609869 -0.967281 -0.246268 -0.401723 0.202076 -0.893188   721.864 721.864 721.864 43.3119 43.3119 43.3119  0 0 0 0 0 0   0.737362 0.411729 -0.67298 0.00126419 -2.68346 -1.45939 -0.907849 
 1.64198 0.0210387 0.0766186   -0.121904 -0.0703672 0.402828  -0.636426 0.576516 -0.482488 0.172616   2.28943 -3.53693 3.52478  3.16406 1.92218 -2.07129   -0.471643 0.0616061 0.573984  0.913941 0.150981 -0.376718 0.0581128 -0.967346 -0.246708 -0.401664 0.203584 -0.892871   721.864 721.864 721.864 43.3119 43.3119 43.3119  0 0 0 0 0 0   0.737362 0.411729 -0.67298 0.00126419 -2.68346 -1.45939 -0.907849 
 1.65198 0.0210387 0.0766186   -0.121904 -0.0703672 0.402828  -0.636426 0.576516 -0.482488 0.172616   2.38403 -3.62164 3.57178  3.04047 1.94714 -2.23535   -0.471391 0.0628318 0.574194  0.914117 0.148621 -0.37723 0.0552829 -0.967394 -0.247169 -0.401665 0.205087 -0.892527   721.864 721.864 721.864 43.3119 43.3119 43.3119  0 0 0 0 0 0   0.737362 0.411729 -0.67298 0.00126419 -2.68346 -1.45939 -0.907849 
 1.66199 0.0230916 0.0638726   0.0823033 0.127783 -0.406434  -0.181595 -0.92824 0.0408163 0.322068   2.5354 -3.70636 3.71277  3.04047 1.84729 -2.15332   -0.471138 0.0640509 0.574404  0.914269 0.146278 -0.377776 0.0524567 -0.96743 -0.247644 -0.401696 0.206596 -0.892165   589.635 589.635 589.635 35.3781 35.3781 35.3781  0 0 0 0 0 0   0.737362 0.411729 -0.67298 0.00126419 -2.68346 -1.45939 -0.907849 
 1.672 0.0230916 0.0638726   0.0823033 0.127783 -0.406434  -0.181595 -0.92824 0.0408163 0.322068   2.63 -3.79108 3.57178  2.6944 1.67255 -2.23535   -0.470885 0.0652636 0.574616  0.914401 0.143956 -0.378348 0.0496406 -0.967454 -0.24813 -0.401754 0.208109 -0.891787   589.635 589.635 589.635 35.3781 35.3781 35.3781  0 0 0 0 0 0   0.737362 0.411729 -0.67298 0.00126419 -2.68346 -1.45939 -0.907849 
 1.68199 0.0230916 0.0638726   0.0823033 0.127783 -0.406434  -0.181595 -0.92824 0.0408163 0.322068   2.45972 -3.36749 3.90076  3.13934 1.94714 -2.15332   -0.47062 0.0665152 0.574839  0.914522 0.141562 -0.378958 0.0467268 -0.967468 -0.248639 -0.401828 0.209679 -0.891386   589.635 589.635 589.635 35.3781 35.3781 35.3781  0 0 0 0 0 0   0.737362 0.411729 -0.67298 0.00126419 -2.68346 -1.45939 -0.907849 
 1.69202 0.0230916 0.0638726   0.0823033 0.127783 -0.406434  -0.181595 -0.92824 0.0408163 0.322068   2.47864 -3.79108 3.38379  2.84271 1.87225 -2.23535   -0.470364 0.0677347 0.575056  0.914607 0.139244 -0.379611 0.043876 -0.967467 -0.249163 -0.401956 0.21123 -0.890962   589.635 589.635 589.635 35.3781 35.3781 35.3781  0 0 0 0 0 0   0.737362 0.411729 -0.67298 0.00126419 -2.68346 -1.45939 -0.907849 
 1.70199 0.0230916 0.0638726   0.0823033 0.127783 -0.406434  -0.181595 -0.92824 0.0408163 0.322068   2.85706 -3.7699 3.52478  2.66968 1.47284 -2.31738   -0.470099 0.0689776 0.57528  0.914683 0.136883 -0.380286 0.0409592 -0.967453 -0.249716 -0.402091 0.212835 -0.890519   589.635 589.635 589.635 35.3781 35.3781 35.3781  0 0 0 0 0 0   0.737362 0.411729 -0.67298 0.00126419 -2.68346 -1.45939 -0.907849 
 1.71196 0.0230916 0.0638726   0.0823033 0.127783 -0.406434  -0.181595 -0.92824 0.0408163 0.322068   3.36792 -3.664 3.47778  3.04047 1.24817 -2.23535   -0.469822 0.0702456 0.575512  0.914766 0.134465 -0.380949 0.0379909 -0.967435 -0.250252 -0.402193 0.21445 -0.890085   589.635 589.635 589.635 35.3781 35.3781 35.3781  0 0 0 0 0 0   0.737362 0.411729 -0.67298 0.00126419 -2.68346 -1.45939 -0.907849 
 1.72197 0.0230916 0.0638726   0.0823033 0.127783 -0.406434  -0.181595 -0.92824 0.0408163 0.322068   3.53821 -3.89697 4.22974  2.79327 0.973572 -2.31738   -0.469531 0.0715303 0.57576  0.914874 0.131992 -0.381555 0.0349869 -0.967414 -0.25077 -0.402221 0.216073 -0.88968   589.635 589.635 589.635 35.3781 35.3781 35.3781  0 0 0 0 0 0   0.737362 0.411729 -0.67298 0.00126419 -2.68346 -1.45939 -0.907849 
 1.73196 0.0230916 0.0638726   0.0823033 0.127783 -0.406434  -0.181595 -0.92824 0.0408163 0.322068   3.63281 -4.32056 3.90076  2.39777 0.998535 -2.31738   -0.469223 0.0728588 0.576016  0.915014 0.129415 -0.382101 0.0318903 -0.967389 -0.25128 -0.40216 0.21774 -0.889301   589.635 589.635 589.635 35.3781 35.3781 35.3781  0 0 0 0 0 0   0.737362 0.411729 -0.67298 0.00126419 -2.68346 -1.45939 -0.907849 
 1.74197 0.0230916 0.0638726   0.0823033 0.127783 -0.406434  -0.181595 -0.92824 0.0408163 0.322068   3.23547 -3.74872 3.90076  2.74384 1.27313 -2.23535   -0.468893 0.0742349 0.576284  0.915164 0.126728 -0.382641 0.0286787 -0.967357 -0.251791 -0.402059 0.219457 -0.888925   589.635 589.635 589.635 35.3781 35.3781 35.3781  0 0 0 0 0 0   0.737362 0.411729 -0.67298 0.00126419 -2.68346 -1.45939 -0.907849 
 1.75197 0.0230916 0.0638726   0.0823033 0.127783 -0.406434  -0.181595 -0.92824 0.0408163 0.322068   3.06519 -3.60046 3.90076  2.79327 1.57269 -2.48145   -0.468558 0.075621 0.576553  0.915312 0.12402 -0.383174 0.0254487 -0.967316 -0.252295 -0.40194 0.221177 -0.888552   589.635 589.635 589.635 35.3781 35.3781 35.3781  0 0 0 0 0 0   0.737362 0.411729 -0.67298 0.00126419 -2.68346 -1.45939 -0.907849 
 1.76198 0.0237085 0.0676575   0.0851463 0.145304 -0.408128  -0.706191 0.225121 -0.591945 0.316569   3.10303 -4.19348 3.75977  2.27417 1.52277 -2.39941   -0.468217 0.0769996 0.576815  0.915473 0.121309 -0.383657 0.0222399 -0.967269 -0.252775 -0.401764 0.222876 -0.888207   628.9 628.9 628.9 37.734 37.734 37.734  0 0 0 0 0 0   0.737362 0.411729 -0.67298 0.00126419 -2.68346 -1.45939 -0.907849 
 1.77197 0.0237085 0.0676575   0.0851463 0.145304 -0.408128  -0.706191 0.225121 -0.591945 0.316569   3.15979 -3.93933 3.90076  2.66968 1.57269 -2.39941   -0.46786 0.0784032 0.577087  0.915647 0.118533 -0.384109 0.0189767 -0.967218 -0.253239 -0.401535 0.224589 -0.887879   628.9 628.9 628.9 37.734 37.734 37.734  0 0 0 0 0 0   0.737362 0.411729 -0.67298 0.00126419 -2.68346 -1.45939 -0.907849 
 1.78197 0.0237085 0.0676575   0.0851463 0.145304 -0.408128  -0.706191 0.225121 -0.591945 0.316569   2.78137 -3.79108 3.75977  2.71912 1.97211 -2.39941   -0.467503 0.0797847 0.577361  0.915819 0.11579 -0.384536 0.0157631 -0.967158 -0.253686 -0.401282 0.226269 -0.887567   628.9 628.9 628.9 37.734 37.734 37.734  0 0 0 0 0 0   0.737362 0.411729 -0.67298 0.00126419 -2.68346 -1.45939 -0.907849 
 1.79197 0.0237085 0.0676575   0.0851463 0.145304 -0.408128  -0.706191 0.225121 -0.591945 0.316569   2.93274 -3.7699 3.90076  2.74384 1.97211 -2.31738   -0.467133 0.0811903 0.577635  0.915993 0.112995 -0.384953 0.0124953 -0.967088 -0.254136 -0.401 0.227976 -0.887258   628.9 628.9 628.9 37.734 37.734 37.734  0 0 0 0 0 0   0.737362 0.411729 -0.67298 0.00126419 -2.68346 -1.45939 -0.907849 
 1.80197 0.0237085 0.0676575   0.0851463 0.145304 -0.408128  -0.706191 0.225121 -0.591945 0.316569   2.91382 -3.62164 3.52478  2.76855 2.07196 -2.31738   -0.466757 0.0826015 0.577901  0.916166 0.110181 -0.385358 0.00921612 -0.967009 -0.254576 -0.400694 0.229682 -0.886956   628.9 628.9 628.9 37.734 37.734 37.734  0 0 0 0 0 0   0.737362 0.411729 -0.67298 0.00126419 -2.68346 -1.45939 -0.907849 
 1.81197 0.0237085 0.0676575   0.0851463 0.145304 -0.408128  -0.706191 0.225121 -0.591945 0.316569   2.9895 -3.68518 3.90076  2.76855 2.07196 -2.31738   -0.466376 0.0840043 0.578165  0.916329 0.107381 -0.385759 0.00595442 -0.96692 -0.255011 -0.400381 0.231377 -0.886656   628.9 628.9 628.9 37.734 37.734 37.734  0 0 0 0 0 0   0.737362 0.411729 -0.67298 0.00126419 -2.68346 -1.45939 -0.907849 
 1.82201 0.0237085 0.0676575   0.0851463 0.145304 -0.408128  -0.706191 0.225121 -0.591945 0.316569   2.83813 -3.53693 3.52478  2.99103 2.27167 -2.23535   -0.465986 0.0854209 0.578438  0.916482 0.104552 -0.386174 0.00265429 -0.966817 -0.255456 -0.400068 0.233096 -0.886348   628.9 628.9 628.9 37.734 37.734 37.734  0 0 0 0 0 0   0.737362 0.411729 -0.67298 0.00126419 -2.68346 -1.45939 -0.907849 
 1.832 0.0237085 0.0676575   0.0851463 0.145304 -0.408128  -0.706191 0.225121 -0.591945 0.316569   2.68677 -3.45221 3.90076  3.18878 2.34656 -2.15332   -0.465592 0.0868377 0.57871  0.916625 0.101717 -0.38659 -0.000651461 -0.966704 -0.255897 -0.399747 0.234813 -0.886039   628.9 628.9 628.9 37.734 37.734 37.734  0 0 0 0 0 0   0.737362 0.411729 -0.67298 0.00126419 -2.68346 -1.45939 -0.907849 
 1.842 0.0237085 0.0676575   0.0851463 0.145304 -0.408128  -0.706191 0.225121 -0.591945 0.316569   2.66785 -3.36749 3.33679  3.23822 2.54626 -2.23535   -0.465192 0.0882522 0.578979  0.916763 0.0988807 -0.386999 -0.00395502 -0.966579 -0.256337 -0.399412 0.23653 -0.885733   628.9 628.9 628.9 37.734 37.734 37.734  0 0 0 0 0 0   0.737362 0.411729 -0.67298 0.00126419 -2.68346 -1.45939 -0.907849 
 1.852 0.0237085 0.0676575   0.0851463 0.145304 -0.408128  -0.706191 0.225121 -0.591945 0.316569   2.81921 -3.53693 3.52478  3.11462 2.44641 -2.23535   -0.464792 0.0896471 0.579242  0.916892 0.0960821 -0.387398 -0.00721327 -0.966446 -0.25677 -0.39907 0.238225 -0.885433   628.9 628.9 628.9 37.734 37.734 37.734  0 0 0 0 0 0   0.737362 0.411729 -0.67298 0.00126419 -2.68346 -1.45939 -0.907849 
 1.86198 0.0242553 0.0707004   0.0867407 0.166857 -0.408558  0.196331 -0.794663 -0.573923 0.0240261   2.59216 -3.21924 3.33679  3.36182 2.5213 -2.23535   -0.464387 0.0910343 0.579505  0.91701 0.0932938 -0.387799 -0.0104596 -0.966302 -0.257199 -0.398726 0.23991 -0.885133   660.467 660.467 660.467 39.628 39.628 39.628  0 0 0 0 0 0   0.737362 0.411729 -0.67298 0.00126419 -2.68346 -1.45939 -0.907849 
 1.87197 0.0242553 0.0707004   0.0867407 0.166857 -0.408558  0.196331 -0.794663 -0.573923 0.0240261   2.74353 -3.53693 3.71277  3.23822 2.54626 -2.23535   -0.463986 0.0923951 0.579765  0.917117 0.0905576 -0.388195 -0.0136475 -0.966149 -0.257624 -0.398384 0.24157 -0.884836   660.467 660.467 660.467 39.628 39.628 39.628  0 0 0 0 0 0   0.737362 0.411729 -0.67298 0.00126419 -2.68346 -1.45939 -0.907849 
 1.88198 0.0242553 0.0707004   0.0867407 0.166857 -0.408558  0.196331 -0.794663 -0.573923 0.0240261   2.97058 -3.45221 3.52478  3.2135 2.34656 -2.15332   -0.463577 0.0937578 0.580024  0.917217 0.0878141 -0.388589 -0.0168423 -0.965985 -0.25805 -0.398031 0.243232 -0.884539   660.467 660.467 660.467 39.628 39.628 39.628  0 0 0 0 0 0   0.737362 0.411729 -0.67298 0.00126419 -2.68346 -1.45939 -0.907849 
 1.89197 0.0242553 0.0707004   0.0867407 0.166857 -0.408558  0.196331 -0.794663 -0.573923 0.0240261   2.87598 -3.28278 3.71277  3.31238 2.42145 -2.15332   -0.463161 0.0951218 0.580291  0.917304 0.0850635 -0.388995 -0.0200505 -0.965808 -0.25848 -0.397682 0.244905 -0.884235   660.467 660.467 660.467 39.628 39.628 39.628  0 0 0 0 0 0   0.737362 0.411729 -0.67298 0.00126419 -2.68346 -1.45939 -0.907849 
 1.90196 0.0242553 0.0707004   0.0867407 0.166857 -0.408558  0.196331 -0.794663 -0.573923 0.0240261   2.97058 -3.62164 4.08875  3.2135 2.34656 -2.15332   -0.462738 0.0964941 0.580554  0.917387 0.0822929 -0.389396 -0.0232782 -0.965621 -0.258911 -0.397315 0.246586 -0.883932   660.467 660.467 660.467 39.628 39.628 39.628  0 0 0 0 0 0   0.737362 0.411729 -0.67298 0.00126419 -2.68346 -1.45939 -0.907849 
 1.91199 0.0242553 0.0707004   0.0867407 0.166857 -0.408558  0.196331 -0.794663 -0.573923 0.0240261   3.27332 -3.34631 4.04175  3.46069 2.02203 -2.15332   -0.462296 0.0979027 0.580827  0.917463 0.0794407 -0.389809 -0.0266012 -0.965416 -0.259355 -0.396931 0.248318 -0.88362   660.467 660.467 660.467 39.628 39.628 39.628  0 0 0 0 0 0   0.737362 0.411729 -0.67298 0.00126419 -2.68346 -1.45939 -0.907849 
 1.92199 0.0242553 0.0707004   0.0867407 0.166857 -0.408558  0.196331 -0.794663 -0.573923 0.0240261   3.17871 -3.2616 4.04175  3.58429 2.19678 -2.15332   -0.461856 0.0992984 0.5811  0.917525 0.0766156 -0.390229 -0.029896 -0.965201 -0.259796 -0.396554 0.250035 -0.883305   660.467 660.467 660.467 39.628 39.628 39.628  0 0 0 0 0 0   0.737362 0.411729 -0.67298 0.00126419 -2.68346 -1.45939 -0.907849 
 1.93198 0.0242553 0.0707004   0.0867407 0.166857 -0.408558  0.196331 -0.794663 -0.573923 0.0240261   3.50037 -3.49457 3.85376  3.3371 1.82233 -2.15332   -0.461417 0.100675 0.581377  0.917572 0.0738293 -0.390655 -0.0331528 -0.964975 -0.260239 -0.396185 0.251739 -0.882986   660.467 660.467 660.467 39.628 39.628 39.628  0 0 0 0 0 0   0.737362 0.411729 -0.67298 0.00126419 -2.68346 -1.45939 -0.907849 
 1.94197 0.0242553 0.0707004   0.0867407 0.166857 -0.408558  0.196331 -0.794663 -0.573923 0.0240261   3.23547 -3.07098 4.22974  3.75732 1.99707 -2.15332   -0.46096 0.102092 0.581663  0.91761 0.0709598 -0.391096 -0.0365062 -0.964732 -0.260692 -0.395801 0.253491 -0.882657   660.467 660.467 660.467 39.628 39.628 39.628  0 0 0 0 0 0   0.737362 0.411729 -0.67298 0.00126419 -2.68346 -1.45939 -0.907849 
 1.95198 0.0242553 0.0707004   0.0867407 0.166857 -0.408558  0.196331 -0.794663 -0.573923 0.0240261   3.33008 -3.17688 3.80676  3.88092 2.17181 -1.98926   -0.460515 0.103462 0.581943  0.917635 0.068182 -0.391532 -0.0397556 -0.964484 -0.261132 -0.395431 0.255189 -0.882334   660.467 660.467 660.467 39.628 39.628 39.628  0 0 0 0 0 0   0.737362 0.411729 -0.67298 0.00126419 -2.68346 -1.45939 -0.907849 
 1.96197 0.0245689 0.0703469   0.084512 0.182599 -0.410633  0.18936 -0.785422 -0.588976 0.0190331   3.40576 -3.07098 3.85376  3.8562 1.99707 -2.07129   -0.46006 0.104852 0.582234  0.917645 0.0653696 -0.391988 -0.0430547 -0.964219 -0.261588 -0.395062 0.256922 -0.881996   656.8 656.8 656.8 39.408 39.408 39.408  0 0 0 0 0 0   0.737362 0.411729 -0.67298 0.00126419 -2.68346 -1.45939 -0.907849 
 1.97197 0.0245689 0.0703469   0.084512 0.182599 -0.410633  0.18936 -0.785422 -0.588976 0.0190331   3.38684 -3.07098 4.37073  3.8562 2.07196 -2.13281   -0.459607 0.106228 0.582537  0.917626 0.0625919 -0.392484 -0.0463342 -0.96394 -0.262055 -0.394734 0.258654 -0.881637   656.8 656.8 656.8 39.408 39.408 39.408  0 0 0 0 0 0   0.737362 0.411729 -0.67298 0.00126419 -2.68346 -1.45939 -0.907849 
 1.98197 0.0245689 0.0703469   0.084512 0.182599 -0.410633  0.18936 -0.785422 -0.588976 0.0190331   3.40576 -3.24042 3.85376  3.75732 2.09692 -2.07129   -0.459155 0.107596 0.582851  0.917582 0.0598527 -0.393015 -0.0495936 -0.963645 -0.262542 -0.39444 0.260395 -0.881255   656.8 656.8 656.8 39.408 39.408 39.408  0 0 0 0 0 0   0.737362 0.411729 -0.67298 0.00126419 -2.68346 -1.45939 -0.907849 
 1.99197 0.0245689 0.0703469   0.084512 0.182599 -0.410633  0.18936 -0.785422 -0.588976 0.0190331   3.29224 -2.81683 4.55872  4.05396 2.07196 -2.05078   -0.458687 0.109011 0.583179  0.917519 0.0570382 -0.393581 -0.0529559 -0.963326 -0.263057 -0.394151 0.262203 -0.880849   656.8 656.8 656.8 39.408 39.408 39.408  0 0 0 0 0 0   0.737362 0.411729 -0.67298 0.00126419 -2.68346 -1.45939 -0.907849 
 2.00214 0.0245689 0.0703469   0.084512 0.182599 -0.410633  0.18936 -0.785422 -0.588976 0.0190331   3.36792 -2.73212 4.55872  4.27643 2.14685 -2.05078   -0.458228 0.110393 0.58351  0.917424 0.0543141 -0.394186 -0.0562452 -0.962993 -0.263593 -0.393916 0.263998 -0.880418   656.8 656.8 656.8 39.408 39.408 39.408  0 0 0 0 0 0   0.737362 0.411729 -0.67298 0.00126419 -2.68346 -1.45939 -0.907849 
 2.01198 0.0245689 0.0703469   0.084512 0.182599 -0.410633  0.18936 -0.785422 -0.588976 0.0190331   3.7085 -3.32513 4.37073  3.83148 1.87225 -2.05078   -0.457775 0.11175 0.58384  0.917307 0.0516689 -0.394814 -0.0594662 -0.962648 -0.264144 -0.393715 0.265779 -0.879972   656.8 656.8 656.8 39.408 39.408 39.408  0 0 0 0 0 0   0.737362 0.411729 -0.67298 0.00126419 -2.68346 -1.45939 -0.907849 
 2.02198 0.0245689 0.0703469   0.084512 0.182599 -0.410633  0.18936 -0.785422 -0.588976 0.0190331   3.46252 -2.90155 4.7467  4.05396 2.07196 -2.05078   -0.457322 0.113106 0.584181  0.917156 0.0490501 -0.395498 -0.0626896 -0.962285 -0.26472 -0.393566 0.267584 -0.879491   656.8 656.8 656.8 39.408 39.408 39.408  0 0 0 0 0 0   0.737362 0.411729 -0.67298 0.00126419 -2.68346 -1.45939 -0.907849 
 2.03197 0.0245689 0.0703469   0.084512 0.182599 -0.410633  0.18936 -0.785422 -0.588976 0.0190331   3.29224 -2.83801 4.37073  4.20227 2.2467 -1.96875   -0.456873 0.11445 0.584524  0.916968 0.0464995 -0.396241 -0.0658764 -0.961904 -0.26533 -0.393484 0.269402 -0.878973   656.8 656.8 656.8 39.408 39.408 39.408  0 0 0 0 0 0   0.737362 0.411729 -0.67298 0.00126419 -2.68346 -1.45939 -0.907849 
 2.04197 0.0245689 0.0703469   0.084512 0.182599 -0.410633  0.18936 -0.785422 -0.588976 0.0190331   3.51929 -2.81683 4.37073  4.30115 2.2467 -2.05078   -0.456423 0.115793 0.584872  0.916749 0.0440115 -0.397032 -0.0690352 -0.961502 -0.265986 -0.393454 0.271251 -0.878417   656.8 656.8 656.8 39.408 39.408 39.408  0 0 0 0 0 0   0.737362 0.411729 -0.67298 0.00126419 -2.68346 -1.45939 -0.907849 
 2.05198 0.0245689 0.0703469   0.084512 0.182599 -0.410633  0.18936 -0.785422 -0.588976 0.0190331   3.42468 -2.56268 4.18274  4.4989 2.32159 -2.13281   -0.455973 0.117137 0.585225  0.91649 0.041565 -0.397893 -0.0721928 -0.961077 -0.266682 -0.393491 0.273137 -0.877816   656.8 656.8 656.8 39.408 39.408 39.408  0 0 0 0 0 0   0.737362 0.411729 -0.67298 0.00126419 -2.68346 -1.45939 -0.907849 
 2.06201 0.0249586 0.0780169   0.0917704 0.198016 -0.410203  0.195242 -0.770164 -0.606963 0.0179939   3.29224 -2.7533 4.7467  4.44946 2.62115 -1.88672   -0.455529 0.118469 0.585581  0.916174 0.0391883 -0.398859 -0.0753331 -0.96063 -0.267422 -0.393636 0.275052 -0.877153   736.371 736.371 736.371 44.1822 44.1822 44.1822  0 0 0 0 0 0   0.737362 0.411729 -0.67298 0.00126419 -2.68346 -1.45939 -0.907849 
 2.07198 0.0249586 0.0780169   0.0917704 0.198016 -0.410203  0.195242 -0.770164 -0.606963 0.0179939   3.85986 -2.45679 4.69971  4.67194 2.12189 -2.05078   -0.455075 0.119821 0.585944  0.91583 0.0368344 -0.399872 -0.0784911 -0.960157 -0.268214 -0.393819 0.277025 -0.876449   736.371 736.371 736.371 44.1822 44.1822 44.1822  0 0 0 0 0 0   0.737362 0.411729 -0.67298 0.00126419 -2.68346 -1.45939 -0.907849 
 2.08195 0.0249586 0.0780169   0.0917704 0.198016 -0.410203  0.195242 -0.770164 -0.606963 0.0179939   3.65173 -2.47797 4.32373  4.6225 2.32159 -1.96875   -0.454622 0.121157 0.586319  0.915482 0.0345218 -0.400874 -0.081605 -0.959675 -0.269006 -0.393996 0.278984 -0.875749   736.371 736.371 736.371 44.1822 44.1822 44.1822  0 0 0 0 0 0   0.737362 0.411729 -0.67298 0.00126419 -2.68346 -1.45939 -0.907849 
 2.09196 0.0249586 0.0780169   0.0917704 0.198016 -0.410203  0.195242 -0.770164 -0.606963 0.0179939   3.76526 -3.1557 4.13574  4.30115 2.2467 -1.96875   -0.454177 0.122469 0.586699  0.915116 0.0323015 -0.401894 -0.0846408 -0.959183 -0.26982 -0.394206 0.280934 -0.87503   736.371 736.371 736.371 44.1822 44.1822 44.1822  0 0 0 0 0 0   0.737362 0.411729 -0.67298 0.00126419 -2.68346 -1.45939 -0.907849 
 2.10197 0.0249586 0.0780169   0.0917704 0.198016 -0.410203  0.195242 -0.770164 -0.606963 0.0179939   3.349 -2.58386 4.7467  4.64722 2.72101 -2.05078   -0.453731 0.123788 0.587085  0.914696 0.030163 -0.403015 -0.0876653 -0.958659 -0.270717 -0.39452 0.282955 -0.874237   736.371 736.371 736.371 44.1822 44.1822 44.1822  0 0 0 0 0 0   0.737362 0.411729 -0.67298 0.00126419 -2.68346 -1.45939 -0.907849 
 2.11198 0.0249586 0.0780169   0.0917704 0.198016 -0.410203  0.195242 -0.770164 -0.606963 0.0179939   3.02734 -2.43561 3.99475  4.84497 3.09546 -1.88672   -0.453301 0.125079 0.587463  0.914203 0.0281547 -0.404278 -0.0906284 -0.958115 -0.271665 -0.394993 0.284996 -0.87336   736.371 736.371 736.371 44.1822 44.1822 44.1822  0 0 0 0 0 0   0.737362 0.411729 -0.67298 0.00126419 -2.68346 -1.45939 -0.907849 
 2.12198 0.0249586 0.0780169   0.0917704 0.198016 -0.410203  0.195242 -0.770164 -0.606963 0.0179939   3.78418 -2.39325 4.51172  4.84497 2.59619 -1.88672   -0.452869 0.126366 0.587834  0.913698 0.0263128 -0.40554 -0.0934553 -0.957553 -0.272688 -0.395501 0.287054 -0.872455   736.371 736.371 736.371 44.1822 44.1822 44.1822  0 0 0 0 0 0   0.737362 0.411729 -0.67298 0.00126419 -2.68346 -1.45939 -0.907849 
 2.13197 0.0249586 0.0780169   0.0917704 0.198016 -0.410203  0.195242 -0.770164 -0.606963 0.0179939   3.50037 -2.49915 4.51172  4.79553 2.69604 -1.88672   -0.452431 0.127652 0.588221  0.913199 0.0246611 -0.406768 -0.0961164 -0.956972 -0.273801 -0.396018 0.289131 -0.871535   736.371 736.371 736.371 44.1822 44.1822 44.1822  0 0 0 0 0 0   0.737362 0.411729 -0.67298 0.00126419 -2.68346 -1.45939 -0.907849 
 2.14197 0.0249586 0.0780169   0.0917704 0.198016 -0.410203  0.195242 -0.770164 -0.606963 0.0179939   3.59497 -2.92273 4.51172  4.59778 2.92072 -1.88672   -0.452001 0.128929 0.588609  0.912651 0.023178 -0.408082 -0.0986805 -0.956363 -0.275012 -0.396649 0.29126 -0.870539   736.371 736.371 736.371 44.1822 44.1822 44.1822  0 0 0 0 0 0   0.737362 0.411729 -0.67298 0.00126419 -2.68346 -1.45939 -0.907849 
 2.15197 0.0249586 0.0780169   0.0917704 0.198016 -0.410203  0.195242 -0.770164 -0.606963 0.0179939   3.65173 -2.58386 4.51172  4.79553 2.99561 -1.88672   -0.451556 0.130254 0.589005  0.912024 0.021616 -0.409566 -0.101424 -0.955707 -0.276292 -0.397398 0.293525 -0.869436   736.371 736.371 736.371 44.1822 44.1822 44.1822  0 0 0 0 0 0   0.737362 0.411729 -0.67298 0.00126419 -2.68346 -1.45939 -0.907849 
 2.16197 0.0250621 0.0799143   0.0921608 0.21491 -0.409958  0.192638 -0.758591 -0.622288 0.0137093   3.63281 -2.58386 4.8877  4.89441 2.89575 -1.80469   -0.451112 0.131545 0.589396  0.91142 0.020122 -0.410986 -0.104069 -0.955059 -0.277547 -0.3981 0.295733 -0.868365   756.055 756.055 756.055 45.3633 45.3633 45.3633  0 0 0 0 0 0   0.737362 0.411729 -0.67298 0.00126419 -2.68346 -1.45939 -0.907849 
 2.17201 0.0250621 0.0799143   0.0921608 0.21491 -0.409958  0.192638 -0.758591 -0.622288 0.0137093   3.349 -2.85919 4.37073  4.67194 3.32013 -1.88672   -0.450679 0.132814 0.589787  0.910776 0.0187459 -0.412474 -0.106649 -0.95439 -0.278864 -0.398889 0.297973 -0.867237   756.055 756.055 756.055 45.3633 45.3633 45.3633  0 0 0 0 0 0   0.737362 0.411729 -0.67298 0.00126419 -2.68346 -1.45939 -0.907849 
 2.18197 0.0250621 0.0799143   0.0921608 0.21491 -0.409958  0.192638 -0.758591 -0.622288 0.0137093   4.21936 -1.88495 4.65271  5.19104 2.87079 -1.88672   -0.450228 0.134095 0.590165  0.910155 0.0175495 -0.413896 -0.109064 -0.953706 -0.280269 -0.399654 0.300229 -0.866106   756.055 756.055 756.055 45.3633 45.3633 45.3633  0 0 0 0 0 0   0.737362 0.411729 -0.67298 0.00126419 -2.68346 -1.45939 -0.907849 
 2.19195 0.0250621 0.0799143   0.0921608 0.21491 -0.409958  0.192638 -0.758591 -0.622288 0.0137093   3.87878 -2.7533 4.69971  4.6225 3.02057 -1.80469   -0.449784 0.135335 0.590552  0.909581 0.0165289 -0.415198 -0.111261 -0.953036 -0.281681 -0.400354 0.302407 -0.865024   756.055 756.055 756.055 45.3633 45.3633 45.3633  0 0 0 0 0 0   0.737362 0.411729 -0.67298 0.00126419 -2.68346 -1.45939 -0.907849 
 2.20198 0.0250621 0.0799143   0.0921608 0.21491 -0.409958  0.192638 -0.758591 -0.622288 0.0137093   3.95447 -2.58386 5.07568  4.64722 3.22028 -1.72266   -0.449332 0.136584 0.590941  0.908995 0.0155471 -0.416517 -0.113451 -0.952345 -0.283139 -0.40107 0.304626 -0.863913   756.055 756.055 756.055 45.3633 45.3633 45.3633  0 0 0 0 0 0   0.737362 0.411729 -0.67298 0.00126419 -2.68346 -1.45939 -0.907849 
 2.21198 0.0250621 0.0799143   0.0921608 0.21491 -0.409958  0.192638 -0.758591 -0.622288 0.0137093   4.54102 -2.37207 5.02869  4.96857 2.7959 -1.70215   -0.448861 0.137836 0.591329  0.908469 0.0147337 -0.417693 -0.115448 -0.95165 -0.284664 -0.401692 0.30683 -0.862844   756.055 756.055 756.055 45.3633 45.3633 45.3633  0 0 0 0 0 0   0.737362 0.411729 -0.67298 0.00126419 -2.68346 -1.45939 -0.907849 
 2.22197 0.0250621 0.0799143   0.0921608 0.21491 -0.409958  0.192638 -0.758591 -0.622288 0.0137093   3.63281 -2.32971 5.07568  4.96857 3.29517 -1.72266   -0.448376 0.139098 0.591741  0.907997 0.0140653 -0.418741 -0.117279 -0.95095 -0.28625 -0.402228 0.309024 -0.86181   756.055 756.055 756.055 45.3633 45.3633 45.3633  0 0 0 0 0 0   0.737362 0.411729 -0.67298 0.00126419 -2.68346 -1.45939 -0.907849 
 2.23197 0.0250621 0.0799143   0.0921608 0.21491 -0.409958  0.192638 -0.758591 -0.622288 0.0137093   3.40576 -2.18146 5.07568  5.04272 3.69458 -1.55859   -0.447885 0.140363 0.592142  0.907501 0.013363 -0.419837 -0.119172 -0.950234 -0.287842 -0.40279 0.311249 -0.860746   756.055 756.055 756.055 45.3633 45.3633 45.3633  0 0 0 0 0 0   0.737362 0.411729 -0.67298 0.00126419 -2.68346 -1.45939 -0.907849 
 2.24198 0.0250621 0.0799143   0.0921608 0.21491 -0.409958  0.192638 -0.758591 -0.622288 0.0137093   4.08691 -2.49915 5.02869  5.09216 3.39502 -1.55859   -0.447404 0.14159 0.592532  0.907029 0.0128501 -0.420872 -0.120866 -0.949525 -0.289472 -0.403348 0.313429 -0.859694   756.055 756.055 756.055 45.3633 45.3633 45.3633  0 0 0 0 0 0   0.737362 0.411729 -0.67298 0.00126419 -2.68346 -1.45939 -0.907849 
 2.25197 0.0250621 0.0799143   0.0921608 0.21491 -0.409958  0.192638 -0.758591 -0.622288 0.0137093   3.48145 -2.43561 5.07568  4.79553 3.51984 -1.64062   -0.44691 0.142819 0.592933  0.90658 0.0121743 -0.421858 -0.122677 -0.94882 -0.291017 -0.40381 0.315582 -0.858688   756.055 756.055 756.055 45.3633 45.3633 45.3633  0 0 0 0 0 0   0.737362 0.411729 -0.67298 0.00126419 -2.68346 -1.45939 -0.907849 
 2.26197 0.0249753 0.0797415   0.0904606 0.228122 -0.410622  0.192742 -0.750426 -0.632037 0.0154952   3.42468 -2.71094 5.49866  4.67194 4.0191 -1.47656   -0.446438 0.144002 0.593323  0.906085 0.0115744 -0.422937 -0.12445 -0.948113 -0.292564 -0.404378 0.317722 -0.857631   754.263 754.263 754.263 45.2558 45.2558 45.2558  0 0 0 0 0 0   0.737362 0.411729 -0.67298 0.00126419 -2.68346 -1.45939 -0.907849 
 2.27197 0.0249753 0.0797415   0.0904606 0.228122 -0.410622  0.192742 -0.750426 -0.632037 0.0154952   4.31396 -2.49915 4.8407  4.89441 3.41998 -1.64062   -0.445956 0.1452 0.593704  0.90557 0.0109343 -0.424055 -0.126292 -0.947386 -0.294125 -0.40496 0.319906 -0.856544   754.263 754.263 754.263 45.2558 45.2558 45.2558  0 0 0 0 0 0   0.737362 0.411729 -0.67298 0.00126419 -2.68346 -1.45939 -0.907849 
 2.28197 0.0249753 0.0797415   0.0904606 0.228122 -0.410622  0.192742 -0.750426 -0.632037 0.0154952   3.48145 -2.45679 5.07568  4.86969 3.91925 -1.55859   -0.445464 0.146401 0.59409  0.905038 0.010067 -0.425212 -0.128341 -0.946658 -0.295579 -0.405506 0.322082 -0.855469   754.263 754.263 754.263 45.2558 45.2558 45.2558  0 0 0 0 0 0   0.737362 0.411729 -0.67298 0.00126419 -2.68346 -1.45939 -0.907849 
 2.29197 0.0249753 0.0797415   0.0904606 0.228122 -0.410622  0.192742 -0.750426 -0.632037 0.0154952   3.40576 -2.20264 5.31067  5.01801 4.39355 -1.55859   -0.444965 0.147616 0.59447  0.904463 0.00913705 -0.426455 -0.130501 -0.945904 -0.297044 -0.4061 0.324318 -0.854343   754.263 754.263 754.263 45.2558 45.2558 45.2558  0 0 0 0 0 0   0.737362 0.411729 -0.67298 0.00126419 -2.68346 -1.45939 -0.907849 
 2.30197 0.0249753 0.0797415   0.0904606 0.228122 -0.410622  0.192742 -0.750426 -0.632037 0.0154952   3.38684 -1.86377 5.26367  5.2652 4.49341 -1.55859   -0.444462 0.148824 0.594843  0.903886 0.00821571 -0.427694 -0.132651 -0.945147 -0.298499 -0.406686 0.326543 -0.853215   754.263 754.263 754.263 45.2558 45.2558 45.2558  0 0 0 0 0 0   0.737362 0.411729 -0.67298 0.00126419 -2.68346 -1.45939 -0.907849 
 2.31197 0.0249753 0.0797415   0.0904606 0.228122 -0.410622  0.192742 -0.750426 -0.632037 0.0154952   3.12195 -2.6474 4.93469  4.82025 4.81793 -1.47656   -0.443968 0.149987 0.595211  0.903335 0.00717372 -0.428877 -0.134848 -0.944416 -0.299825 -0.407189 0.328676 -0.852156   754.263 754.263 754.263 45.2558 45.2558 45.2558  0 0 0 0 0 0   0.737362 0.411729 -0.67298 0.00126419 -2.68346 -1.45939 -0.907849 
 2.32197 0.0249753 0.0797415   0.0904606 0.228122 -0.410622  0.192742 -0.750426 -0.632037 0.0154952   2.95166 -2.41443 5.16968  4.86969 5.11749 -1.55859   -0.443459 0.151166 0.595572  0.90277 0.0060969 -0.430081 -0.137102 -0.943665 -0.301164 -0.407688 0.330847 -0.851076   754.263 754.263 754.263 45.2558 45.2558 45.2558  0 0 0 0 0 0   0.737362 0.411729 -0.67298 0.00126419 -2.68346 -1.45939 -0.907849 
 2.33199 0.0249753 0.0797415   0.0904606 0.228122 -0.410622  0.192742 -0.750426 -0.632037 0.0154952   3.76526 -2.20264 5.26367  5.31464 4.89282 -1.55859   -0.442959 0.152285 0.595907  0.902281 0.00524466 -0.431117 -0.139045 -0.94296 -0.302478 -0.408112 0.332865 -0.850085   754.263 754.263 754.263 45.2558 45.2558 45.2558  0 0 0 0 0 0   0.737362 0.411729 -0.67298 0.00126419 -2.68346 -1.45939 -0.907849 
 2.34197 0.0249753 0.0797415   0.0904606 0.228122 -0.410622  0.192742 -0.750426 -0.632037 0.0154952   3.46252 -2.22382 5.45166  5.28992 5.19238 -1.55859   -0.442448 0.15339 0.596249  0.901888 0.00447108 -0.431946 -0.140817 -0.94228 -0.303774 -0.408373 0.334796 -0.849202   754.263 754.263 754.263 45.2558 45.2558 45.2558  0 0 0 0 0 0   0.737362 0.411729 -0.67298 0.00126419 -2.68346 -1.45939 -0.907849 
 2.35197 0.0249753 0.0797415   0.0904606 0.228122 -0.410622  0.192742 -0.750426 -0.632037 0.0154952   3.27332 -1.56726 6.20361  5.73486 5.54187 -1.3125   -0.441917 0.154507 0.596591  0.901533 0.0037231 -0.432694 -0.142551 -0.941587 -0.305111 -0.408555 0.336749 -0.848341   754.263 754.263 754.263 45.2558 45.2558 45.2558  0 0 0 0 0 0   0.737362 0.411729 -0.67298 0.00126419 -2.68346 -1.45939 -0.907849 
 2.36199 0.0245746 0.0693611   0.077688 0.231077 -0.418123  0.179411 -0.748129 -0.638333 0.0254308   3.31116 -2.07556 5.07568  5.41351 5.46698 -1.3125   -0.44138 0.155615 0.596934  0.901244 0.0032481 -0.433299 -0.143998 -0.940895 -0.306563 -0.408685 0.338683 -0.847509   646.574 646.574 646.574 38.7944 38.7944 38.7944  0 0 0 0 0 0   0.737362 0.411729 -0.67298 0.00126419 -2.68346 -1.45939 -0.907849 
 2.372 0.0245746 0.0693611   0.077688 0.231077 -0.418123  0.179411 -0.748129 -0.638333 0.0254308   3.67065 -1.96967 5.63965  5.58655 5.26727 -1.23047   -0.440829 0.156719 0.597276  0.901016 0.00277331 -0.433776 -0.145384 -0.940214 -0.307995 -0.408697 0.340572 -0.846745   646.574 646.574 646.574 38.7944 38.7944 38.7944  0 0 0 0 0 0   0.737362 0.411729 -0.67298 0.00126419 -2.68346 -1.45939 -0.907849 
 2.38198 0.0245746 0.0693611   0.077688 0.231077 -0.418123  0.179411 -0.748129 -0.638333 0.0254308   4.01123 -2.5415 5.63965  5.24048 4.99268 -1.3125   -0.440273 0.15779 0.597612  0.900888 0.00233733 -0.434045 -0.146616 -0.939571 -0.309371 -0.408539 0.342347 -0.846105   646.574 646.574 646.574 38.7944 38.7944 38.7944  0 0 0 0 0 0   0.737362 0.411729 -0.67298 0.00126419 -2.68346 -1.45939 -0.907849 
 2.39198 0.0245746 0.0693611   0.077688 0.231077 -0.418123  0.179411 -0.748129 -0.638333 0.0254308   4.06799 -2.28735 5.96863  5.31464 4.89282 -1.20996   -0.439697 0.158872 0.597946  0.900811 0.00183273 -0.434207 -0.147858 -0.938934 -0.310711 -0.408261 0.344093 -0.845531   646.574 646.574 646.574 38.7944 38.7944 38.7944  0 0 0 0 0 0   0.737362 0.411729 -0.67298 0.00126419 -2.68346 -1.45939 -0.907849 
 2.40197 0.0245746 0.0693611   0.077688 0.231077 -0.418123  0.179411 -0.748129 -0.638333 0.0254308   3.76526 -2.56268 6.3916  5.33936 5.06757 -1.29199   -0.439132 0.159913 0.598266  0.900746 0.00127513 -0.434344 -0.1491 -0.938323 -0.311961 -0.407952 0.345758 -0.845001   646.574 646.574 646.574 38.7944 38.7944 38.7944  0 0 0 0 0 0   0.737362 0.411729 -0.67298 0.00126419 -2.68346 -1.45939 -0.907849 
 2.41197 0.0245746 0.0693611   0.077688 0.231077 -0.418123  0.179411 -0.748129 -0.638333 0.0254308   3.93555 -2.6474 6.57959  5.24048 5.09253 -1.29199   -0.438561 0.160955 0.598584  0.900692 0.000645898 -0.434457 -0.150387 -0.937715 -0.313169 -0.407599 0.347405 -0.844496   646.574 646.574 646.574 38.7944 38.7944 38.7944  0 0 0 0 0 0   0.737362 0.411729 -0.67298 0.00126419 -2.68346 -1.45939 -0.907849 
 2.42197 0.0245746 0.0693611   0.077688 0.231077 -0.418123  0.179411 -0.748129 -0.638333 0.0254308   3.76526 -2.39325 6.20361  5.28992 5.29224 -1.3125   -0.437973 0.162015 0.598904  0.900606 -0.000304187 -0.434636 -0.151971 -0.9371 -0.314243 -0.407201 0.349062 -0.844004   646.574 646.574 646.574 38.7944 38.7944 38.7944  0 0 0 0 0 0   0.737362 0.411729 -0.67298 0.00126419 -2.68346 -1.45939 -0.907849 
 2.43198 0.0245746 0.0693611   0.077688 0.231077 -0.418123  0.179411 -0.748129 -0.638333 0.0254308   3.99231 -2.56268 6.76758  5.2652 5.19238 -1.12793   -0.437373 0.163092 0.599228  0.900514 -0.00135575 -0.434824 -0.153652 -0.936473 -0.315291 -0.406774 0.350736 -0.843516   646.574 646.574 646.574 38.7944 38.7944 38.7944  0 0 0 0 0 0   0.737362 0.411729 -0.67298 0.00126419 -2.68346 -1.45939 -0.907849 
