SugeethGopinathan/ManipubalityHRI/data/test/test3.dat
 TimeStamp manip.manip_measure_out_port manip.force_transmission_out_port tt.outport_grip.position.x tt.outport_grip.position.y tt.outport_grip.position.z tt.outport_grip.orientation.x tt.outport_grip.orientation.y tt.outport_grip.orientation.z tt.outport_grip.orientation.w jr3.ForceTorqueOutputPort.forces.0 jr3.ForceTorqueOutputPort.forces.1 jr3.ForceTorqueOutputPort.forces.2 jr3.ForceTorqueOutputPort.torques.0 jr3.ForceTorqueOutputPort.torques.1 jr3.ForceTorqueOutputPort.torques.2 test.cart_pose_loop_out_port.p.X test.cart_pose_loop_out_port.p.Y test.cart_pose_loop_out_port.p.Z test.cart_pose_loop_out_port.M.X_x test.cart_pose_loop_out_port.M.X_y test.cart_pose_loop_out_port.M.X_z test.cart_pose_loop_out_port.M.Y_x test.cart_pose_loop_out_port.M.Y_y test.cart_pose_loop_out_port.M.Y_z test.cart_pose_loop_out_port.M.Z_x test.cart_pose_loop_out_port.M.Z_y test.cart_pose_loop_out_port.M.Z_z stiff.cart_stiffdamp_out_port.stiffness.0 stiff.cart_stiffdamp_out_port.stiffness.1 stiff.cart_stiffdamp_out_port.stiffness.2 stiff.cart_stiffdamp_out_port.stiffness.3 stiff.cart_stiffdamp_out_port.stiffness.4 stiff.cart_stiffdamp_out_port.stiffness.5 stiff.cart_stiffdamp_out_port.damping.0 stiff.cart_stiffdamp_out_port.damping.1 stiff.cart_stiffdamp_out_port.damping.2 stiff.cart_stiffdamp_out_port.damping.3 stiff.cart_stiffdamp_out_port.damping.4 stiff.cart_stiffdamp_out_port.damping.5 lwr.current_joint_values.angles.0 lwr.current_joint_values.angles.1 lwr.current_joint_values.angles.2 lwr.current_joint_values.angles.3 lwr.current_joint_values.angles.4 lwr.current_joint_values.angles.5 lwr.current_joint_values.angles.6
 6.35e-07 0.0106693 0.00649827   -0.00992554 -0.122806 0.270287  -0.688937 -0.380907 0.424502 -0.447296   -3.19763 -1.18604 -0.140991  -0.346069 2.34656 -0.512695   -0.457091 -0.0478464 0.615529  0.757268 0.429603 -0.491921 0.415104 -0.898095 -0.145307 -0.504216 -0.0941619 -0.858429   10 10 10 0.6 0.6 0.6  0 0 0 0 0 0   0.737362 0.411729 -0.67298 0.00126419 -2.68346 -1.45939 -0.907849 
 0.0155383 0.0106693 0.00649827   -0.00992554 -0.122806 0.270287  -0.688937 -0.380907 0.424502 -0.447296   -3.19763 -1.18604 -0.140991  -0.346069 2.34656 -0.512695   -0.457091 -0.0478464 0.615529  0.757268 0.429603 -0.491921 0.415104 -0.898095 -0.145307 -0.504216 -0.0941619 -0.858429   10 10 10 0.6 0.6 0.6  0 0 0 0 0 0   0.737362 0.411729 -0.67298 0.00126419 -2.68346 -1.45939 -0.907849 
 0.0255501 0.0106693 0.00649827   -0.00992554 -0.122806 0.270287  -0.688937 -0.380907 0.424502 -0.447296   -3.19763 -1.35547 -0.328979  -0.444946 2.2467 -0.594727   -0.457091 -0.0478467 0.615528  0.757269 0.429604 -0.491919 0.415104 -0.898095 -0.145307 -0.504214 -0.094161 -0.85843   10 10 10 0.6 0.6 0.6  0 0 0 0 0 0   0.737362 0.411729 -0.67298 0.00126419 -2.68346 -1.45939 -0.907849 
 0.0355493 0.0106693 0.00649827   -0.00992554 -0.122806 0.270287  -0.688937 -0.380907 0.424502 -0.447296   -3.349 -1.37665 -0.140991  -0.420227 2.44641 -0.594727   -0.457091 -0.0478464 0.615529  0.757269 0.429603 -0.49192 0.415104 -0.898095 -0.145307 -0.504215 -0.0941618 -0.858429   10 10 10 0.6 0.6 0.6  0 0 0 0 0 0   0.737362 0.411729 -0.67298 0.00126419 -2.68346 -1.45939 -0.907849 
 0.0455381 0.0106693 0.00649827   -0.00992554 -0.122806 0.270287  -0.688937 -0.380907 0.424502 -0.447296   -3.349 -1.37665 -0.892944  -0.395508 2.54626 -0.676758   -0.457091 -0.0478464 0.615529  0.757269 0.429603 -0.49192 0.415104 -0.898095 -0.145307 -0.504215 -0.0941618 -0.858429   10 10 10 0.6 0.6 0.6  0 0 0 0 0 0   0.737362 0.411729 -0.67298 0.00126419 -2.68346 -1.45939 -0.907849 
 0.0555328 0.0106693 0.00649827   -0.00992554 -0.122806 0.270287  -0.688937 -0.380907 0.424502 -0.447296   -3.349 -1.29193 -0.516968  -0.420227 2.44641 -0.594727   -0.457091 -0.0478464 0.615529  0.757269 0.429603 -0.49192 0.415104 -0.898095 -0.145307 -0.504215 -0.0941618 -0.858429   10 10 10 0.6 0.6 0.6  0 0 0 0 0 0   0.737362 0.411729 -0.67298 0.00126419 -2.68346 -1.45939 -0.907849 
 0.0655292 0.0106693 0.00649827   -0.00992554 -0.122806 0.270287  -0.688937 -0.380907 0.424502 -0.447296   -3.19763 -1.27075 -0.328979  -0.32135 2.54626 -0.512695   -0.457091 -0.0478464 0.615529  0.757269 0.429603 -0.49192 0.415104 -0.898095 -0.145307 -0.504215 -0.0941618 -0.858429   10 10 10 0.6 0.6 0.6  0 0 0 0 0 0   0.737362 0.411729 -0.67298 0.00126419 -2.68346 -1.45939 -0.907849 
 0.0755542 0.01059 0.00894428   -0.013761 -0.12387 0.266833  -0.696202 -0.37431 0.419635 -0.446208   -3.349 -1.29193 -0.328979  -0.296631 2.62115 -0.594727   -0.457091 -0.0478469 0.615528  0.757269 0.429604 -0.491919 0.415105 -0.898094 -0.145306 -0.504214 -0.0941625 -0.85843   19.7962 19.7962 19.7962 1.18777 1.18777 1.18777  0 0 0 0 0 0   0.737362 0.411729 -0.67298 0.00126419 -2.68346 -1.45939 -0.907849 
 0.0855277 0.01059 0.00894428   -0.013761 -0.12387 0.266833  -0.696202 -0.37431 0.419635 -0.446208   -3.42468 -1.29193 -0.140991  -0.395508 2.54626 -0.594727   -0.457091 -0.0478469 0.615528  0.757269 0.429604 -0.491919 0.415105 -0.898094 -0.145306 -0.504214 -0.0941625 -0.85843   19.7962 19.7962 19.7962 1.18777 1.18777 1.18777  0 0 0 0 0 0   0.737362 0.411729 -0.67298 0.00126419 -2.68346 -1.45939 -0.907849 
 0.095532 0.01059 0.00894428   -0.013761 -0.12387 0.266833  -0.696202 -0.37431 0.419635 -0.446208   -3.42468 -1.37665 -0.469971  -0.395508 2.54626 -0.594727   -0.457091 -0.0478469 0.615528  0.757269 0.429604 -0.491918 0.415106 -0.898094 -0.145306 -0.504213 -0.0941624 -0.85843   19.7962 19.7962 19.7962 1.18777 1.18777 1.18777  0 0 0 0 0 0   0.737362 0.411729 -0.67298 0.00126419 -2.68346 -1.45939 -0.907849 
 0.105897 0.01059 0.00894428   -0.013761 -0.12387 0.266833  -0.696202 -0.37431 0.419635 -0.446208   -3.42468 -1.37665 -0.281982  -0.494385 2.64612 -0.594727   -0.457091 -0.0478469 0.615528  0.757269 0.429604 -0.491918 0.415106 -0.898094 -0.145306 -0.504213 -0.0941624 -0.85843   19.7962 19.7962 19.7962 1.18777 1.18777 1.18777  0 0 0 0 0 0   0.737362 0.411729 -0.67298 0.00126419 -2.68346 -1.45939 -0.907849 
 0.115527 0.01059 0.00894428   -0.013761 -0.12387 0.266833  -0.696202 -0.37431 0.419635 -0.446208   -3.50037 -1.37665 0.0939941  -0.469666 2.74597 -0.594727   -0.457091 -0.0478468 0.615527  0.75727 0.429604 -0.491917 0.415106 -0.898094 -0.145305 -0.504212 -0.0941623 -0.858431   19.7962 19.7962 19.7962 1.18777 1.18777 1.18777  0 0 0 0 0 0   0.737362 0.411729 -0.67298 0.00126419 -2.68346 -1.45939 -0.907849 
 0.125532 0.01059 0.00894428   -0.013761 -0.12387 0.266833  -0.696202 -0.37431 0.419635 -0.446208   -3.42468 -1.29193 -0.140991  -0.296631 2.5213 -0.512695   -0.457091 -0.0478468 0.615527  0.75727 0.429604 -0.491917 0.415106 -0.898094 -0.145305 -0.504212 -0.0941623 -0.858431   19.7962 19.7962 19.7962 1.18777 1.18777 1.18777  0 0 0 0 0 0   0.737362 0.411729 -0.67298 0.00126419 -2.68346 -1.45939 -0.907849 
 0.135514 0.01059 0.00894428   -0.013761 -0.12387 0.266833  -0.696202 -0.37431 0.419635 -0.446208   -3.36792 -1.20721 -0.140991  -0.296631 2.5213 -0.594727   -0.457091 -0.0478468 0.615527  0.75727 0.429604 -0.491917 0.415106 -0.898094 -0.145305 -0.504212 -0.0941623 -0.858431   19.7962 19.7962 19.7962 1.18777 1.18777 1.18777  0 0 0 0 0 0   0.737362 0.411729 -0.67298 0.00126419 -2.68346 -1.45939 -0.907849 
 0.145505 0.01059 0.00894428   -0.013761 -0.12387 0.266833  -0.696202 -0.37431 0.419635 -0.446208   -3.19763 -1.18604 -0.892944  -0.222473 2.42145 -0.594727   -0.457091 -0.0478471 0.615526  0.757271 0.429605 -0.491915 0.415106 -0.898094 -0.145305 -0.50421 -0.0941614 -0.858432   19.7962 19.7962 19.7962 1.18777 1.18777 1.18777  0 0 0 0 0 0   0.737362 0.411729 -0.67298 0.00126419 -2.68346 -1.45939 -0.907849 
 0.155485 0.01059 0.00894428   -0.013761 -0.12387 0.266833  -0.696202 -0.37431 0.419635 -0.446208   -3.27332 -1.29193 -0.140991  -0.296631 2.5213 -0.594727   -0.457091 -0.0478468 0.615527  0.757271 0.429604 -0.491916 0.415106 -0.898094 -0.145305 -0.504211 -0.0941622 -0.858432   19.7962 19.7962 19.7962 1.18777 1.18777 1.18777  0 0 0 0 0 0   0.737362 0.411729 -0.67298 0.00126419 -2.68346 -1.45939 -0.907849 
 0.165551 0.01059 0.00894428   -0.013761 -0.12387 0.266833  -0.696202 -0.37431 0.419635 -0.446208   -3.349 -1.37665 -0.516968  -0.32135 2.5213 -0.676758   -0.457091 -0.0478468 0.615527  0.757271 0.429604 -0.491916 0.415106 -0.898094 -0.145305 -0.504211 -0.0941622 -0.858432   19.7962 19.7962 19.7962 1.18777 1.18777 1.18777  0 0 0 0 0 0   0.737362 0.411729 -0.67298 0.00126419 -2.68346 -1.45939 -0.907849 
 0.175538 0.0105877 0.00900245   -0.0139103 -0.125284 0.26488  -0.696049 -0.375422 0.419235 -0.445889   -3.27332 -1.37665 -0.328979  -0.296631 2.64612 -0.676758   -0.457091 -0.0478471 0.615526  0.757271 0.429605 -0.491915 0.415106 -0.898094 -0.145305 -0.50421 -0.0941614 -0.858432   20.3997 20.3997 20.3997 1.22398 1.22398 1.22398  0 0 0 0 0 0   0.737362 0.411729 -0.67298 0.00126419 -2.68346 -1.45939 -0.907849 
 0.185542 0.0105877 0.00900245   -0.0139103 -0.125284 0.26488  -0.696049 -0.375422 0.419235 -0.445889   -3.27332 -1.37665 0.422974  -0.420227 2.44641 -0.594727   -0.457091 -0.047847 0.615526  0.757272 0.429605 -0.491914 0.415106 -0.898094 -0.145305 -0.504209 -0.0941613 -0.858433   20.3997 20.3997 20.3997 1.22398 1.22398 1.22398  0 0 0 0 0 0   0.737362 0.411729 -0.67298 0.00126419 -2.68346 -1.45939 -0.907849 
 0.19556 0.0105877 0.00900245   -0.0139103 -0.125284 0.26488  -0.696049 -0.375422 0.419235 -0.445889   -3.27332 -1.44019 -0.328979  -0.420227 2.34656 -0.676758   -0.457091 -0.047847 0.615526  0.757272 0.429605 -0.491914 0.415106 -0.898094 -0.145305 -0.504209 -0.0941613 -0.858433   20.3997 20.3997 20.3997 1.22398 1.22398 1.22398  0 0 0 0 0 0   0.737362 0.411729 -0.67298 0.00126419 -2.68346 -1.45939 -0.907849 
 0.20553 0.0105877 0.00900245   -0.0139103 -0.125284 0.26488  -0.696049 -0.375422 0.419235 -0.445889   -3.19763 -1.35547 0.0469971  -0.444946 2.2467 -0.676758   -0.457091 -0.047847 0.615525  0.757272 0.429605 -0.491913 0.415106 -0.898094 -0.145304 -0.504208 -0.0941613 -0.858434   20.3997 20.3997 20.3997 1.22398 1.22398 1.22398  0 0 0 0 0 0   0.737362 0.411729 -0.67298 0.00126419 -2.68346 -1.45939 -0.907849 
 0.215533 0.0105877 0.00900245   -0.0139103 -0.125284 0.26488  -0.696049 -0.375422 0.419235 -0.445889   -3.19763 -1.35547 0.0469971  -0.346069 2.2467 -0.594727   -0.457091 -0.0478473 0.615525  0.757273 0.429605 -0.491912 0.415106 -0.898094 -0.145305 -0.504207 -0.0941605 -0.858434   20.3997 20.3997 20.3997 1.22398 1.22398 1.22398  0 0 0 0 0 0   0.737362 0.411729 -0.67298 0.00126419 -2.68346 -1.45939 -0.907849 
 0.225529 0.0105877 0.00900245   -0.0139103 -0.125284 0.26488  -0.696049 -0.375422 0.419235 -0.445889   -3.19763 -1.27075 0.422974  -0.346069 2.2467 -0.594727   -0.457091 -0.0478472 0.615524  0.757274 0.429605 -0.491911 0.415106 -0.898094 -0.145304 -0.504206 -0.0941604 -0.858435   20.3997 20.3997 20.3997 1.22398 1.22398 1.22398  0 0 0 0 0 0   0.737362 0.411729 -0.67298 0.00126419 -2.68346 -1.45939 -0.907849 
 0.235544 0.0105877 0.00900245   -0.0139103 -0.125284 0.26488  -0.696049 -0.375422 0.419235 -0.445889   -3.349 -1.35547 0.234985  -0.32135 2.42145 -0.676758   -0.457091 -0.0478472 0.615524  0.757274 0.429605 -0.49191 0.415106 -0.898094 -0.145304 -0.504205 -0.0941603 -0.858435   20.3997 20.3997 20.3997 1.22398 1.22398 1.22398  0 0 0 0 0 0   0.737362 0.411729 -0.67298 0.00126419 -2.68346 -1.45939 -0.907849 
 0.24556 0.0105877 0.00900245   -0.0139103 -0.125284 0.26488  -0.696049 -0.375422 0.419235 -0.445889   -3.50037 -1.37665 0.0939941  -0.395508 2.44641 -0.594727   -0.457091 -0.0478471 0.615523  0.757275 0.429605 -0.491909 0.415107 -0.898094 -0.145303 -0.504204 -0.0941602 -0.858436   20.3997 20.3997 20.3997 1.22398 1.22398 1.22398  0 0 0 0 0 0   0.737362 0.411729 -0.67298 0.00126419 -2.68346 -1.45939 -0.907849 
 0.255539 0.0105877 0.00900245   -0.0139103 -0.125284 0.26488  -0.696049 -0.375422 0.419235 -0.445889   -3.57605 -1.46136 0.0939941  -0.494385 2.64612 -0.512695   -0.457091 -0.0478474 0.615522  0.757276 0.429605 -0.491907 0.415107 -0.898094 -0.145303 -0.504202 -0.0941593 -0.858437   20.3997 20.3997 20.3997 1.22398 1.22398 1.22398  0 0 0 0 0 0   0.737362 0.411729 -0.67298 0.00126419 -2.68346 -1.45939 -0.907849 
 0.265528 0.0105877 0.00900245   -0.0139103 -0.125284 0.26488  -0.696049 -0.375422 0.419235 -0.445889   -3.57605 -1.37665 0.281982  -0.395508 2.64612 -0.676758   -0.457091 -0.0478473 0.615521  0.757277 0.429605 -0.491906 0.415107 -0.898094 -0.145303 -0.504201 -0.0941593 -0.858438   20.3997 20.3997 20.3997 1.22398 1.22398 1.22398  0 0 0 0 0 0   0.737362 0.411729 -0.67298 0.00126419 -2.68346 -1.45939 -0.907849 
 0.275531 0.011065 0.0591878   0.128036 0.000326826 -0.263812  -0.609825 0.0459887 -0.768821 0.186848   -3.50037 -1.54608 -0.140991  -0.395508 2.54626 -0.594727   -0.45709 -0.0478477 0.61552  0.757278 0.429606 -0.491903 0.415108 -0.898094 -0.145301 -0.504197 -0.0941596 -0.85844   541.034 541.034 541.034 32.462 32.462 32.462  0 0 0 0 0 0   0.737362 0.411729 -0.67298 0.00126419 -2.68346 -1.45939 -0.907849 
 0.285553 0.011065 0.0591878   0.128036 0.000326826 -0.263812  -0.609825 0.0459887 -0.768821 0.186848   -3.349 -1.37665 -0.140991  -0.420227 2.44641 -0.594727   -0.45709 -0.0478476 0.615518  0.75728 0.429606 -0.4919 0.415109 -0.898094 -0.1453 -0.504194 -0.0941594 -0.858442   541.034 541.034 541.034 32.462 32.462 32.462  0 0 0 0 0 0   0.737362 0.411729 -0.67298 0.00126419 -2.68346 -1.45939 -0.907849 
 0.295531 0.011065 0.0591878   0.128036 0.000326826 -0.263812  -0.609825 0.0459887 -0.768821 0.186848   -3.19763 -1.5249 0.0469971  -0.543823 2.2467 -0.512695   -0.45709 -0.0478475 0.615517  0.757282 0.429606 -0.491897 0.415109 -0.898094 -0.145298 -0.504191 -0.0941591 -0.858444   541.034 541.034 541.034 32.462 32.462 32.462  0 0 0 0 0 0   0.737362 0.411729 -0.67298 0.00126419 -2.68346 -1.45939 -0.907849 
 0.305536 0.011065 0.0591878   0.128036 0.000326826 -0.263812  -0.609825 0.0459887 -0.768821 0.186848   -3.17871 -1.69434 0.234985  -0.444946 2.2467 -0.594727   -0.457089 -0.0478474 0.615515  0.757283 0.429606 -0.491895 0.415109 -0.898094 -0.145297 -0.504189 -0.0941591 -0.858445   541.034 541.034 541.034 32.462 32.462 32.462  0 0 0 0 0 0   0.737362 0.411729 -0.67298 0.00126419 -2.68346 -1.45939 -0.907849 
 0.315554 0.011065 0.0591878   0.128036 0.000326826 -0.263812  -0.609825 0.0459887 -0.768821 0.186848   -3.25439 -1.60962 0.234985  -0.543823 2.2467 -0.676758   -0.457089 -0.047847 0.615514  0.757286 0.429605 -0.491892 0.415108 -0.898095 -0.145297 -0.504186 -0.0941574 -0.858447   541.034 541.034 541.034 32.462 32.462 32.462  0 0 0 0 0 0   0.737362 0.411729 -0.67298 0.00126419 -2.68346 -1.45939 -0.907849 
 0.325532 0.011065 0.0591878   0.128036 0.000326826 -0.263812  -0.609825 0.0459887 -0.768821 0.186848   -3.33008 -1.71552 0.469971  -0.741577 2.27167 -0.594727   -0.457089 -0.0478476 0.615513  0.757286 0.429606 -0.491891 0.41511 -0.898094 -0.145296 -0.504185 -0.0941581 -0.858447   541.034 541.034 541.034 32.462 32.462 32.462  0 0 0 0 0 0   0.737362 0.411729 -0.67298 0.00126419 -2.68346 -1.45939 -0.907849 
 0.335544 0.011065 0.0591878   0.128036 0.000326826 -0.263812  -0.609825 0.0459887 -0.768821 0.186848   -3.40576 -1.77905 0.845947  -0.568542 2.14685 -0.594727   -0.457089 -0.047847 0.615513  0.757287 0.429605 -0.49189 0.415109 -0.898095 -0.145296 -0.504184 -0.0941572 -0.858448   541.034 541.034 541.034 32.462 32.462 32.462  0 0 0 0 0 0   0.737362 0.411729 -0.67298 0.00126419 -2.68346 -1.45939 -0.907849 
 0.345535 0.011065 0.0591878   0.128036 0.000326826 -0.263812  -0.609825 0.0459887 -0.768821 0.186848   -3.349 -1.6308 0.986938  -0.444946 2.2467 -0.512695   -0.457089 -0.0478472 0.615512  0.757288 0.429605 -0.491888 0.415109 -0.898095 -0.145296 -0.504182 -0.0941564 -0.858449   541.034 541.034 541.034 32.462 32.462 32.462  0 0 0 0 0 0   0.737362 0.411729 -0.67298 0.00126419 -2.68346 -1.45939 -0.907849 
 0.35553 0.011065 0.0591878   0.128036 0.000326826 -0.263812  -0.609825 0.0459887 -0.768821 0.186848   -3.27332 -1.5249 0.79895  -0.370789 2.02203 -0.594727   -0.457089 -0.0478479 0.615509  0.757291 0.429606 -0.491883 0.41511 -0.898094 -0.145294 -0.504177 -0.094156 -0.858452   541.034 541.034 541.034 32.462 32.462 32.462  0 0 0 0 0 0   0.737362 0.411729 -0.67298 0.00126419 -2.68346 -1.45939 -0.907849 
 0.365532 0.011065 0.0591878   0.128036 0.000326826 -0.263812  -0.609825 0.0459887 -0.768821 0.186848   -3.12195 -1.5249 0.986938  -0.395508 2.02203 -0.512695   -0.45709 -0.047849 0.615503  0.757298 0.429608 -0.491871 0.415112 -0.898094 -0.145293 -0.504165 -0.0941515 -0.85846   541.034 541.034 541.034 32.462 32.462 32.462  0 0 0 0 0 0   0.737362 0.411729 -0.67298 0.00126419 -2.68346 -1.45939 -0.907849 
 0.375498 0.0105181 0.00641341   -0.00985763 -0.123064 0.26766  -0.685928 -0.380747 0.425008 -0.451555   -3.04626 -1.33429 1.36292  -0.32135 1.82233 -0.594727   -0.45709 -0.04785 0.615496  0.757306 0.42961 -0.491857 0.415113 -0.898093 -0.145291 -0.504152 -0.0941467 -0.858468   10 10 10 0.6 0.6 0.6  0 0 0 0 0 0   0.737362 0.411729 -0.67298 0.00126419 -2.68346 -1.45939 -0.907849 
 0.385531 0.0105181 0.00641341   -0.00985763 -0.123064 0.26766  -0.685928 -0.380747 0.425008 -0.451555   -2.97058 -1.50372 1.17493  -0.444946 1.74744 -0.676758   -0.457091 -0.0478522 0.615487  0.757316 0.429614 -0.491838 0.415115 -0.898092 -0.145291 -0.504135 -0.0941389 -0.858479   10 10 10 0.6 0.6 0.6  0 0 0 0 0 0   0.737362 0.411729 -0.67298 0.00126419 -2.68346 -1.45939 -0.907849 
 0.395529 0.0105181 0.00641341   -0.00985763 -0.123064 0.26766  -0.685928 -0.380747 0.425008 -0.451555   -2.95166 -1.67316 1.73889  -0.543823 1.74744 -0.676758   -0.457094 -0.0478555 0.615477  0.757326 0.429619 -0.491818 0.415118 -0.898091 -0.145293 -0.504118 -0.094128 -0.85849   10 10 10 0.6 0.6 0.6  0 0 0 0 0 0   0.737362 0.411729 -0.67298 0.00126419 -2.68346 -1.45939 -0.907849 
 0.405533 0.0105181 0.00641341   -0.00985763 -0.123064 0.26766  -0.685928 -0.380747 0.425008 -0.451555   -2.87598 -1.92731 1.5509  -0.741577 1.67255 -0.84082   -0.457098 -0.0478602 0.615468  0.757335 0.429627 -0.491798 0.41512 -0.898089 -0.1453 -0.504103 -0.0941142 -0.8585   10 10 10 0.6 0.6 0.6  0 0 0 0 0 0   0.737362 0.411729 -0.67298 0.00126419 -2.68346 -1.45939 -0.907849 
 0.415529 0.0105181 0.00641341   -0.00985763 -0.123064 0.26766  -0.685928 -0.380747 0.425008 -0.451555   -2.72461 -1.73669 1.73889  -0.593262 1.34802 -0.902344   -0.457105 -0.0478666 0.615456  0.757347 0.429637 -0.491769 0.415122 -0.898086 -0.145311 -0.504082 -0.0940935 -0.858515   10 10 10 0.6 0.6 0.6  0 0 0 0 0 0   0.737362 0.411729 -0.67298 0.00126419 -2.68346 -1.45939 -0.907849 
 0.42553 0.0105181 0.00641341   -0.00985763 -0.123064 0.26766  -0.685928 -0.380747 0.425008 -0.451555   -2.66785 -1.73669 1.50391  -0.519104 1.24817 -0.902344   -0.457114 -0.0478749 0.615442  0.757362 0.429652 -0.491734 0.415125 -0.898082 -0.145328 -0.504058 -0.0940653 -0.858532   10 10 10 0.6 0.6 0.6  0 0 0 0 0 0   0.737362 0.411729 -0.67298 0.00126419 -2.68346 -1.45939 -0.907849 
 0.43553 0.0105181 0.00641341   -0.00985763 -0.123064 0.26766  -0.685928 -0.380747 0.425008 -0.451555   -2.4408 -1.54608 1.50391  -0.346069 1.0235 -0.984375   -0.457123 -0.047885 0.615425  0.757377 0.429668 -0.491696 0.415129 -0.898077 -0.145345 -0.504031 -0.0940366 -0.858551   10 10 10 0.6 0.6 0.6  0 0 0 0 0 0   0.737362 0.411729 -0.67298 0.00126419 -2.68346 -1.45939 -0.907849 
 0.445528 0.0105181 0.00641341   -0.00985763 -0.123064 0.26766  -0.685928 -0.380747 0.425008 -0.451555   -2.36511 -1.6308 1.12793  -0.271912 0.923645 -0.984375   -0.457134 -0.047896 0.615407  0.757396 0.429686 -0.491652 0.415134 -0.898072 -0.145364 -0.504 -0.0940034 -0.858573   10 10 10 0.6 0.6 0.6  0 0 0 0 0 0   0.737362 0.411729 -0.67298 0.00126419 -2.68346 -1.45939 -0.907849 
 0.455554 0.0105181 0.00641341   -0.00985763 -0.123064 0.26766  -0.685928 -0.380747 0.425008 -0.451555   -2.36511 -1.5249 2.06787  -0.395508 0.823792 -1.06641   -0.457147 -0.0479093 0.615386  0.757415 0.429707 -0.491604 0.415139 -0.898066 -0.145387 -0.503966 -0.093966 -0.858597   10 10 10 0.6 0.6 0.6  0 0 0 0 0 0   0.737362 0.411729 -0.67298 0.00126419 -2.68346 -1.45939 -0.907849 
 0.465528 0.0105181 0.00641341   -0.00985763 -0.123064 0.26766  -0.685928 -0.380747 0.425008 -0.451555   -2.4408 -1.54608 2.06787  -0.271912 1.0235 -1.06641   -0.457163 -0.0479262 0.615359  0.757441 0.429734 -0.49154 0.415147 -0.898058 -0.145414 -0.503921 -0.0939184 -0.858629   10 10 10 0.6 0.6 0.6  0 0 0 0 0 0   0.737362 0.411729 -0.67298 0.00126419 -2.68346 -1.45939 -0.907849 
 0.475529 0.0112308 0.0110664   -0.0167395 -0.125739 0.273313  -0.690972 -0.373696 0.420669 -0.453812   -2.74353 -1.6308 2.49084  -0.444946 1.12335 -1.14844   -0.457181 -0.0479451 0.615328  0.757471 0.429765 -0.491467 0.415156 -0.898049 -0.145445 -0.503869 -0.093865 -0.858665   41.8116 41.8116 41.8116 2.5087 2.5087 2.5087  0 0 0 0 0 0   0.737362 0.411729 -0.67298 0.00126419 -2.68346 -1.45939 -0.907849 
 0.485526 0.0112308 0.0110664   -0.0167395 -0.125739 0.273313  -0.690972 -0.373696 0.420669 -0.453812   -2.97058 -1.56726 2.30286  -0.296631 1.62262 -1.14844   -0.457202 -0.0479669 0.615291  0.757508 0.4298 -0.491379 0.415166 -0.898038 -0.145479 -0.503804 -0.0938027 -0.85871   41.8116 41.8116 41.8116 2.5087 2.5087 2.5087  0 0 0 0 0 0   0.737362 0.411729 -0.67298 0.00126419 -2.68346 -1.45939 -0.907849 
 0.495507 0.0112308 0.0110664   -0.0167395 -0.125739 0.273313  -0.690972 -0.373696 0.420669 -0.453812   -3.06519 -1.48254 2.11487  -0.271912 1.62262 -1.14844   -0.457224 -0.0479915 0.615248  0.757549 0.42984 -0.491281 0.415179 -0.898027 -0.145515 -0.503731 -0.0937344 -0.85876   41.8116 41.8116 41.8116 2.5087 2.5087 2.5087  0 0 0 0 0 0   0.737362 0.411729 -0.67298 0.00126419 -2.68346 -1.45939 -0.907849 
 0.505543 0.0112308 0.0110664   -0.0167395 -0.125739 0.273313  -0.690972 -0.373696 0.420669 -0.453812   -3.06519 -1.31311 2.49084  -0.173035 1.62262 -1.06641   -0.457251 -0.0480218 0.615195  0.757602 0.429889 -0.491157 0.415196 -0.898012 -0.145558 -0.503639 -0.0936513 -0.858823   41.8116 41.8116 41.8116 2.5087 2.5087 2.5087  0 0 0 0 0 0   0.737362 0.411729 -0.67298 0.00126419 -2.68346 -1.45939 -0.907849 
 0.515534 0.0112308 0.0110664   -0.0167395 -0.125739 0.273313  -0.690972 -0.373696 0.420669 -0.453812   -2.91382 -1.31311 2.30286  -0.197754 1.42291 -1.23047   -0.457282 -0.0480575 0.61513  0.757666 0.429947 -0.491008 0.415216 -0.897994 -0.145608 -0.503526 -0.0935522 -0.8589   41.8116 41.8116 41.8116 2.5087 2.5087 2.5087  0 0 0 0 0 0   0.737362 0.411729 -0.67298 0.00126419 -2.68346 -1.45939 -0.907849 
 0.525531 0.0112308 0.0110664   -0.0167395 -0.125739 0.273313  -0.690972 -0.373696 0.420669 -0.453812   -2.61108 -1.37665 2.81982  -0.123596 1.2981 -1.23047   -0.457319 -0.0480957 0.615062  0.757734 0.430008 -0.490849 0.415234 -0.897976 -0.145667 -0.503409 -0.0934401 -0.858981   41.8116 41.8116 41.8116 2.5087 2.5087 2.5087  0 0 0 0 0 0   0.737362 0.411729 -0.67298 0.00126419 -2.68346 -1.45939 -0.907849 
 0.535528 0.0112308 0.0110664   -0.0167395 -0.125739 0.273313  -0.690972 -0.373696 0.420669 -0.453812   -2.5354 -1.37665 2.44385  -0.123596 1.19824 -1.3125   -0.45736 -0.0481392 0.61499  0.757805 0.430078 -0.490678 0.415255 -0.897956 -0.145736 -0.503285 -0.0933164 -0.859067   41.8116 41.8116 41.8116 2.5087 2.5087 2.5087  0 0 0 0 0 0   0.737362 0.411729 -0.67298 0.00126419 -2.68346 -1.45939 -0.907849 
 0.545528 0.0112308 0.0110664   -0.0167395 -0.125739 0.273313  -0.690972 -0.373696 0.420669 -0.453812   -2.38403 -1.44019 2.25586  -0.148315 1.12335 -1.39453   -0.457404 -0.0481862 0.614914  0.757877 0.430154 -0.4905 0.415276 -0.897933 -0.145814 -0.503159 -0.0931835 -0.859156   41.8116 41.8116 41.8116 2.5087 2.5087 2.5087  0 0 0 0 0 0   0.737362 0.411729 -0.67298 0.00126419 -2.68346 -1.45939 -0.907849 
 0.55553 0.0112308 0.0110664   -0.0167395 -0.125739 0.273313  -0.690972 -0.373696 0.420669 -0.453812   -2.23267 -1.5249 2.63184  -0.173035 0.923645 -1.3125   -0.457456 -0.0482395 0.614829  0.757959 0.430241 -0.490296 0.4153 -0.897907 -0.145903 -0.503014 -0.0930311 -0.859257   41.8116 41.8116 41.8116 2.5087 2.5087 2.5087  0 0 0 0 0 0   0.737362 0.411729 -0.67298 0.00126419 -2.68346 -1.45939 -0.907849 
 0.56553 0.0112308 0.0110664   -0.0167395 -0.125739 0.273313  -0.690972 -0.373696 0.420669 -0.453812   -2.00562 -1.58844 2.39685  0.0741577 0.798828 -1.3125   -0.457508 -0.0482943 0.614742  0.758042 0.430329 -0.490091 0.415325 -0.897881 -0.145995 -0.50287 -0.0928768 -0.859358   41.8116 41.8116 41.8116 2.5087 2.5087 2.5087  0 0 0 0 0 0   0.737362 0.411729 -0.67298 0.00126419 -2.68346 -1.45939 -0.907849 
 0.575533 0.0126932 0.0118729   -0.0176066 -0.136995 0.279882  -0.701099 -0.362205 0.442568 -0.425912   -1.79749 -1.22839 2.58484  0.173035 0.574158 -1.39453   -0.457559 -0.0483474 0.614658  0.758123 0.430413 -0.489893 0.415349 -0.897856 -0.146081 -0.502728 -0.0927292 -0.859456   50.1786 50.1786 50.1786 3.01071 3.01071 3.01071  0 0 0 0 0 0   0.737362 0.411729 -0.67298 0.00126419 -2.68346 -1.45939 -0.907849 
 0.585532 0.0126932 0.0118729   -0.0176066 -0.136995 0.279882  -0.701099 -0.362205 0.442568 -0.425912   -1.74072 -0.974243 2.53784  0.469666 0.549194 -1.23047   -0.457617 -0.0484104 0.614561  0.758212 0.430514 -0.489665 0.415379 -0.897826 -0.146183 -0.502568 -0.0925586 -0.859569   50.1786 50.1786 50.1786 3.01071 3.01071 3.01071  0 0 0 0 0 0   0.737362 0.411729 -0.67298 0.00126419 -2.68346 -1.45939 -0.907849 
 0.595536 0.0126932 0.0118729   -0.0176066 -0.136995 0.279882  -0.701099 -0.362205 0.442568 -0.425912   -1.66504 -0.889526 2.16187  0.568542 0.449341 -1.23047   -0.457676 -0.0484789 0.614464  0.758297 0.430624 -0.489437 0.41542 -0.89779 -0.146287 -0.502406 -0.0923929 -0.859681   50.1786 50.1786 50.1786 3.01071 3.01071 3.01071  0 0 0 0 0 0   0.737362 0.411729 -0.67298 0.00126419 -2.68346 -1.45939 -0.907849 
 0.605545 0.0126932 0.0118729   -0.0176066 -0.136995 0.279882  -0.701099 -0.362205 0.442568 -0.425912   -1.68396 -0.720093 2.72583  0.692139 0.649048 -1.20996   -0.457738 -0.0485518 0.614361  0.758387 0.430741 -0.489195 0.415463 -0.897752 -0.146397 -0.502235 -0.0922165 -0.8598   50.1786 50.1786 50.1786 3.01071 3.01071 3.01071  0 0 0 0 0 0   0.737362 0.411729 -0.67298 0.00126419 -2.68346 -1.45939 -0.907849 
 0.615531 0.0126932 0.0118729   -0.0176066 -0.136995 0.279882  -0.701099 -0.362205 0.442568 -0.425912   -1.66504 -0.889526 2.72583  0.568542 0.549194 -1.29199   -0.457802 -0.0486328 0.614253  0.758473 0.430873 -0.488945 0.415518 -0.897707 -0.146515 -0.502059 -0.0920379 -0.859922   50.1786 50.1786 50.1786 3.01071 3.01071 3.01071  0 0 0 0 0 0   0.737362 0.411729 -0.67298 0.00126419 -2.68346 -1.45939 -0.907849 
 0.625538 0.0126932 0.0118729   -0.0176066 -0.136995 0.279882  -0.701099 -0.362205 0.442568 -0.425912   -1.45691 -0.868347 2.53784  0.6427 0.449341 -1.37402   -0.457867 -0.048715 0.614145  0.758555 0.431008 -0.488699 0.415577 -0.89766 -0.146637 -0.501887 -0.0918601 -0.860041   50.1786 50.1786 50.1786 3.01071 3.01071 3.01071  0 0 0 0 0 0   0.737362 0.411729 -0.67298 0.00126419 -2.68346 -1.45939 -0.907849 
 0.63553 0.0126932 0.0118729   -0.0176066 -0.136995 0.279882  -0.701099 -0.362205 0.442568 -0.425912   -1.45691 -0.868347 2.53784  0.6427 0.349487 -1.37402   -0.457937 -0.0488083 0.614029  0.758631 0.431166 -0.488441 0.41565 -0.897604 -0.146776 -0.501711 -0.0916712 -0.860164   50.1786 50.1786 50.1786 3.01071 3.01071 3.01071  0 0 0 0 0 0   0.737362 0.411729 -0.67298 0.00126419 -2.68346 -1.45939 -0.907849 
 0.645527 0.0126932 0.0118729   -0.0176066 -0.136995 0.279882  -0.701099 -0.362205 0.442568 -0.425912   -1.22986 -0.868347 2.49084  0.617981 0.14978 -1.37402   -0.458006 -0.0489086 0.613916  0.758689 0.431343 -0.488194 0.415744 -0.897536 -0.146921 -0.501545 -0.0914965 -0.860279   50.1786 50.1786 50.1786 3.01071 3.01071 3.01071  0 0 0 0 0 0   0.737362 0.411729 -0.67298 0.00126419 -2.68346 -1.45939 -0.907849 
 0.655531 0.0126932 0.0118729   -0.0176066 -0.136995 0.279882  -0.701099 -0.362205 0.442568 -0.425912   -1.07849 -0.762451 2.49084  0.791016 0.0249634 -1.45605   -0.45808 -0.0490197 0.613799  0.75873 0.431558 -0.487941 0.415867 -0.897452 -0.147091 -0.501382 -0.0913166 -0.860394   50.1786 50.1786 50.1786 3.01071 3.01071 3.01071  0 0 0 0 0 0   0.737362 0.411729 -0.67298 0.00126419 -2.68346 -1.45939 -0.907849 
 0.665527 0.0126932 0.0118729   -0.0176066 -0.136995 0.279882  -0.701099 -0.362205 0.442568 -0.425912   -0.927124 -0.593018 3.05481  0.889893 0.0249634 -1.37402   -0.458151 -0.0491353 0.613687  0.758741 0.431818 -0.487695 0.416032 -0.897344 -0.147281 -0.501229 -0.0911482 -0.860501   50.1786 50.1786 50.1786 3.01071 3.01071 3.01071  0 0 0 0 0 0   0.737362 0.411729 -0.67298 0.00126419 -2.68346 -1.45939 -0.907849 
 0.67553 0.0140808 0.0226651   -0.0324135 -0.137503 0.293684  -0.699393 -0.360786 0.404957 -0.465503   -0.870361 -0.423584 2.67883  0.98877 0.0249634 -1.37402   -0.458231 -0.0492588 0.613567  0.758729 0.432144 -0.487423 0.416246 -0.897205 -0.147519 -0.501068 -0.0909607 -0.860614   162.139 162.139 162.139 9.72835 9.72835 9.72835  0 0 0 0 0 0   0.737362 0.411729 -0.67298 0.00126419 -2.68346 -1.45939 -0.907849 
 0.68554 0.0140808 0.0226651   -0.0324135 -0.137503 0.293684  -0.699393 -0.360786 0.404957 -0.465503   -0.870361 -0.593018 2.86682  0.96405 -0.0748901 -1.53809   -0.45831 -0.049387 0.613454  0.758679 0.432547 -0.487144 0.416525 -0.89703 -0.147798 -0.500913 -0.0907766 -0.860724   162.139 162.139 162.139 9.72835 9.72835 9.72835  0 0 0 0 0 0   0.737362 0.411729 -0.67298 0.00126419 -2.68346 -1.45939 -0.907849 
 0.695527 0.0140808 0.0226651   -0.0324135 -0.137503 0.293684  -0.699393 -0.360786 0.404957 -0.465503   -1.00281 -0.677734 2.67883  0.791016 0.0249634 -1.53809   -0.458393 -0.0495192 0.613341  0.758589 0.433042 -0.486845 0.416879 -0.89681 -0.14813 -0.500754 -0.0905859 -0.860837   162.139 162.139 162.139 9.72835 9.72835 9.72835  0 0 0 0 0 0   0.737362 0.411729 -0.67298 0.00126419 -2.68346 -1.45939 -0.907849 
 0.705528 0.0140808 0.0226651   -0.0324135 -0.137503 0.293684  -0.699393 -0.360786 0.404957 -0.465503   -1.09741 -0.593018 3.05481  0.889893 0.124817 -1.53809   -0.458477 -0.0496602 0.61323  0.758442 0.433665 -0.486519 0.417346 -0.896528 -0.148525 -0.500588 -0.0903995 -0.860953   162.139 162.139 162.139 9.72835 9.72835 9.72835  0 0 0 0 0 0   0.737362 0.411729 -0.67298 0.00126419 -2.68346 -1.45939 -0.907849 
 0.715525 0.0140808 0.0226651   -0.0324135 -0.137503 0.293684  -0.699393 -0.360786 0.404957 -0.465503   -0.946045 -0.423584 3.43079  1.08765 0 -1.45605   -0.458565 -0.049816 0.61311  0.758254 0.434406 -0.48615 0.417914 -0.896189 -0.148975 -0.500398 -0.0902084 -0.861083   162.139 162.139 162.139 9.72835 9.72835 9.72835  0 0 0 0 0 0   0.737362 0.411729 -0.67298 0.00126419 -2.68346 -1.45939 -0.907849 
 0.72553 0.0140808 0.0226651   -0.0324135 -0.137503 0.293684  -0.699393 -0.360786 0.404957 -0.465503   -0.794678 -0.317688 2.81982  1.06293 -0.0998535 -1.53809   -0.458655 -0.0499805 0.612985  0.758039 0.435217 -0.48576 0.418546 -0.895814 -0.149455 -0.500196 -0.0900198 -0.86122   162.139 162.139 162.139 9.72835 9.72835 9.72835  0 0 0 0 0 0   0.737362 0.411729 -0.67298 0.00126419 -2.68346 -1.45939 -0.907849 
 0.735546 0.0140808 0.0226651   -0.0324135 -0.137503 0.293684  -0.699393 -0.360786 0.404957 -0.465503   -0.889282 -0.232971 2.86682  1.1618 0 -1.62012   -0.45875 -0.0501535 0.612856  0.757834 0.436029 -0.485353 0.419174 -0.895439 -0.149939 -0.499982 -0.0898182 -0.861366   162.139 162.139 162.139 9.72835 9.72835 9.72835  0 0 0 0 0 0   0.737362 0.411729 -0.67298 0.00126419 -2.68346 -1.45939 -0.907849 
 0.745567 0.0140808 0.0226651   -0.0324135 -0.137503 0.293684  -0.699393 -0.360786 0.404957 -0.465503   -0.964966 -0.169434 3.05481  1.21124 0.199707 -1.53809   -0.458844 -0.0503313 0.612732  0.757626 0.436832 -0.484954 0.419799 -0.895067 -0.150412 -0.499771 -0.0896274 -0.861508   162.139 162.139 162.139 9.72835 9.72835 9.72835  0 0 0 0 0 0   0.737362 0.411729 -0.67298 0.00126419 -2.68346 -1.45939 -0.907849 
 0.755528 0.0140808 0.0226651   -0.0324135 -0.137503 0.293684  -0.699393 -0.360786 0.404957 -0.465503   -1.11633 0.0847168 2.86682  1.23596 0.299561 -1.62012   -0.458938 -0.0505267 0.612609  0.757397 0.437668 -0.484558 0.420463 -0.894675 -0.150888 -0.499561 -0.0894565 -0.861648   162.139 162.139 162.139 9.72835 9.72835 9.72835  0 0 0 0 0 0   0.737362 0.411729 -0.67298 0.00126419 -2.68346 -1.45939 -0.907849 
 0.765527 0.0140808 0.0226651   -0.0324135 -0.137503 0.293684  -0.699393 -0.360786 0.404957 -0.465503   -1.04065 0 3.05481  1.35956 0.499268 -1.70215   -0.459035 -0.0507441 0.612479  0.757137 0.438581 -0.484139 0.421199 -0.894244 -0.151389 -0.499335 -0.0892962 -0.861795   162.139 162.139 162.139 9.72835 9.72835 9.72835  0 0 0 0 0 0   0.737362 0.411729 -0.67298 0.00126419 -2.68346 -1.45939 -0.907849 
 0.775533 0.0162436 0.0326441   -0.0456153 -0.152999 0.299125  -0.168488 -0.333669 0.380762 0.845752   -1.11633 0 3.05481  1.23596 0.399414 -1.70215   -0.459135 -0.0509676 0.612347  0.756808 0.43965 -0.483684 0.422063 -0.893736 -0.151981 -0.499104 -0.0891248 -0.861946   265.664 265.664 265.664 15.9398 15.9398 15.9398  0 0 0 0 0 0   0.737362 0.411729 -0.67298 0.00126419 -2.68346 -1.45939 -0.907849 
 0.785532 0.0162436 0.0326441   -0.0456153 -0.152999 0.299125  -0.168488 -0.333669 0.380762 0.845752   -1.11633 -0.0847168 2.67883  1.23596 0.399414 -1.70215   -0.459236 -0.0512009 0.612218  0.756454 0.440758 -0.483229 0.422959 -0.893208 -0.152597 -0.498882 -0.088954 -0.862093   265.664 265.664 265.664 15.9398 15.9398 15.9398  0 0 0 0 0 0   0.737362 0.411729 -0.67298 0.00126419 -2.68346 -1.45939 -0.907849 
 0.795556 0.0162436 0.0326441   -0.0456153 -0.152999 0.299125  -0.168488 -0.333669 0.380762 0.845752   -1.05957 0.0847168 3.43079  1.33484 0.399414 -1.62012   -0.459339 -0.051451 0.612088  0.756115 0.441836 -0.482775 0.423831 -0.892692 -0.153195 -0.498656 -0.0887819 -0.862241   265.664 265.664 265.664 15.9398 15.9398 15.9398  0 0 0 0 0 0   0.737362 0.411729 -0.67298 0.00126419 -2.68346 -1.45939 -0.907849 
 0.805543 0.0162436 0.0326441   -0.0456153 -0.152999 0.299125  -0.168488 -0.333669 0.380762 0.845752   -0.927124 0.27533 2.81982  1.63147 0.249634 -1.53809   -0.459445 -0.0517339 0.611958  0.755779 0.442895 -0.48233 0.424698 -0.892182 -0.153764 -0.498427 -0.0886328 -0.862389   265.664 265.664 265.664 15.9398 15.9398 15.9398  0 0 0 0 0 0   0.737362 0.411729 -0.67298 0.00126419 -2.68346 -1.45939 -0.907849 
 0.815545 0.0162436 0.0326441   -0.0456153 -0.152999 0.299125  -0.168488 -0.333669 0.380762 0.845752   -0.85144 0.52948 3.33679  1.97754 0.0249634 -1.43555   -0.459557 -0.0520392 0.611823  0.755464 0.443909 -0.481892 0.425534 -0.891691 -0.154295 -0.498192 -0.088497 -0.862539   265.664 265.664 265.664 15.9398 15.9398 15.9398  0 0 0 0 0 0   0.737362 0.411729 -0.67298 0.00126419 -2.68346 -1.45939 -0.907849 
 0.825526 0.0162436 0.0326441   -0.0456153 -0.152999 0.299125  -0.168488 -0.333669 0.380762 0.845752   -0.775757 0.614197 2.96082  1.97754 -0.0748901 -1.37402   -0.45967 -0.0523502 0.611698  0.755118 0.444946 -0.481477 0.426394 -0.891186 -0.15484 -0.497981 -0.0883765 -0.862673   265.664 265.664 265.664 15.9398 15.9398 15.9398  0 0 0 0 0 0   0.737362 0.411729 -0.67298 0.00126419 -2.68346 -1.45939 -0.907849 
 0.83553 0.0162436 0.0326441   -0.0456153 -0.152999 0.299125  -0.168488 -0.333669 0.380762 0.845752   -0.718994 0.698914 3.52478  1.97754 -0.0748901 -1.27148   -0.459786 -0.0526731 0.611586  0.754732 0.446021 -0.481086 0.427286 -0.890659 -0.155412 -0.497801 -0.0882666 -0.862788   265.664 265.664 265.664 15.9398 15.9398 15.9398  0 0 0 0 0 0   0.737362 0.411729 -0.67298 0.00126419 -2.68346 -1.45939 -0.907849 
 0.845565 0.0162436 0.0326441   -0.0456153 -0.152999 0.299125  -0.168488 -0.333669 0.380762 0.845752   -0.567627 0.868347 2.96082  2.17529 -0.0998535 -1.27148   -0.459911 -0.0530225 0.61148  0.754364 0.447034 -0.480723 0.428121 -0.890162 -0.15596 -0.497641 -0.0881575 -0.862891   265.664 265.664 265.664 15.9398 15.9398 15.9398  0 0 0 0 0 0   0.737362 0.411729 -0.67298 0.00126419 -2.68346 -1.45939 -0.907849 
 0.855529 0.0162436 0.0326441   -0.0456153 -0.152999 0.299125  -0.168488 -0.333669 0.380762 0.845752   -0.643311 0.698914 3.1488  2.07642 -0.0748901 -1.27148   -0.460047 -0.0534096 0.611379  0.75403 0.447954 -0.480391 0.428876 -0.88971 -0.156464 -0.497497 -0.08805 -0.862985   265.664 265.664 265.664 15.9398 15.9398 15.9398  0 0 0 0 0 0   0.737362 0.411729 -0.67298 0.00126419 -2.68346 -1.45939 -0.907849 
 0.865528 0.0162436 0.0326441   -0.0456153 -0.152999 0.299125  -0.168488 -0.333669 0.380762 0.845752   -0.397339 0.550659 2.58484  1.9281 -0.374451 -1.35352   -0.460184 -0.0538152 0.611307  0.753707 0.448776 -0.48013 0.429545 -0.889305 -0.156932 -0.49741 -0.087957 -0.863045   265.664 265.664 265.664 15.9398 15.9398 15.9398  0 0 0 0 0 0   0.737362 0.411729 -0.67298 0.00126419 -2.68346 -1.45939 -0.907849 
 0.875535 0.0177048 0.0401893   -0.0552228 -0.162285 0.303173  -0.719829 -0.349413 0.38305 -0.461551   -0.170288 0.741272 2.58484  1.87866 -0.674011 -1.35352   -0.460328 -0.0542194 0.611266  0.7534 0.44948 -0.479954 0.430097 -0.888959 -0.157379 -0.497399 -0.0878571 -0.863062   343.939 343.939 343.939 20.6363 20.6363 20.6363  0 0 0 0 0 0   0.737362 0.411729 -0.67298 0.00126419 -2.68346 -1.45939 -0.907849 
 0.885525 0.0177048 0.0401893   -0.0552228 -0.162285 0.303173  -0.719829 -0.349413 0.38305 -0.461551   -0.113525 0.910706 2.72583  2.17529 -0.698975 -1.27148   -0.460482 -0.0546449 0.611235  0.753092 0.450154 -0.479806 0.430617 -0.888628 -0.157826 -0.497415 -0.0877549 -0.863063   343.939 343.939 343.939 20.6363 20.6363 20.6363  0 0 0 0 0 0   0.737362 0.411729 -0.67298 0.00126419 -2.68346 -1.45939 -0.907849 
 0.895527 0.0177048 0.0401893   -0.0552228 -0.162285 0.303173  -0.719829 -0.349413 0.38305 -0.461551   -0.0378418 0.825989 2.34985  2.10114 -0.674011 -1.35352   -0.460647 -0.0550925 0.611228  0.752733 0.450858 -0.479708 0.431154 -0.888281 -0.158315 -0.497493 -0.0876593 -0.863027   343.939 343.939 343.939 20.6363 20.6363 20.6363  0 0 0 0 0 0   0.737362 0.411729 -0.67298 0.00126419 -2.68346 -1.45939 -0.907849 
 0.905529 0.0177048 0.0401893   -0.0552228 -0.162285 0.303173  -0.719829 -0.349413 0.38305 -0.461551   0.113525 1.0166 2.16187  2.24945 -0.898682 -1.35352   -0.460813 -0.0555504 0.611248  0.752324 0.45158 -0.479671 0.431705 -0.887921 -0.158829 -0.497634 -0.0875851 -0.862954   343.939 343.939 343.939 20.6363 20.6363 20.6363  0 0 0 0 0 0   0.737362 0.411729 -0.67298 0.00126419 -2.68346 -1.45939 -0.907849 
 0.915527 0.0177048 0.0401893   -0.0552228 -0.162285 0.303173  -0.719829 -0.349413 0.38305 -0.461551   -0.132446 1.16486 1.78589  2.42249 -0.624084 -1.35352   -0.46099 -0.0560313 0.611317  0.751828 0.452335 -0.479736 0.432275 -0.887542 -0.1594 -0.497888 -0.0875363 -0.862812   343.939 343.939 343.939 20.6363 20.6363 20.6363  0 0 0 0 0 0   0.737362 0.411729 -0.67298 0.00126419 -2.68346 -1.45939 -0.907849 
 0.925531 0.0177048 0.0401893   -0.0552228 -0.162285 0.303173  -0.719829 -0.349413 0.38305 -0.461551   0.189209 1.08014 1.5979  2.27417 -0.698975 -1.35352   -0.461176 -0.0565383 0.611421  0.751278 0.45313 -0.479848 0.432877 -0.887139 -0.160006 -0.498195 -0.0875062 -0.862638   343.939 343.939 343.939 20.6363 20.6363 20.6363  0 0 0 0 0 0   0.737362 0.411729 -0.67298 0.00126419 -2.68346 -1.45939 -0.907849 
 0.935537 0.0177048 0.0401893   -0.0552228 -0.162285 0.303173  -0.719829 -0.349413 0.38305 -0.461551   0.435181 0.677734 1.5979  2.02698 -0.973572 -1.51758   -0.46137 -0.0570553 0.61158  0.75066 0.453939 -0.480052 0.433477 -0.886727 -0.160662 -0.498606 -0.087489 -0.862402   343.939 343.939 343.939 20.6363 20.6363 20.6363  0 0 0 0 0 0   0.737362 0.411729 -0.67298 0.00126419 -2.68346 -1.45939 -0.907849 
 0.945498 0.0177048 0.0401893   -0.0552228 -0.162285 0.303173  -0.719829 -0.349413 0.38305 -0.461551   0.41626 0.931885 1.22192  2.24945 -0.898682 -1.59961   -0.461577 -0.0575722 0.611771  0.749998 0.454743 -0.480326 0.434051 -0.886318 -0.161369 -0.499103 -0.0874596 -0.862118   343.939 343.939 343.939 20.6363 20.6363 20.6363  0 0 0 0 0 0   0.737362 0.411729 -0.67298 0.00126419 -2.68346 -1.45939 -0.907849 
 0.955553 0.0177048 0.0401893   -0.0552228 -0.162285 0.303173  -0.719829 -0.349413 0.38305 -0.461551   0.340576 0.762451 1.22192  2.0517 -0.873718 -1.59961   -0.461799 -0.0581105 0.612014  0.749237 0.455573 -0.480726 0.434629 -0.885893 -0.162148 -0.499742 -0.0874498 -0.861749   343.939 343.939 343.939 20.6363 20.6363 20.6363  0 0 0 0 0 0   0.737362 0.411729 -0.67298 0.00126419 -2.68346 -1.45939 -0.907849 
 0.965526 0.0177048 0.0401893   -0.0552228 -0.162285 0.303173  -0.719829 -0.349413 0.38305 -0.461551   0.41626 0.847168 1.03394  2.10114 -0.674011 -1.53809   -0.462026 -0.0586594 0.612301  0.748417 0.456418 -0.481202 0.435212 -0.885457 -0.162963 -0.500462 -0.0874609 -0.861329   343.939 343.939 343.939 20.6363 20.6363 20.6363  0 0 0 0 0 0   0.737362 0.411729 -0.67298 0.00126419 -2.68346 -1.45939 -0.907849 
 0.97553 0.0184134 0.0461471   -0.0629997 -0.166568 0.303826  -0.724347 -0.344248 0.37514 -0.464849   0.340576 1.0166 1.5979  2.07642 -0.674011 -1.59961   -0.462256 -0.0592086 0.612651  0.747529 0.457259 -0.481783 0.435785 -0.885018 -0.163811 -0.501291 -0.0875 -0.860843   405.746 405.746 405.746 24.3448 24.3448 24.3448  0 0 0 0 0 0   0.737362 0.411729 -0.67298 0.00126419 -2.68346 -1.45939 -0.907849 
 0.985524 0.0184134 0.0461471   -0.0629997 -0.166568 0.303826  -0.724347 -0.344248 0.37514 -0.464849   0.41626 0.762451 1.22192  2.07642 -0.674011 -1.59961   -0.462493 -0.0597843 0.613033  0.746578 0.45814 -0.48242 0.436388 -0.884557 -0.164697 -0.502182 -0.0875637 -0.860317   405.746 405.746 405.746 24.3448 24.3448 24.3448  0 0 0 0 0 0   0.737362 0.411729 -0.67298 0.00126419 -2.68346 -1.45939 -0.907849 
 0.99556 0.0184134 0.0461471   -0.0629997 -0.166568 0.303826  -0.724347 -0.344248 0.37514 -0.464849   0.264893 0.825989 1.40991  1.90338 -0.449341 -1.68164   -0.462742 -0.0603467 0.613445  0.745602 0.458994 -0.483117 0.43694 -0.88411 -0.165629 -0.503151 -0.0876001 -0.859747   405.746 405.746 405.746 24.3448 24.3448 24.3448  0 0 0 0 0 0   0.737362 0.411729 -0.67298 0.00126419 -2.68346 -1.45939 -0.907849 
 1.00553 0.0184134 0.0461471   -0.0629997 -0.166568 0.303826  -0.724347 -0.344248 0.37514 -0.464849   0.435181 0.593018 1.03394  1.75507 -0.848755 -1.70215   -0.462996 -0.0608922 0.613918  0.744575 0.459817 -0.483917 0.437445 -0.883678 -0.166599 -0.504232 -0.0876422 -0.859109   405.746 405.746 405.746 24.3448 24.3448 24.3448  0 0 0 0 0 0   0.737362 0.411729 -0.67298 0.00126419 -2.68346 -1.45939 -0.907849 
 1.01553 0.0184134 0.0461471   -0.0629997 -0.166568 0.303826  -0.724347 -0.344248 0.37514 -0.464849   0.454102 0.25415 1.08093  1.45844 -0.723938 -1.94824   -0.463259 -0.0614631 0.614421  0.743482 0.460676 -0.48478 0.437973 -0.883225 -0.167613 -0.505385 -0.0877034 -0.858425   405.746 405.746 405.746 24.3448 24.3448 24.3448  0 0 0 0 0 0   0.737362 0.411729 -0.67298 0.00126419 -2.68346 -1.45939 -0.907849 
 1.02553 0.0184134 0.0461471   -0.0629997 -0.166568 0.303826  -0.724347 -0.344248 0.37514 -0.464849   0.681152 0.27533 0.845947  1.53259 -0.923645 -1.94824   -0.463531 -0.0620245 0.614973  0.742347 0.461515 -0.485721 0.438461 -0.882781 -0.168669 -0.506629 -0.0877592 -0.857686   405.746 405.746 405.746 24.3448 24.3448 24.3448  0 0 0 0 0 0   0.737362 0.411729 -0.67298 0.00126419 -2.68346 -1.45939 -0.907849 
 1.03553 0.0184134 0.0461471   -0.0629997 -0.166568 0.303826  -0.724347 -0.344248 0.37514 -0.464849   0.681152 0.338867 1.03394  1.43372 -0.923645 -1.86621   -0.463806 -0.0625683 0.615588  0.74113 0.462317 -0.486815 0.438893 -0.882354 -0.169778 -0.508035 -0.0878322 -0.856847   405.746 405.746 405.746 24.3448 24.3448 24.3448  0 0 0 0 0 0   0.737362 0.411729 -0.67298 0.00126419 -2.68346 -1.45939 -0.907849 
 1.04553 0.0184134 0.0461471   -0.0629997 -0.166568 0.303826  -0.724347 -0.344248 0.37514 -0.464849   0.813599 0.698914 1.22192  1.90338 -1.04846 -1.8457   -0.464103 -0.0631101 0.616237  0.73986 0.463108 -0.487993 0.439272 -0.881935 -0.170968 -0.509556 -0.087869 -0.855939   405.746 405.746 405.746 24.3448 24.3448 24.3448  0 0 0 0 0 0   0.737362 0.411729 -0.67298 0.00126419 -2.68346 -1.45939 -0.907849 
 1.05553 0.0184134 0.0461471   -0.0629997 -0.166568 0.303826  -0.724347 -0.344248 0.37514 -0.464849   0.586548 0.508301 1.40991  1.60675 -1.0235 -1.92773   -0.46442 -0.063657 0.616944  0.73848 0.463893 -0.489337 0.439608 -0.881518 -0.172251 -0.511266 -0.0879126 -0.854914   405.746 405.746 405.746 24.3448 24.3448 24.3448  0 0 0 0 0 0   0.737362 0.411729 -0.67298 0.00126419 -2.68346 -1.45939 -0.907849 
 1.06553 0.0184134 0.0461471   -0.0629997 -0.166568 0.303826  -0.724347 -0.344248 0.37514 -0.464849   0.964966 0.550659 0.845947  1.68091 -1.12335 -2.0918   -0.464741 -0.0642076 0.617719  0.736987 0.464672 -0.490847 0.43992 -0.8811 -0.173593 -0.513148 -0.0879975 -0.853777   405.746 405.746 405.746 24.3448 24.3448 24.3448  0 0 0 0 0 0   0.737362 0.411729 -0.67298 0.00126419 -2.68346 -1.45939 -0.907849 
 1.07555 0.0187734 0.0468115   -0.0642062 -0.173047 0.300203  -0.169307 -0.363691 0.379113 0.833869   0.227051 0.423584 1.26892  1.55731 -0.624084 -1.94824   -0.465085 -0.0647568 0.618569  0.735335 0.465431 -0.492602 0.440156 -0.88069 -0.175067 -0.515311 -0.0880891 -0.852464   412.639 412.639 412.639 24.7584 24.7584 24.7584  0 0 0 0 0 0   0.737362 0.411729 -0.67298 0.00126419 -2.68346 -1.45939 -0.907849 
 1.08553 0.0187734 0.0468115   -0.0642062 -0.173047 0.300203  -0.169307 -0.363691 0.379113 0.833869   1.2677 0.741272 1.17493  1.82922 -1.54773 -2.17383   -0.465422 -0.0653185 0.619395  0.733706 0.46621 -0.494291 0.440421 -0.880268 -0.176515 -0.517402 -0.0881859 -0.851187   412.639 412.639 412.639 24.7584 24.7584 24.7584  0 0 0 0 0 0   0.737362 0.411729 -0.67298 0.00126419 -2.68346 -1.45939 -0.907849 
 1.09556 0.0187734 0.0468115   -0.0642062 -0.173047 0.300203  -0.169307 -0.363691 0.379113 0.833869   1.13525 0.465942 1.22192  1.53259 -1.42291 -2.17383   -0.46577 -0.0658698 0.620272  0.732043 0.466968 -0.496038 0.440642 -0.879858 -0.178005 -0.519566 -0.0882678 -0.849859   412.639 412.639 412.639 24.7584 24.7584 24.7584  0 0 0 0 0 0   0.737362 0.411729 -0.67298 0.00126419 -2.68346 -1.45939 -0.907849 
 1.10553 0.0187734 0.0468115   -0.0642062 -0.173047 0.300203  -0.169307 -0.363691 0.379113 0.833869   0.529785 0.105896 1.08093  1.21124 -1.09839 -2.27637   -0.466133 -0.0664208 0.621177  0.730332 0.467719 -0.49785 0.44082 -0.879453 -0.179555 -0.521817 -0.0883278 -0.848472   412.639 412.639 412.639 24.7584 24.7584 24.7584  0 0 0 0 0 0   0.737362 0.411729 -0.67298 0.00126419 -2.68346 -1.45939 -0.907849 
 1.11554 0.0187734 0.0468115   -0.0642062 -0.173047 0.300203  -0.169307 -0.363691 0.379113 0.833869   0.700073 0.190613 0.892944  1.21124 -0.998535 -2.3584   -0.466505 -0.0669948 0.622097  0.728542 0.468495 -0.49974 0.441001 -0.879032 -0.181163 -0.524162 -0.0884008 -0.847018   412.639 412.639 412.639 24.7584 24.7584 24.7584  0 0 0 0 0 0   0.737362 0.411729 -0.67298 0.00126419 -2.68346 -1.45939 -0.907849 
 1.1255 0.0187734 0.0468115   -0.0642062 -0.173047 0.300203  -0.169307 -0.363691 0.379113 0.833869   0.756836 0.360046 0.704956  1.21124 -0.973572 -2.3584   -0.466889 -0.0675394 0.623092  0.726611 0.469209 -0.501876 0.441068 -0.878644 -0.182878 -0.526778 -0.0884805 -0.845385   412.639 412.639 412.639 24.7584 24.7584 24.7584  0 0 0 0 0 0   0.737362 0.411729 -0.67298 0.00126419 -2.68346 -1.45939 -0.907849 
 1.13553 0.0187734 0.0468115   -0.0642062 -0.173047 0.300203  -0.169307 -0.363691 0.379113 0.833869   0.756836 0.360046 1.26892  1.21124 -1.07343 -2.33789   -0.467295 -0.0680824 0.624134  0.724556 0.469897 -0.504198 0.441051 -0.878269 -0.184709 -0.529616 -0.0885447 -0.843603   412.639 412.639 412.639 24.7584 24.7584 24.7584  0 0 0 0 0 0   0.737362 0.411729 -0.67298 0.00126419 -2.68346 -1.45939 -0.907849 
 1.14553 0.0187734 0.0468115   -0.0642062 -0.173047 0.300203  -0.169307 -0.363691 0.379113 0.833869   1.22986 -0.0211792 1.08093  1.01349 -1.57269 -2.50195   -0.46771 -0.0686422 0.6252  0.722454 0.47061 -0.506544 0.441036 -0.877881 -0.186579 -0.532491 -0.0886091 -0.841785   412.639 412.639 412.639 24.7584 24.7584 24.7584  0 0 0 0 0 0   0.737362 0.411729 -0.67298 0.00126419 -2.68346 -1.45939 -0.907849 
 1.15554 0.0187734 0.0468115   -0.0642062 -0.173047 0.300203  -0.169307 -0.363691 0.379113 0.833869   0.41626 0.0847168 1.12793  0.741577 -0.748901 -2.52246   -0.468126 -0.0691678 0.626286  0.720342 0.471275 -0.508927 0.440946 -0.877521 -0.188478 -0.535419 -0.0886402 -0.839922   412.639 412.639 412.639 24.7584 24.7584 24.7584  0 0 0 0 0 0   0.737362 0.411729 -0.67298 0.00126419 -2.68346 -1.45939 -0.907849 
 1.16556 0.0187734 0.0468115   -0.0642062 -0.173047 0.300203  -0.169307 -0.363691 0.379113 0.833869   0.41626 0 1.12793  0.766296 -0.549194 -2.52246   -0.468557 -0.0697118 0.627367  0.71815 0.47196 -0.511385 0.440831 -0.877151 -0.190457 -0.53845 -0.0886578 -0.837981   412.639 412.639 412.639 24.7584 24.7584 24.7584  0 0 0 0 0 0   0.737362 0.411729 -0.67298 0.00126419 -2.68346 -1.45939 -0.907849 
 1.17553 0.0182981 0.0414455   -0.0571643 -0.171193 0.299392  -0.169028 -0.357046 0.388125 0.83265   0.794678 -0.148254 1.08093  0.815735 -0.848755 -2.52246   -0.468997 -0.0702616 0.628456  0.715896 0.472658 -0.513893 0.440693 -0.876775 -0.192499 -0.541555 -0.0886599 -0.835977   356.971 356.971 356.971 21.4183 21.4183 21.4183  0 0 0 0 0 0   0.737362 0.411729 -0.67298 0.00126419 -2.68346 -1.45939 -0.907849 
 1.18557 0.0182981 0.0414455   -0.0571643 -0.171193 0.299392  -0.169028 -0.357046 0.388125 0.83265   0.870361 -0.317688 1.31592  0.568542 -1.0235 -2.68652   -0.469433 -0.0707678 0.629572  0.71368 0.473315 -0.516365 0.440498 -0.876424 -0.194533 -0.54463 -0.0886239 -0.833981   356.971 356.971 356.971 21.4183 21.4183 21.4183  0 0 0 0 0 0   0.737362 0.411729 -0.67298 0.00126419 -2.68346 -1.45939 -0.907849 
 1.19553 0.0182981 0.0414455   -0.0571643 -0.171193 0.299392  -0.169028 -0.357046 0.388125 0.83265   0.340576 -0.338867 1.12793  0.568542 -0.424377 -2.68652   -0.469898 -0.0712787 0.630743  0.71131 0.474006 -0.518995 0.440254 -0.876057 -0.196725 -0.547918 -0.0885577 -0.831831   356.971 356.971 356.971 21.4183 21.4183 21.4183  0 0 0 0 0 0   0.737362 0.411729 -0.67298 0.00126419 -2.68346 -1.45939 -0.907849 
 1.20554 0.0182981 0.0414455   -0.0571643 -0.171193 0.299392  -0.169028 -0.357046 0.388125 0.83265   1.07849 0.190613 0.704956  0.840454 -0.649048 -2.68652   -0.470367 -0.0717696 0.631955  0.708854 0.4747 -0.521714 0.439965 -0.875689 -0.198994 -0.551322 -0.0884784 -0.829588   356.971 356.971 356.971 21.4183 21.4183 21.4183  0 0 0 0 0 0   0.737362 0.411729 -0.67298 0.00126419 -2.68346 -1.45939 -0.907849 
 1.21551 0.0182981 0.0414455   -0.0571643 -0.171193 0.299392  -0.169028 -0.357046 0.388125 0.83265   0.946045 -0.317688 0.751953  0.494385 -0.823792 -2.76855   -0.470826 -0.0722698 0.633169  0.706445 0.475465 -0.52428 0.439758 -0.875282 -0.201231 -0.554571 -0.0883975 -0.827428   356.971 356.971 356.971 21.4183 21.4183 21.4183  0 0 0 0 0 0   0.737362 0.411729 -0.67298 0.00126419 -2.68346 -1.45939 -0.907849 
 1.22569 0.0182981 0.0414455   -0.0571643 -0.171193 0.299392  -0.169028 -0.357046 0.388125 0.83265   0.643311 -0.169434 1.12793  0.568542 -0.424377 -2.85059   -0.471291 -0.0727666 0.634363  0.704073 0.47628 -0.526724 0.439567 -0.874854 -0.2035 -0.557729 -0.0882516 -0.825318   356.971 356.971 356.971 21.4183 21.4183 21.4183  0 0 0 0 0 0   0.737362 0.411729 -0.67298 0.00126419 -2.68346 -1.45939 -0.907849 
 1.23554 0.0182981 0.0414455   -0.0571643 -0.171193 0.299392  -0.169028 -0.357046 0.388125 0.83265   0.264893 -0.190613 1.17493  0.568542 0.0998535 -2.85059   -0.471765 -0.0732272 0.635557  0.701708 0.477081 -0.529151 0.439312 -0.874439 -0.205819 -0.560902 -0.0880373 -0.823188   356.971 356.971 356.971 21.4183 21.4183 21.4183  0 0 0 0 0 0   0.737362 0.411729 -0.67298 0.00126419 -2.68346 -1.45939 -0.907849 
 1.24553 0.0182981 0.0414455   -0.0571643 -0.171193 0.299392  -0.169028 -0.357046 0.388125 0.83265   1.6272 -0.296509 1.08093  0.469666 -0.998535 -2.91211   -0.472237 -0.0736667 0.636765  0.699383 0.477939 -0.531449 0.439085 -0.873998 -0.208164 -0.563975 -0.0877654 -0.821115   356.971 356.971 356.971 21.4183 21.4183 21.4183  0 0 0 0 0 0   0.737362 0.411729 -0.67298 0.00126419 -2.68346 -1.45939 -0.907849 
 1.25553 0.0182981 0.0414455   -0.0571643 -0.171193 0.299392  -0.169028 -0.357046 0.388125 0.83265   1.2677 -0.656555 1.12793  0.32135 -0.798828 -2.93262   -0.472709 -0.0741075 0.638049  0.696961 0.478984 -0.533684 0.438999 -0.873452 -0.21062 -0.567032 -0.0874926 -0.819036   356.971 356.971 356.971 21.4183 21.4183 21.4183  0 0 0 0 0 0   0.737362 0.411729 -0.67298 0.00126419 -2.68346 -1.45939 -0.907849 
 1.26554 0.0182981 0.0414455   -0.0571643 -0.171193 0.299392  -0.169028 -0.357046 0.388125 0.83265   0.737915 -0.508301 1.36292  0.222473 -0.174744 -3.01465   -0.473181 -0.0745233 0.639392  0.694417 0.480189 -0.535913 0.438999 -0.87282 -0.213225 -0.570144 -0.087198 -0.816904   356.971 356.971 356.971 21.4183 21.4183 21.4183  0 0 0 0 0 0   0.737362 0.411729 -0.67298 0.00126419 -2.68346 -1.45939 -0.907849 
 1.27552 0.0183706 0.039777   -0.0559689 -0.180262 0.289298  -0.727815 -0.358363 0.368408 -0.454023   0.586548 -0.508301 1.5509  0.346069 0.0998535 -3.09668   -0.473644 -0.0749282 0.640684  0.691978 0.481423 -0.537958 0.439031 -0.872174 -0.215788 -0.573078 -0.0868596 -0.814885   339.662 339.662 339.662 20.3797 20.3797 20.3797  0 0 0 0 0 0   0.737362 0.411729 -0.67298 0.00126419 -2.68346 -1.45939 -0.907849 
 1.28553 0.0183706 0.039777   -0.0559689 -0.180262 0.289298  -0.727815 -0.358363 0.368408 -0.454023   0.737915 -0.423584 0.986938  0.346069 0.0249634 -3.09668   -0.474107 -0.0752929 0.641967  0.689611 0.48263 -0.539912 0.439003 -0.871548 -0.218358 -0.575945 -0.0864404 -0.812905   339.662 339.662 339.662 20.3797 20.3797 20.3797  0 0 0 0 0 0   0.737362 0.411729 -0.67298 0.00126419 -2.68346 -1.45939 -0.907849 
 1.29556 0.0183706 0.039777   -0.0559689 -0.180262 0.289298  -0.727815 -0.358363 0.368408 -0.454023   0.662231 -0.52948 0.986938  0.271912 0.249634 -2.93262   -0.474582 -0.0756452 0.643238  0.687247 0.483909 -0.541778 0.43899 -0.870887 -0.221005 -0.578774 -0.0859501 -0.810946   339.662 339.662 339.662 20.3797 20.3797 20.3797  0 0 0 0 0 0   0.737362 0.411729 -0.67298 0.00126419 -2.68346 -1.45939 -0.907849 
 1.30553 0.0183706 0.039777   -0.0559689 -0.180262 0.289298  -0.727815 -0.358363 0.368408 -0.454023   0.756836 -0.52948 0.422974  0.0494385 0.14978 -3.01465   -0.475065 -0.0760061 0.644574  0.684656 0.485446 -0.54368 0.439138 -0.870078 -0.223878 -0.581725 -0.085472 -0.808882   339.662 339.662 339.662 20.3797 20.3797 20.3797  0 0 0 0 0 0   0.737362 0.411729 -0.67298 0.00126419 -2.68346 -1.45939 -0.907849 
 1.31553 0.0183706 0.039777   -0.0559689 -0.180262 0.289298  -0.727815 -0.358363 0.368408 -0.454023   0.908203 -0.868347 0.79895  -0.0494385 -0.0499268 -3.17871   -0.475538 -0.0763732 0.645958  0.681978 0.487096 -0.545567 0.439371 -0.8692 -0.226815 -0.584688 -0.0850228 -0.806791   339.662 339.662 339.662 20.3797 20.3797 20.3797  0 0 0 0 0 0   0.737362 0.411729 -0.67298 0.00126419 -2.68346 -1.45939 -0.907849 
 1.32553 0.0183706 0.039777   -0.0559689 -0.180262 0.289298  -0.727815 -0.358363 0.368408 -0.454023   0.435181 -0.635376 1.22192  0.0247192 0.549194 -3.01465   -0.475994 -0.0767007 0.647324  0.679353 0.488885 -0.54724 0.439717 -0.868244 -0.229787 -0.587477 -0.0845243 -0.804814   339.662 339.662 339.662 20.3797 20.3797 20.3797  0 0 0 0 0 0   0.737362 0.411729 -0.67298 0.00126419 -2.68346 -1.45939 -0.907849 
 1.33553 0.0183706 0.039777   -0.0559689 -0.180262 0.289298  -0.727815 -0.358363 0.368408 -0.454023   0.227051 -0.635376 0.845947  0.123596 0.524231 -2.93262   -0.476458 -0.077022 0.648639  0.676708 0.490984 -0.548635 0.440284 -0.867116 -0.232936 -0.590098 -0.0839252 -0.802957   339.662 339.662 339.662 20.3797 20.3797 20.3797  0 0 0 0 0 0   0.737362 0.411729 -0.67298 0.00126419 -2.68346 -1.45939 -0.907849 
 1.34553 0.0183706 0.039777   -0.0559689 -0.180262 0.289298  -0.727815 -0.358363 0.368408 -0.454023   0.662231 -0.444763 0.986938  0.222473 0.524231 -2.93262   -0.476927 -0.0773156 0.649934  0.67409 0.493127 -0.549936 0.440846 -0.865964 -0.236138 -0.592671 -0.083259 -0.80113   339.662 339.662 339.662 20.3797 20.3797 20.3797  0 0 0 0 0 0   0.737362 0.411729 -0.67298 0.00126419 -2.68346 -1.45939 -0.907849 
 1.35552 0.0183706 0.039777   -0.0559689 -0.180262 0.289298  -0.727815 -0.358363 0.368408 -0.454023   0.548706 -1.22839 0.657959  -0.296631 0.474304 -2.93262   -0.477399 -0.0775948 0.651315  0.671282 0.495413 -0.551313 0.441459 -0.864722 -0.239521 -0.595394 -0.0825961 -0.799177   339.662 339.662 339.662 20.3797 20.3797 20.3797  0 0 0 0 0 0   0.737362 0.411729 -0.67298 0.00126419 -2.68346 -1.45939 -0.907849 
 1.36552 0.0183706 0.039777   -0.0559689 -0.180262 0.289298  -0.727815 -0.358363 0.368408 -0.454023   0.0567627 -0.487122 1.40991  0.296631 1.0235 -2.68652   -0.477866 -0.0778604 0.652741  0.668417 0.497692 -0.55274 0.442028 -0.863475 -0.242944 -0.598188 -0.081939 -0.797155   339.662 339.662 339.662 20.3797 20.3797 20.3797  0 0 0 0 0 0   0.737362 0.411729 -0.67298 0.00126419 -2.68346 -1.45939 -0.907849 
 1.37553 0.00591751 0.0973391   0.180748 0.0313063 -0.288832  -0.585465 0.0928915 -0.775777 0.216268   -0.491943 -0.169434 1.22192  0.395508 1.72247 -2.76855   -0.478327 -0.0781531 0.654115  0.665583 0.500022 -0.554055 0.442654 -0.862189 -0.246348 -0.60088 -0.0812895 -0.795195   936.823 936.823 936.823 56.2094 56.2094 56.2094  0 0 0 0 0 0   0.737362 0.411729 -0.67298 0.00126419 -2.68346 -1.45939 -0.907849 
 1.38552 0.00591751 0.0973391   0.180748 0.0313063 -0.288832  -0.585465 0.0928915 -0.775777 0.216268   0.20813 -0.487122 0.845947  0.173035 0.923645 -2.85059   -0.478801 -0.078456 0.655435  0.662808 0.502379 -0.555249 0.443273 -0.860885 -0.249772 -0.603486 -0.080576 -0.793292   936.823 936.823 936.823 56.2094 56.2094 56.2094  0 0 0 0 0 0   0.737362 0.411729 -0.67298 0.00126419 -2.68346 -1.45939 -0.907849 
 1.39554 0.00591751 0.0973391   0.180748 0.0313063 -0.288832  -0.585465 0.0928915 -0.775777 0.216268   1.55151 -0.232971 0.751953  0.346069 0.124817 -2.93262   -0.479277 -0.0787039 0.656715  0.660205 0.504538 -0.556392 0.443694 -0.859697 -0.253096 -0.606025 -0.0797723 -0.791436   936.823 936.823 936.823 56.2094 56.2094 56.2094  0 0 0 0 0 0   0.737362 0.411729 -0.67298 0.00126419 -2.68346 -1.45939 -0.907849 
 1.40555 0.00591751 0.0973391   0.180748 0.0313063 -0.288832  -0.585465 0.0928915 -0.775777 0.216268   0.756836 -0.80481 0.610962  0.0494385 0.748901 -2.76855   -0.479757 -0.0789283 0.658076  0.65749 0.506718 -0.557623 0.444054 -0.85849 -0.256538 -0.608706 -0.0789436 -0.789458   936.823 936.823 936.823 56.2094 56.2094 56.2094  0 0 0 0 0 0   0.737362 0.411729 -0.67298 0.00126419 -2.68346 -1.45939 -0.907849 
 1.41556 0.00591751 0.0973391   0.180748 0.0313063 -0.288832  -0.585465 0.0928915 -0.775777 0.216268   -0.245972 -0.593018 0.0939941  0.271912 1.52277 -2.87109   -0.480231 -0.0791395 0.659437  0.654806 0.508847 -0.558842 0.444346 -0.857307 -0.259963 -0.61138 -0.0780942 -0.787474   936.823 936.823 936.823 56.2094 56.2094 56.2094  0 0 0 0 0 0   0.737362 0.411729 -0.67298 0.00126419 -2.68346 -1.45939 -0.907849 
 1.42553 0.00591751 0.0973391   0.180748 0.0313063 -0.288832  -0.585465 0.0928915 -0.775777 0.216268   0.113525 -0.317688 0.0939941  0.296631 1.72247 -2.85059   -0.480693 -0.0793685 0.66072  0.652136 0.511135 -0.559875 0.444797 -0.856022 -0.263405 -0.613901 -0.0772551 -0.785594   936.823 936.823 936.823 56.2094 56.2094 56.2094  0 0 0 0 0 0   0.737362 0.411729 -0.67298 0.00126419 -2.68346 -1.45939 -0.907849 
 1.43553 0.00591751 0.0973391   0.180748 0.0313063 -0.288832  -0.585465 0.0928915 -0.775777 0.216268   0.378418 -0.762451 0.469971  0.098877 1.64758 -2.68652   -0.481149 -0.0795785 0.661985  0.649503 0.513389 -0.560873 0.445199 -0.85475 -0.266836 -0.616396 -0.0763898 -0.783722   936.823 936.823 936.823 56.2094 56.2094 56.2094  0 0 0 0 0 0   0.737362 0.411729 -0.67298 0.00126419 -2.68346 -1.45939 -0.907849 
 1.44553 0.00591751 0.0973391   0.180748 0.0313063 -0.288832  -0.585465 0.0928915 -0.775777 0.216268   1.1731 -0.381226 0.375977  0.519104 1.22321 -2.68652   -0.481611 -0.0797446 0.663208  0.646971 0.515598 -0.561771 0.445519 -0.853504 -0.270265 -0.618822 -0.075426 -0.781902   936.823 936.823 936.823 56.2094 56.2094 56.2094  0 0 0 0 0 0   0.737362 0.411729 -0.67298 0.00126419 -2.68346 -1.45939 -0.907849 
 1.45553 0.00591751 0.0973391   0.180748 0.0313063 -0.288832  -0.585465 0.0928915 -0.775777 0.216268   0.586548 -0.656555 -0.328979  0.247192 1.32306 -2.68652   -0.482074 -0.0798741 0.664493  0.644417 0.51772 -0.562755 0.445694 -0.852308 -0.273731 -0.621356 -0.07442 -0.779986   936.823 936.823 936.823 56.2094 56.2094 56.2094  0 0 0 0 0 0   0.737362 0.411729 -0.67298 0.00126419 -2.68346 -1.45939 -0.907849 
 1.46553 0.00591751 0.0973391   0.180748 0.0313063 -0.288832  -0.585465 0.0928915 -0.775777 0.216268   0.227051 -1.0166 -0.281982  0.222473 1.72247 -2.625   -0.482525 -0.0800244 0.665784  0.641909 0.519709 -0.563787 0.445782 -0.851179 -0.27708 -0.623884 -0.0734657 -0.778056   936.823 936.823 936.823 56.2094 56.2094 56.2094  0 0 0 0 0 0   0.737362 0.411729 -0.67298 0.00126419 -2.68346 -1.45939 -0.907849 
 1.47553 0.0166833 0.0266527   -0.0375851 -0.16404 0.294377  -0.696773 -0.36534 0.383221 -0.483917   -0.170288 -0.27533 0.0939941  0.395508 2.42145 -2.60449   -0.482973 -0.080181 0.667005  0.639504 0.521685 -0.564694 0.445874 -0.850053 -0.280368 -0.626284 -0.0724855 -0.776218   203.507 203.507 203.507 12.2104 12.2104 12.2104  0 0 0 0 0 0   0.737362 0.411729 -0.67298 0.00126419 -2.68346 -1.45939 -0.907849 
 1.48553 0.0166833 0.0266527   -0.0375851 -0.16404 0.294377  -0.696773 -0.36534 0.383221 -0.483917   -0.397339 -0.635376 0.328979  0.222473 2.44641 -2.46094   -0.483404 -0.080304 0.668231  0.637183 0.523477 -0.565659 0.44581 -0.849034 -0.283541 -0.628691 -0.0715085 -0.774361   203.507 203.507 203.507 12.2104 12.2104 12.2104  0 0 0 0 0 0   0.737362 0.411729 -0.67298 0.00126419 -2.68346 -1.45939 -0.907849 
 1.49557 0.0166833 0.0266527   -0.0375851 -0.16404 0.294377  -0.696773 -0.36534 0.383221 -0.483917   -0.0189209 -0.635376 0.0939941  0.247192 2.54626 -2.46094   -0.483851 -0.0804165 0.669416  0.634857 0.525433 -0.56646 0.445827 -0.847914 -0.286844 -0.631026 -0.0704386 -0.772557   203.507 203.507 203.507 12.2104 12.2104 12.2104  0 0 0 0 0 0   0.737362 0.411729 -0.67298 0.00126419 -2.68346 -1.45939 -0.907849 
 1.50555 0.0166833 0.0266527   -0.0375851 -0.16404 0.294377  -0.696773 -0.36534 0.383221 -0.483917   -0.283813 -1.05896 0.140991  -0.0741577 2.67108 -2.29688   -0.48431 -0.0805379 0.670676  0.632401 0.527444 -0.567338 0.44581 -0.846754 -0.290278 -0.633501 -0.069353 -0.770628   203.507 203.507 203.507 12.2104 12.2104 12.2104  0 0 0 0 0 0   0.737362 0.411729 -0.67298 0.00126419 -2.68346 -1.45939 -0.907849 
 1.51553 0.0166833 0.0266527   -0.0375851 -0.16404 0.294377  -0.696773 -0.36534 0.383221 -0.483917   -0.151367 -0.635376 0.281982  0.271912 2.74597 -2.29688   -0.484752 -0.0806139 0.671975  0.629805 0.529644 -0.568175 0.445891 -0.845469 -0.293877 -0.636025 -0.0682596 -0.768644   203.507 203.507 203.507 12.2104 12.2104 12.2104  0 0 0 0 0 0   0.737362 0.411729 -0.67298 0.00126419 -2.68346 -1.45939 -0.907849 
 1.52554 0.0166833 0.0266527   -0.0375851 -0.16404 0.294377  -0.696773 -0.36534 0.383221 -0.483917   -0.700073 -0.423584 0.140991  0.494385 3.51984 -2.13281   -0.485195 -0.0807138 0.673243  0.627189 0.531956 -0.568908 0.446056 -0.844105 -0.297525 -0.638488 -0.0671602 -0.766696   203.507 203.507 203.507 12.2104 12.2104 12.2104  0 0 0 0 0 0   0.737362 0.411729 -0.67298 0.00126419 -2.68346 -1.45939 -0.907849 
 1.53553 0.0166833 0.0266527   -0.0375851 -0.16404 0.294377  -0.696773 -0.36534 0.383221 -0.483917   -0.62439 -0.847168 -0.0939941  0.370789 3.22028 -1.96875   -0.485632 -0.0808385 0.674495  0.624548 0.534323 -0.569595 0.446273 -0.842693 -0.30118 -0.640921 -0.0660938 -0.764756   203.507 203.507 203.507 12.2104 12.2104 12.2104  0 0 0 0 0 0   0.737362 0.411729 -0.67298 0.00126419 -2.68346 -1.45939 -0.907849 
 1.54552 0.0166833 0.0266527   -0.0375851 -0.16404 0.294377  -0.696773 -0.36534 0.383221 -0.483917   -0.113525 -0.148254 -0.469971  0.667419 3.22028 -2.05078   -0.486077 -0.0809176 0.675731  0.621971 0.536663 -0.570215 0.446408 -0.841295 -0.304866 -0.643329 -0.0649308 -0.762831   203.507 203.507 203.507 12.2104 12.2104 12.2104  0 0 0 0 0 0   0.737362 0.411729 -0.67298 0.00126419 -2.68346 -1.45939 -0.907849 
 1.55553 0.0166833 0.0266527   -0.0375851 -0.16404 0.294377  -0.696773 -0.36534 0.383221 -0.483917   -0.435181 -1.0166 -0.422974  0.0741577 3.24524 -1.96875   -0.486518 -0.0809903 0.677048  0.619336 0.538906 -0.570967 0.446401 -0.839948 -0.308566 -0.645871 -0.0637736 -0.760779   203.507 203.507 203.507 12.2104 12.2104 12.2104  0 0 0 0 0 0   0.737362 0.411729 -0.67298 0.00126419 -2.68346 -1.45939 -0.907849 
 1.56554 0.0166833 0.0266527   -0.0375851 -0.16404 0.294377  -0.696773 -0.36534 0.383221 -0.483917   -0.359497 -1.0166 -0.234985  0.0741577 3.24524 -1.88672   -0.486964 -0.0810752 0.67837  0.616714 0.541126 -0.571705 0.446341 -0.838609 -0.312275 -0.648417 -0.0625907 -0.758708   203.507 203.507 203.507 12.2104 12.2104 12.2104  0 0 0 0 0 0   0.737362 0.411729 -0.67298 0.00126419 -2.68346 -1.45939 -0.907849 
 1.57551 0.0168238 0.0209496   -0.0298056 -0.169985 0.290871  -0.695986 -0.392479 0.3694 -0.474455   -1.3623 -0.741272 0  0.247192 4.34363 -1.80469   -0.487397 -0.0811545 0.679679  0.614083 0.543389 -0.572389 0.446314 -0.837231 -0.315988 -0.650926 -0.0614225 -0.756652   144.342 144.342 144.342 8.66052 8.66052 8.66052  0 0 0 0 0 0   0.737362 0.411729 -0.67298 0.00126419 -2.68346 -1.45939 -0.907849 
 1.58553 0.0168238 0.0209496   -0.0298056 -0.169985 0.290871  -0.695986 -0.392479 0.3694 -0.474455   -0.700073 -0.52948 -0.422974  0.370789 3.94421 -1.64062   -0.487814 -0.081215 0.680989  0.611463 0.545623 -0.573069 0.446257 -0.835861 -0.319674 -0.653428 -0.0602669 -0.754586   144.342 144.342 144.342 8.66052 8.66052 8.66052  0 0 0 0 0 0   0.737362 0.411729 -0.67298 0.00126419 -2.68346 -1.45939 -0.907849 
 1.59553 0.0168238 0.0209496   -0.0298056 -0.169985 0.290871  -0.695986 -0.392479 0.3694 -0.474455   -0.0189209 -0.487122 -0.657959  0.692139 3.39502 -1.55859   -0.488238 -0.0812951 0.682273  0.608815 0.54798 -0.573639 0.446274 -0.834402 -0.32344 -0.655885 -0.0590849 -0.752545   144.342 144.342 144.342 8.66052 8.66052 8.66052  0 0 0 0 0 0   0.737362 0.411729 -0.67298 0.00126419 -2.68346 -1.45939 -0.907849 
 1.60554 0.0168238 0.0209496   -0.0298056 -0.169985 0.290871  -0.695986 -0.392479 0.3694 -0.474455   -0.454102 -0.847168 -0.469971  0.444946 3.61969 -1.55859   -0.488654 -0.0813548 0.683654  0.606048 0.550323 -0.574326 0.446188 -0.832942 -0.327297 -0.658499 -0.0578997 -0.750351   144.342 144.342 144.342 8.66052 8.66052 8.66052  0 0 0 0 0 0   0.737362 0.411729 -0.67298 0.00126419 -2.68346 -1.45939 -0.907849 
 1.61558 0.0168238 0.0209496   -0.0298056 -0.169985 0.290871  -0.695986 -0.392479 0.3694 -0.474455   -0.756836 -0.80481 -0.234985  0.444946 4.21881 -1.47656   -0.489048 -0.0813933 0.685082  0.603284 0.552544 -0.575104 0.445983 -0.83155 -0.331094 -0.661172 -0.0567427 -0.748086   144.342 144.342 144.342 8.66052 8.66052 8.66052  0 0 0 0 0 0   0.737362 0.411729 -0.67298 0.00126419 -2.68346 -1.45939 -0.907849 
 1.62553 0.0168238 0.0209496   -0.0298056 -0.169985 0.290871  -0.695986 -0.392479 0.3694 -0.474455   -0.908203 -0.910706 -0.422974  0.296631 4.64319 -1.55859   -0.489445 -0.081481 0.686432  0.600625 0.554742 -0.57577 0.445812 -0.830162 -0.334787 -0.663703 -0.0556039 -0.745926   144.342 144.342 144.342 8.66052 8.66052 8.66052  0 0 0 0 0 0   0.737362 0.411729 -0.67298 0.00126419 -2.68346 -1.45939 -0.907849 
 1.63549 0.0168238 0.0209496   -0.0298056 -0.169985 0.290871  -0.695986 -0.392479 0.3694 -0.474455   -0.889282 -1.33429 -0.375977  -0.0494385 4.46844 -1.55859   -0.489832 -0.0815893 0.687782  0.597986 0.556859 -0.576473 0.445592 -0.828816 -0.338395 -0.666229 -0.0545165 -0.743752   144.342 144.342 144.342 8.66052 8.66052 8.66052  0 0 0 0 0 0   0.737362 0.411729 -0.67298 0.00126419 -2.68346 -1.45939 -0.907849 
 1.64557 0.0168238 0.0209496   -0.0298056 -0.169985 0.290871  -0.695986 -0.392479 0.3694 -0.474455   -0.245972 -0.614197 -0.469971  0.519104 4.0191 -1.64062   -0.490207 -0.0816556 0.689146  0.595442 0.558802 -0.577226 0.445196 -0.827581 -0.341921 -0.668767 -0.0533845 -0.741553   144.342 144.342 144.342 8.66052 8.66052 8.66052  0 0 0 0 0 0   0.737362 0.411729 -0.67298 0.00126419 -2.68346 -1.45939 -0.907849 
 1.65553 0.0168238 0.0209496   -0.0298056 -0.169985 0.290871  -0.695986 -0.392479 0.3694 -0.474455   -0.964966 -1.16486 -0.563965  0.0741577 4.5683 -1.64062   -0.490572 -0.081732 0.690593  0.592771 0.560751 -0.578084 0.444748 -0.826331 -0.345508 -0.671433 -0.0522943 -0.739218   144.342 144.342 144.342 8.66052 8.66052 8.66052  0 0 0 0 0 0   0.737362 0.411729 -0.67298 0.00126419 -2.68346 -1.45939 -0.907849 
 1.66572 0.0168238 0.0209496   -0.0298056 -0.169985 0.290871  -0.695986 -0.392479 0.3694 -0.474455   -1.75964 -1.88495 -0.516968  -0.444946 5.19238 -1.49707   -0.490932 -0.0818314 0.692029  0.59014 0.562639 -0.57894 0.444261 -0.825114 -0.349027 -0.674067 -0.0512252 -0.736891   144.342 144.342 144.342 8.66052 8.66052 8.66052  0 0 0 0 0 0   0.737362 0.411729 -0.67298 0.00126419 -2.68346 -1.45939 -0.907849 
 1.67552 0.0158276 0.0166828   -0.0236023 -0.15641 0.296437  -0.170915 -0.327448 0.447197 0.814605   -1.13525 -0.677734 -0.939941  0.296631 5.24231 -1.47656   -0.491276 -0.081908 0.69341  0.587552 0.564599 -0.579664 0.443851 -0.823841 -0.352537 -0.676593 -0.0501506 -0.734647   100.077 100.077 100.077 6.00462 6.00462 6.00462  0 0 0 0 0 0   0.737362 0.411729 -0.67298 0.00126419 -2.68346 -1.45939 -0.907849 
 1.68553 0.0158276 0.0166828   -0.0236023 -0.15641 0.296437  -0.170915 -0.327448 0.447197 0.814605   -1.04065 -1.35547 -0.939941  0.0741577 5.16742 -1.3125   -0.491617 -0.0820192 0.694782  0.584985 0.566499 -0.580406 0.44341 -0.822597 -0.355979 -0.679103 -0.0491158 -0.732398   100.077 100.077 100.077 6.00462 6.00462 6.00462  0 0 0 0 0 0   0.737362 0.411729 -0.67298 0.00126419 -2.68346 -1.45939 -0.907849 
 1.69554 0.0158276 0.0166828   -0.0236023 -0.15641 0.296437  -0.170915 -0.327448 0.447197 0.814605   -0.359497 -1.22839 -0.79895  0.296631 4.64319 -1.3125   -0.491953 -0.0821214 0.69616  0.582409 0.568413 -0.581126 0.442946 -0.821339 -0.359447 -0.681615 -0.0480622 -0.730131   100.077 100.077 100.077 6.00462 6.00462 6.00462  0 0 0 0 0 0   0.737362 0.411729 -0.67298 0.00126419 -2.68346 -1.45939 -0.907849 
 1.70552 0.0158276 0.0166828   -0.0236023 -0.15641 0.296437  -0.170915 -0.327448 0.447197 0.814605   -1.11633 -1.27075 -0.939941  -0.098877 5.29224 -1.47656   -0.492275 -0.0822011 0.697614  0.579857 0.570107 -0.582017 0.442251 -0.820224 -0.362831 -0.684237 -0.0470075 -0.727743   100.077 100.077 100.077 6.00462 6.00462 6.00462  0 0 0 0 0 0   0.737362 0.411729 -0.67298 0.00126419 -2.68346 -1.45939 -0.907849 
 1.71553 0.0158276 0.0166828   -0.0236023 -0.15641 0.296437  -0.170915 -0.327448 0.447197 0.814605   -1.92993 -1.73669 -0.657959  -0.296631 6.01617 -1.5791   -0.492584 -0.0822861 0.699056  0.577339 0.57175 -0.582908 0.441531 -0.819138 -0.366146 -0.686826 -0.0459815 -0.725366   100.077 100.077 100.077 6.00462 6.00462 6.00462  0 0 0 0 0 0   0.737362 0.411729 -0.67298 0.00126419 -2.68346 -1.45939 -0.907849 
 1.72553 0.0158276 0.0166828   -0.0236023 -0.15641 0.296437  -0.170915 -0.327448 0.447197 0.814605   -1.09741 -1.54608 -1.08093  -0.173035 5.5918 -1.5791   -0.492896 -0.0823935 0.70039  0.575075 0.573188 -0.583732 0.440737 -0.81819 -0.36921 -0.689231 -0.0449492 -0.723146   100.077 100.077 100.077 6.00462 6.00462 6.00462  0 0 0 0 0 0   0.737362 0.411729 -0.67298 0.00126419 -2.68346 -1.45939 -0.907849 
 1.73553 0.0158276 0.0166828   -0.0236023 -0.15641 0.296437  -0.170915 -0.327448 0.447197 0.814605   -1.22986 -2.05438 -0.892944  -0.543823 5.71661 -1.5791   -0.493198 -0.0824931 0.70174  0.57285 0.574512 -0.584619 0.439837 -0.817317 -0.372205 -0.691655 -0.0439192 -0.720892   100.077 100.077 100.077 6.00462 6.00462 6.00462  0 0 0 0 0 0   0.737362 0.411729 -0.67298 0.00126419 -2.68346 -1.45939 -0.907849 
 1.74553 0.0158276 0.0166828   -0.0236023 -0.15641 0.296437  -0.170915 -0.327448 0.447197 0.814605   -0.870361 -1.94849 -0.751953  -0.222473 5.39209 -1.55859   -0.493478 -0.0825367 0.703137  0.570655 0.575687 -0.585608 0.438767 -0.816546 -0.375149 -0.694144 -0.0428647 -0.718558   100.077 100.077 100.077 6.00462 6.00462 6.00462  0 0 0 0 0 0   0.737362 0.411729 -0.67298 0.00126419 -2.68346 -1.45939 -0.907849 
 1.75553 0.0158276 0.0166828   -0.0236023 -0.15641 0.296437  -0.170915 -0.327448 0.447197 0.814605   -1.45691 -1.90613 -0.704956  -0.296631 6.01617 -1.5791   -0.493747 -0.0825762 0.704564  0.568527 0.576673 -0.586707 0.43753 -0.815904 -0.377978 -0.696667 -0.041812 -0.716175   100.077 100.077 100.077 6.00462 6.00462 6.00462  0 0 0 0 0 0   0.737362 0.411729 -0.67298 0.00126419 -2.68346 -1.45939 -0.907849 
 1.76553 0.0158276 0.0166828   -0.0236023 -0.15641 0.296437  -0.170915 -0.327448 0.447197 0.814605   -2.04346 -2.35089 -0.657959  -0.741577 6.44055 -1.66113   -0.494006 -0.0826104 0.705962  0.5665 0.577542 -0.587812 0.436233 -0.815342 -0.38068 -0.699127 -0.0407682 -0.713834   100.077 100.077 100.077 6.00462 6.00462 6.00462  0 0 0 0 0 0   0.737362 0.411729 -0.67298 0.00126419 -2.68346 -1.45939 -0.907849 
 1.77553 0.0153222 0.0147488   -0.0208227 -0.149477 0.298883  -0.239274 -0.648274 -0.251341 0.677729   -1.24878 -1.71552 -0.704956  -0.173035 6.09106 -1.66113   -0.49426 -0.082633 0.707272  0.564576 0.578447 -0.588773 0.435013 -0.814753 -0.383329 -0.70144 -0.0397053 -0.711622   80.0138 80.0138 80.0138 4.80083 4.80083 4.80083  0 0 0 0 0 0   0.737362 0.411729 -0.67298 0.00126419 -2.68346 -1.45939 -0.907849 
 1.78552 0.0153222 0.0147488   -0.0208227 -0.149477 0.298883  -0.239274 -0.648274 -0.251341 0.677729   -1.28662 -2.66858 -0.469971  -0.667419 6.24084 -1.74316   -0.494499 -0.0826567 0.708592  0.562641 0.579324 -0.589761 0.433777 -0.814179 -0.385941 -0.703756 -0.0386787 -0.709388   80.0138 80.0138 80.0138 4.80083 4.80083 4.80083  0 0 0 0 0 0   0.737362 0.411729 -0.67298 0.00126419 -2.68346 -1.45939 -0.907849 
 1.79553 0.0153222 0.0147488   -0.0208227 -0.149477 0.298883  -0.239274 -0.648274 -0.251341 0.677729   -0.964966 -2.73212 -0.892944  -0.6427 5.84143 -1.8252   -0.494733 -0.082663 0.709892  0.560807 0.580079 -0.590766 0.432449 -0.813691 -0.388453 -0.706034 -0.0376291 -0.707177   80.0138 80.0138 80.0138 4.80083 4.80083 4.80083  0 0 0 0 0 0   0.737362 0.411729 -0.67298 0.00126419 -2.68346 -1.45939 -0.907849 
 1.80553 0.0153222 0.0147488   -0.0208227 -0.149477 0.298883  -0.239274 -0.648274 -0.251341 0.677729   -1.57043 -2.94391 -0.845947  -0.840454 6.56537 -1.8252   -0.494951 -0.0826392 0.711243  0.558945 0.580777 -0.591843 0.431021 -0.813241 -0.390973 -0.708379 -0.0365649 -0.704884   80.0138 80.0138 80.0138 4.80083 4.80083 4.80083  0 0 0 0 0 0   0.737362 0.411729 -0.67298 0.00126419 -2.68346 -1.45939 -0.907849 
 1.81555 0.0153222 0.0147488   -0.0208227 -0.149477 0.298883  -0.239274 -0.648274 -0.251341 0.677729   -2.02454 -3.11334 -0.610962  -0.791016 6.83997 -1.90723   -0.495149 -0.0825861 0.712583  0.557109 0.581466 -0.592897 0.429593 -0.812796 -0.393462 -0.71069 -0.035503 -0.702609   80.0138 80.0138 80.0138 4.80083 4.80083 4.80083  0 0 0 0 0 0   0.737362 0.411729 -0.67298 0.00126419 -2.68346 -1.45939 -0.907849 
 1.82553 0.0153222 0.0147488   -0.0208227 -0.149477 0.298883  -0.239274 -0.648274 -0.251341 0.677729   -1.51367 -2.94391 -0.469971  -0.692139 6.83997 -1.8252   -0.495352 -0.0825589 0.7138  0.555374 0.582264 -0.593741 0.428346 -0.812269 -0.395902 -0.712797 -0.0344526 -0.700524   80.0138 80.0138 80.0138 4.80083 4.80083 4.80083  0 0 0 0 0 0   0.737362 0.411729 -0.67298 0.00126419 -2.68346 -1.45939 -0.907849 
 1.83553 0.0153222 0.0147488   -0.0208227 -0.149477 0.298883  -0.239274 -0.648274 -0.251341 0.677729   -1.57043 -2.94391 -1.03394  -0.667419 6.93982 -1.98926   -0.495541 -0.0824794 0.715012  0.553714 0.582966 -0.594602 0.427008 -0.811811 -0.39828 -0.714889 -0.0333666 -0.698442   80.0138 80.0138 80.0138 4.80083 4.80083 4.80083  0 0 0 0 0 0   0.737362 0.411729 -0.67298 0.00126419 -2.68346 -1.45939 -0.907849 
 1.84553 0.0153222 0.0147488   -0.0208227 -0.149477 0.298883  -0.239274 -0.648274 -0.251341 0.677729   -1.41907 -2.94391 -1.22192  -0.667419 7.03967 -1.98926   -0.495729 -0.0823693 0.716175  0.552208 0.583545 -0.595434 0.425591 -0.811441 -0.400545 -0.716896 -0.032227 -0.696435   80.0138 80.0138 80.0138 4.80083 4.80083 4.80083  0 0 0 0 0 0   0.737362 0.411729 -0.67298 0.00126419 -2.68346 -1.45939 -0.907849 
 1.85554 0.0153222 0.0147488   -0.0208227 -0.149477 0.298883  -0.239274 -0.648274 -0.251341 0.677729   -1.68396 -3.72754 -0.79895  -1.26068 7.18945 -1.90723   -0.495903 -0.0822355 0.717367  0.55073 0.584 -0.596356 0.424058 -0.811158 -0.402738 -0.718938 -0.0310894 -0.694379   80.0138 80.0138 80.0138 4.80083 4.80083 4.80083  0 0 0 0 0 0   0.737362 0.411729 -0.67298 0.00126419 -2.68346 -1.45939 -0.907849 
 1.86553 0.0153222 0.0147488   -0.0208227 -0.149477 0.298883  -0.239274 -0.648274 -0.251341 0.677729   -1.83533 -3.72754 -0.986938  -1.11237 7.38916 -2.07129   -0.496054 -0.0820281 0.718583  0.549329 0.584307 -0.597347 0.422369 -0.810982 -0.404861 -0.721001 -0.0298996 -0.692289   80.0138 80.0138 80.0138 4.80083 4.80083 4.80083  0 0 0 0 0 0   0.737362 0.411729 -0.67298 0.00126419 -2.68346 -1.45939 -0.907849 
 1.87553 0.0155939 0.0171192   -0.024227 -0.153641 0.296636  -0.689158 -0.393033 0.359001 -0.491635   -2.28943 -3.91815 -1.31592  -1.1618 7.68872 -1.90723   -0.496195 -0.0818344 0.719762  0.547958 0.584613 -0.598306 0.420743 -0.810802 -0.406909 -0.722992 -0.0287642 -0.690257   104.604 104.604 104.604 6.27624 6.27624 6.27624  0 0 0 0 0 0   0.737362 0.411729 -0.67298 0.00126419 -2.68346 -1.45939 -0.907849 
 1.88553 0.0155939 0.0171192   -0.024227 -0.153641 0.296636  -0.689158 -0.393033 0.359001 -0.491635   -1.75964 -3.81226 -0.79895  -1.11237 7.38916 -1.98926   -0.496343 -0.0816145 0.720824  0.546798 0.584866 -0.599119 0.419144 -0.810662 -0.408836 -0.724797 -0.0275666 -0.688411   104.604 104.604 104.604 6.27624 6.27624 6.27624  0 0 0 0 0 0   0.737362 0.411729 -0.67298 0.00126419 -2.68346 -1.45939 -0.907849 
 1.89553 0.0155939 0.0171192   -0.024227 -0.153641 0.296636  -0.689158 -0.393033 0.359001 -0.491635   -1.47583 -3.45221 -0.610962  -0.939331 7.16449 -2.07129   -0.496477 -0.0813059 0.721868  0.545813 0.584915 -0.599969 0.41737 -0.810669 -0.410632 -0.726561 -0.0262808 -0.686599   104.604 104.604 104.604 6.27624 6.27624 6.27624  0 0 0 0 0 0   0.737362 0.411729 -0.67298 0.00126419 -2.68346 -1.45939 -0.907849 
 1.90553 0.0155939 0.0171192   -0.024227 -0.153641 0.296636  -0.689158 -0.393033 0.359001 -0.491635   -1.58936 -4.29938 -0.610962  -1.33484 7.21442 -2.15332   -0.496603 -0.0809567 0.722896  0.544946 0.58481 -0.600858 0.415481 -0.810786 -0.412312 -0.728292 -0.0249574 -0.684812   104.604 104.604 104.604 6.27624 6.27624 6.27624  0 0 0 0 0 0   0.737362 0.411729 -0.67298 0.00126419 -2.68346 -1.45939 -0.907849 
 1.91553 0.0155939 0.0171192   -0.024227 -0.153641 0.296636  -0.689158 -0.393033 0.359001 -0.491635   -1.11633 -4.44763 -0.986938  -1.60675 6.83997 -2.23535   -0.496727 -0.0805859 0.723882  0.544217 0.584578 -0.601745 0.413519 -0.810994 -0.413873 -0.729952 -0.0235962 -0.683091   104.604 104.604 104.604 6.27624 6.27624 6.27624  0 0 0 0 0 0   0.737362 0.411729 -0.67298 0.00126419 -2.68346 -1.45939 -0.907849 
 1.92553 0.0155939 0.0171192   -0.024227 -0.153641 0.296636  -0.689158 -0.393033 0.359001 -0.491635   -1.22986 -4.02405 -1.17493  -1.26068 7.11456 -2.31738   -0.496825 -0.0801665 0.724899  0.543498 0.584257 -0.602706 0.411475 -0.811264 -0.415378 -0.731641 -0.0222414 -0.681328   104.604 104.604 104.604 6.27624 6.27624 6.27624  0 0 0 0 0 0   0.737362 0.411729 -0.67298 0.00126419 -2.68346 -1.45939 -0.907849 
 1.93553 0.0155939 0.0171192   -0.024227 -0.153641 0.296636  -0.689158 -0.393033 0.359001 -0.491635   -1.89209 -4.57471 -0.939941  -1.48315 7.71368 -2.31738   -0.496913 -0.079735 0.725915  0.542786 0.583916 -0.603677 0.40943 -0.811545 -0.416847 -0.733315 -0.0209052 -0.679568   104.604 104.604 104.604 6.27624 6.27624 6.27624  0 0 0 0 0 0   0.737362 0.411729 -0.67298 0.00126419 -2.68346 -1.45939 -0.907849 
 1.94554 0.0155939 0.0171192   -0.024227 -0.153641 0.296636  -0.689158 -0.393033 0.359001 -0.491635   -1.41907 -4.46881 -0.610962  -1.55731 7.13953 -2.39941   -0.496997 -0.0792441 0.726882  0.5422 0.583514 -0.604591 0.407347 -0.811869 -0.418256 -0.734906 -0.0194995 -0.677888   104.604 104.604 104.604 6.27624 6.27624 6.27624  0 0 0 0 0 0   0.737362 0.411729 -0.67298 0.00126419 -2.68346 -1.45939 -0.907849 
 1.95553 0.0155939 0.0171192   -0.024227 -0.153641 0.296636  -0.689158 -0.393033 0.359001 -0.491635   -1.2677 -4.55353 -0.610962  -1.53259 7.33923 -2.23535   -0.497066 -0.0786776 0.727808  0.54175 0.583016 -0.605475 0.405211 -0.81226 -0.419568 -0.736418 -0.0180439 -0.676286   104.604 104.604 104.604 6.27624 6.27624 6.27624  0 0 0 0 0 0   0.737362 0.411729 -0.67298 0.00126419 -2.68346 -1.45939 -0.907849 
 1.96553 0.0155939 0.0171192   -0.024227 -0.153641 0.296636  -0.689158 -0.393033 0.359001 -0.491635   -1.40015 -5.14655 -0.986938  -1.75507 7.23938 -2.23535   -0.497139 -0.0781089 0.728676  0.541379 0.582505 -0.606297 0.403121 -0.812657 -0.42081 -0.737836 -0.0165933 -0.674776   104.604 104.604 104.604 6.27624 6.27624 6.27624  0 0 0 0 0 0   0.737362 0.411729 -0.67298 0.00126419 -2.68346 -1.45939 -0.907849 
 1.97553 0.015699 0.0190166   -0.026609 -0.149735 0.301963  -0.689995 -0.390793 0.35138 -0.497715   -1.05957 -4.53235 -0.79895  -1.35956 7.11456 -2.31738   -0.497194 -0.0774691 0.729519  0.541111 0.581918 -0.6071 0.400976 -0.813107 -0.421989 -0.7392 -0.0150898 -0.673317   124.289 124.289 124.289 7.45732 7.45732 7.45732  0 0 0 0 0 0   0.737362 0.411729 -0.67298 0.00126419 -2.68346 -1.45939 -0.907849 
 1.98553 0.015699 0.0190166   -0.026609 -0.149735 0.301963  -0.689995 -0.390793 0.35138 -0.497715   -1.57043 -4.97711 -0.422974  -1.50787 7.41412 -2.31738   -0.497228 -0.076796 0.730383  0.540833 0.581288 -0.607951 0.398796 -0.813584 -0.423134 -0.740582 -0.0136037 -0.671829   124.289 124.289 124.289 7.45732 7.45732 7.45732  0 0 0 0 0 0   0.737362 0.411729 -0.67298 0.00126419 -2.68346 -1.45939 -0.907849 
 1.99553 0.015699 0.0190166   -0.026609 -0.149735 0.301963  -0.689995 -0.390793 0.35138 -0.497715   -0.83252 -4.61707 -1.17493  -1.38428 7.01471 -2.48145   -0.497259 -0.0760783 0.731189  0.540681 0.580623 -0.608721 0.396616 -0.814083 -0.424222 -0.741862 -0.0120599 -0.670444   124.289 124.289 124.289 7.45732 7.45732 7.45732  0 0 0 0 0 0   0.737362 0.411729 -0.67298 0.00126419 -2.68346 -1.45939 -0.907849 
 2.00553 0.015699 0.0190166   -0.026609 -0.149735 0.301963  -0.689995 -0.390793 0.35138 -0.497715   -1.49475 -4.80768 -0.610962  -1.43372 7.31427 -2.48145   -0.49727 -0.0752925 0.732016  0.540559 0.579858 -0.609558 0.394347 -0.81465 -0.425249 -0.74316 -0.0105051 -0.669031   124.289 124.289 124.289 7.45732 7.45732 7.45732  0 0 0 0 0 0   0.737362 0.411729 -0.67298 0.00126419 -2.68346 -1.45939 -0.907849 
 2.01553 0.015699 0.0190166   -0.026609 -0.149735 0.301963  -0.689995 -0.390793 0.35138 -0.497715   -1.09741 -5.06183 -1.36292  -1.53259 7.23938 -2.48145   -0.497275 -0.0744885 0.732806  0.540497 0.579066 -0.610365 0.392105 -0.815232 -0.426206 -0.74439 -0.00896415 -0.667685   124.289 124.289 124.289 7.45732 7.45732 7.45732  0 0 0 0 0 0   0.737362 0.411729 -0.67298 0.00126419 -2.68346 -1.45939 -0.907849 
 2.02553 0.015699 0.0190166   -0.026609 -0.149735 0.301963  -0.689995 -0.390793 0.35138 -0.497715   -1.41907 -4.97711 -0.939941  -1.63147 7.43909 -2.56348   -0.497269 -0.073619 0.733596  0.5405 0.578199 -0.611184 0.38978 -0.815863 -0.427129 -0.745608 -0.0073644 -0.666344   124.289 124.289 124.289 7.45732 7.45732 7.45732  0 0 0 0 0 0   0.737362 0.411729 -0.67298 0.00126419 -2.68346 -1.45939 -0.907849 
 2.03556 0.015699 0.0190166   -0.026609 -0.149735 0.301963  -0.689995 -0.390793 0.35138 -0.497715   -1.57043 -5.16772 -0.375977  -1.55731 7.8385 -2.39941   -0.497259 -0.0727178 0.734366  0.540559 0.577287 -0.611993 0.387436 -0.816521 -0.428003 -0.746786 -0.00574725 -0.66504   124.289 124.289 124.289 7.45732 7.45732 7.45732  0 0 0 0 0 0   0.737362 0.411729 -0.67298 0.00126419 -2.68346 -1.45939 -0.907849 
 2.04554 0.015699 0.0190166   -0.026609 -0.149735 0.301963  -0.689995 -0.390793 0.35138 -0.497715   -1.28662 -4.8924 -0.986938  -1.26068 7.81354 -2.48145   -0.497253 -0.071781 0.735107  0.540698 0.576341 -0.612762 0.385056 -0.817199 -0.428855 -0.747916 -0.00406682 -0.663781   124.289 124.289 124.289 7.45732 7.45732 7.45732  0 0 0 0 0 0   0.737362 0.411729 -0.67298 0.00126419 -2.68346 -1.45939 -0.907849 
 2.05553 0.015699 0.0190166   -0.026609 -0.149735 0.301963  -0.689995 -0.390793 0.35138 -0.497715   -2.32727 -4.95593 -1.08093  -1.35956 8.51251 -2.50195   -0.497238 -0.0707984 0.735838  0.540893 0.575339 -0.61353 0.382626 -0.817912 -0.429671 -0.74902 -0.00234631 -0.662543   124.289 124.289 124.289 7.45732 7.45732 7.45732  0 0 0 0 0 0   0.737362 0.411729 -0.67298 0.00126419 -2.68346 -1.45939 -0.907849 
 2.0655 0.015699 0.0190166   -0.026609 -0.149735 0.301963  -0.689995 -0.390793 0.35138 -0.497715   -2.11914 -4.93475 -1.12793  -1.06293 8.48755 -2.39941   -0.497232 -0.0697996 0.736524  0.541171 0.57432 -0.61424 0.38021 -0.818631 -0.430446 -0.75005 -0.000595709 -0.661381   124.289 124.289 124.289 7.45732 7.45732 7.45732  0 0 0 0 0 0   0.737362 0.411729 -0.67298 0.00126419 -2.68346 -1.45939 -0.907849 
 2.07553 0.0162156 0.0228131   -0.0312552 -0.145486 0.311695  -0.229369 -0.68317 -0.226831 0.655146   -1.83533 -4.59589 -1.36292  -0.766296 8.46259 -2.39941   -0.497228 -0.0687579 0.73715  0.541575 0.573246 -0.614887 0.377787 -0.819383 -0.431149 -0.750982 0.00120296 -0.660322   163.674 163.674 163.674 9.82047 9.82047 9.82047  0 0 0 0 0 0   0.737362 0.411729 -0.67298 0.00126419 -2.68346 -1.45939 -0.907849 
 2.08553 0.0162156 0.0228131   -0.0312552 -0.145486 0.311695  -0.229369 -0.68317 -0.226831 0.655146   -2.27051 -4.87122 -1.50391  -0.914612 8.66229 -2.31738   -0.497219 -0.0676713 0.737759  0.542041 0.572116 -0.615529 0.375323 -0.820167 -0.431808 -0.751881 0.00303538 -0.659292   163.674 163.674 163.674 9.82047 9.82047 9.82047  0 0 0 0 0 0   0.737362 0.411729 -0.67298 0.00126419 -2.68346 -1.45939 -0.907849 
 2.09553 0.0162156 0.0228131   -0.0312552 -0.145486 0.311695  -0.229369 -0.68317 -0.226831 0.655146   -2.34619 -4.95593 -1.12793  -0.865173 8.96185 -2.25586   -0.497214 -0.0665829 0.73832  0.542573 0.57098 -0.616114 0.372905 -0.82095 -0.432416 -0.752699 0.00486535 -0.658346   163.674 163.674 163.674 9.82047 9.82047 9.82047  0 0 0 0 0 0   0.737362 0.411729 -0.67298 0.00126419 -2.68346 -1.45939 -0.907849 
 2.10552 0.0162156 0.0228131   -0.0312552 -0.145486 0.311695  -0.229369 -0.68317 -0.226831 0.655146   -2.51648 -4.7865 -1.12793  -0.766296 9.06171 -2.25586   -0.497207 -0.0654446 0.738853  0.543196 0.569785 -0.616671 0.370436 -0.821766 -0.432987 -0.753469 0.00675985 -0.657449   163.674 163.674 163.674 9.82047 9.82047 9.82047  0 0 0 0 0 0   0.737362 0.411729 -0.67298 0.00126419 -2.68346 -1.45939 -0.907849 
 2.11553 0.0162156 0.0228131   -0.0312552 -0.145486 0.311695  -0.229369 -0.68317 -0.226831 0.655146   -1.89209 -5.10419 -1.36292  -0.914612 8.66229 -2.23535   -0.497199 -0.0642814 0.739336  0.543907 0.568554 -0.61718 0.367991 -0.8226 -0.433488 -0.754154 0.00866076 -0.656641   163.674 163.674 163.674 9.82047 9.82047 9.82047  0 0 0 0 0 0   0.737362 0.411729 -0.67298 0.00126419 -2.68346 -1.45939 -0.907849 
 2.12553 0.0162156 0.0228131   -0.0312552 -0.145486 0.311695  -0.229369 -0.68317 -0.226831 0.655146   -2.36511 -4.53235 -1.17493  -0.469666 8.93689 -2.07129   -0.497185 -0.0630703 0.739791  0.544701 0.567263 -0.617668 0.365511 -0.823469 -0.433936 -0.754786 0.0106009 -0.655885   163.674 163.674 163.674 9.82047 9.82047 9.82047  0 0 0 0 0 0   0.737362 0.411729 -0.67298 0.00126419 -2.68346 -1.45939 -0.907849 
 2.13553 0.0162156 0.0228131   -0.0312552 -0.145486 0.311695  -0.229369 -0.68317 -0.226831 0.655146   -2.8949 -4.74414 -1.31592  -0.494385 9.43616 -2.17383   -0.497159 -0.0618502 0.740226  0.545521 0.565952 -0.618147 0.363061 -0.824343 -0.434333 -0.755376 0.012513 -0.655172   163.674 163.674 163.674 9.82047 9.82047 9.82047  0 0 0 0 0 0   0.737362 0.411729 -0.67298 0.00126419 -2.68346 -1.45939 -0.907849 
 2.14553 0.0162156 0.0228131   -0.0312552 -0.145486 0.311695  -0.229369 -0.68317 -0.226831 0.655146   -2.8949 -4.72296 -1.31592  -0.420227 9.31134 -2.00977   -0.497142 -0.0606226 0.740604  0.546428 0.564628 -0.618556 0.360645 -0.825219 -0.434682 -0.755878 0.0144432 -0.654553   163.674 163.674 163.674 9.82047 9.82047 9.82047  0 0 0 0 0 0   0.737362 0.411729 -0.67298 0.00126419 -2.68346 -1.45939 -0.907849 
 2.15555 0.0162156 0.0228131   -0.0312552 -0.145486 0.311695  -0.229369 -0.68317 -0.226831 0.655146   -2.74353 -4.80768 -1.31592  -0.395508 9.41119 -2.00977   -0.497124 -0.059382 0.740938  0.547401 0.563281 -0.618924 0.358264 -0.826103 -0.434972 -0.756306 0.0163656 -0.654013   163.674 163.674 163.674 9.82047 9.82047 9.82047  0 0 0 0 0 0   0.737362 0.411729 -0.67298 0.00126419 -2.68346 -1.45939 -0.907849 
 2.16554 0.0162156 0.0228131   -0.0312552 -0.145486 0.311695  -0.229369 -0.68317 -0.226831 0.655146   -2.91382 -4.65942 -1.31592  -0.271912 9.71075 -2.00977   -0.497097 -0.0580939 0.741245  0.548458 0.561873 -0.619268 0.355841 -0.82702 -0.435218 -0.756684 0.0183376 -0.653524   163.674 163.674 163.674 9.82047 9.82047 9.82047  0 0 0 0 0 0   0.737362 0.411729 -0.67298 0.00126419 -2.68346 -1.45939 -0.907849 
 2.17552 0.017048 0.0294176   -0.0393791 -0.142467 0.32207  -0.682428 -0.376634 0.319609 -0.538784   -3.06519 -4.74414 -1.69189  -0.222473 9.6109 -1.92773   -0.497074 -0.0568186 0.7415  0.549567 0.56047 -0.619556 0.353492 -0.827926 -0.43541 -0.75698 0.0202793 -0.653123   232.191 232.191 232.191 13.9315 13.9315 13.9315  0 0 0 0 0 0   0.737362 0.411729 -0.67298 0.00126419 -2.68346 -1.45939 -0.907849 
 2.18553 0.017048 0.0294176   -0.0393791 -0.142467 0.32207  -0.682428 -0.376634 0.319609 -0.538784   -3.27332 -4.76532 -1.69189  -0.32135 9.81061 -1.92773   -0.49705 -0.0555403 0.741712  0.550733 0.559054 -0.6198 0.351189 -0.828834 -0.435546 -0.757205 0.0222027 -0.6528   232.191 232.191 232.191 13.9315 13.9315 13.9315  0 0 0 0 0 0   0.737362 0.411729 -0.67298 0.00126419 -2.68346 -1.45939 -0.907849 
 2.19553 0.017048 0.0294176   -0.0393791 -0.142467 0.32207  -0.682428 -0.376634 0.319609 -0.538784   -3.82202 -4.61707 -1.45691  -0.247192 10.4097 -1.8457   -0.497019 -0.0542539 0.741901  0.551937 0.557621 -0.62002 0.348905 -0.829745 -0.435647 -0.757385 0.0241219 -0.652523   232.191 232.191 232.191 13.9315 13.9315 13.9315  0 0 0 0 0 0   0.737362 0.411729 -0.67298 0.00126419 -2.68346 -1.45939 -0.907849 
 2.20553 0.017048 0.0294176   -0.0393791 -0.142467 0.32207  -0.682428 -0.376634 0.319609 -0.538784   -4.10583 -5.23126 -1.40991  -0.395508 10.7093 -1.68164   -0.496996 -0.0530125 0.742049  0.55316 0.556232 -0.620177 0.346737 -0.830621 -0.435709 -0.757487 0.0259786 -0.652333   232.191 232.191 232.191 13.9315 13.9315 13.9315  0 0 0 0 0 0   0.737362 0.411729 -0.67298 0.00126419 -2.68346 -1.45939 -0.907849 
 2.21553 0.017048 0.0294176   -0.0393791 -0.142467 0.32207  -0.682428 -0.376634 0.319609 -0.538784   -4.20044 -4.63824 -1.6449  0.0494385 10.884 -1.76367   -0.496972 -0.0517363 0.742174  0.55446 0.554799 -0.6203 0.344538 -0.831517 -0.435744 -0.75754 0.0278865 -0.652192   232.191 232.191 232.191 13.9315 13.9315 13.9315  0 0 0 0 0 0   0.737362 0.411729 -0.67298 0.00126419 -2.68346 -1.45939 -0.907849 
 2.22552 0.017048 0.0294176   -0.0393791 -0.142467 0.32207  -0.682428 -0.376634 0.319609 -0.538784   -4.35181 -4.65942 -1.45691  0.0494385 10.884 -1.68164   -0.496944 -0.0504521 0.742276  0.555803 0.553346 -0.620396 0.342354 -0.832418 -0.435744 -0.757546 0.029793 -0.652101   232.191 232.191 232.191 13.9315 13.9315 13.9315  0 0 0 0 0 0   0.737362 0.411729 -0.67298 0.00126419 -2.68346 -1.45939 -0.907849 
 2.23553 0.017048 0.0294176   -0.0393791 -0.142467 0.32207  -0.682428 -0.376634 0.319609 -0.538784   -4.33289 -4.99829 -1.5979  -0.148315 10.9839 -1.68164   -0.496931 -0.0491787 0.742318  0.557236 0.551903 -0.620395 0.340224 -0.833305 -0.435719 -0.757453 0.0317249 -0.652118   232.191 232.191 232.191 13.9315 13.9315 13.9315  0 0 0 0 0 0   0.737362 0.411729 -0.67298 0.00126419 -2.68346 -1.45939 -0.907849 
 2.24555 0.017048 0.0294176   -0.0393791 -0.142467 0.32207  -0.682428 -0.376634 0.319609 -0.538784   -4.48425 -5.25244 -1.40991  -0.444946 11.0338 -1.68164   -0.496912 -0.0478926 0.742334  0.558741 0.550435 -0.620346 0.338125 -0.834199 -0.435641 -0.757285 0.0336561 -0.652217   232.191 232.191 232.191 13.9315 13.9315 13.9315  0 0 0 0 0 0   0.737362 0.411729 -0.67298 0.00126419 -2.68346 -1.45939 -0.907849 
 2.25552 0.017048 0.0294176   -0.0393791 -0.142467 0.32207  -0.682428 -0.376634 0.319609 -0.538784   -4.57886 -4.76532 -1.5979  -0.098877 11.1836 -1.59961   -0.496884 -0.0465754 0.742333  0.560319 0.54892 -0.620266 0.336012 -0.835116 -0.435519 -0.757059 0.0356128 -0.652375   232.191 232.191 232.191 13.9315 13.9315 13.9315  0 0 0 0 0 0   0.737362 0.411729 -0.67298 0.00126419 -2.68346 -1.45939 -0.907849 
 2.26554 0.017048 0.0294176   -0.0393791 -0.142467 0.32207  -0.682428 -0.376634 0.319609 -0.538784   -4.7113 -5.10419 -1.78589  -0.197754 11.3084 -1.62012   -0.496863 -0.0452744 0.742292  0.561953 0.547416 -0.620117 0.333957 -0.836017 -0.435371 -0.756757 0.0375651 -0.652616   232.191 232.191 232.191 13.9315 13.9315 13.9315  0 0 0 0 0 0   0.737362 0.411729 -0.67298 0.00126419 -2.68346 -1.45939 -0.907849 
 2.27553 0.0166719 0.0622818   0.128807 0.0277087 -0.338219  0.152626 -0.892169 -0.408392 -0.118132   -4.63562 -5.27362 -1.5979  -0.32135 11.1087 -1.70215   -0.496841 -0.0439621 0.742209  0.563678 0.545888 -0.619897 0.331936 -0.836925 -0.435173 -0.756363 0.0395311 -0.652956   573.131 573.131 573.131 34.3879 34.3879 34.3879  0 0 0 0 0 0   0.737362 0.411729 -0.67298 0.00126419 -2.68346 -1.45939 -0.907849 
 2.28553 0.0166719 0.0622818   0.128807 0.0277087 -0.338219  0.152626 -0.892169 -0.408392 -0.118132   -5.10864 -4.76532 -1.5979  -0.0741577 11.3833 -1.62012   -0.496812 -0.042641 0.742125  0.565431 0.544341 -0.619662 0.329925 -0.837838 -0.434946 -0.755935 0.0414906 -0.653331   573.131 573.131 573.131 34.3879 34.3879 34.3879  0 0 0 0 0 0   0.737362 0.411729 -0.67298 0.00126419 -2.68346 -1.45939 -0.907849 
 2.29553 0.0166719 0.0622818   0.128807 0.0277087 -0.338219  0.152626 -0.892169 -0.408392 -0.118132   -5.01404 -5.04065 -1.5979  -0.148315 11.4832 -1.45605   -0.496787 -0.0413904 0.741999  0.567231 0.542864 -0.619312 0.328095 -0.8387 -0.434667 -0.755383 0.0433638 -0.653848   573.131 573.131 573.131 34.3879 34.3879 34.3879  0 0 0 0 0 0   0.737362 0.411729 -0.67298 0.00126419 -2.68346 -1.45939 -0.907849 
 2.30554 0.0166719 0.0622818   0.128807 0.0277087 -0.338219  0.152626 -0.892169 -0.408392 -0.118132   -4.86267 -5.1889 -1.40991  -0.197754 11.2834 -1.62012   -0.496756 -0.0401465 0.741851  0.569125 0.541383 -0.618871 0.326339 -0.839558 -0.434332 -0.754718 0.0452275 -0.654488   573.131 573.131 573.131 34.3879 34.3879 34.3879  0 0 0 0 0 0   0.737362 0.411729 -0.67298 0.00126419 -2.68346 -1.45939 -0.907849 
 2.31554 0.0166719 0.0622818   0.128807 0.0277087 -0.338219  0.152626 -0.892169 -0.408392 -0.118132   -5.16541 -5.2948 -1.17493  -0.271912 11.4083 -1.62012   -0.496715 -0.0388947 0.741676  0.571131 0.539877 -0.618338 0.324651 -0.840426 -0.433919 -0.75393 0.0470801 -0.655265   573.131 573.131 573.131 34.3879 34.3879 34.3879  0 0 0 0 0 0   0.737362 0.411729 -0.67298 0.00126419 -2.68346 -1.45939 -0.907849 
 2.32553 0.0166719 0.0622818   0.128807 0.0277087 -0.338219  0.152626 -0.892169 -0.408392 -0.118132   -5.24109 -5.2948 -1.5509  -0.370789 11.5081 -1.70215   -0.496674 -0.0376654 0.741446  0.573261 0.53838 -0.617673 0.323086 -0.841282 -0.433428 -0.752986 0.0489054 -0.656217   573.131 573.131 573.131 34.3879 34.3879 34.3879  0 0 0 0 0 0   0.737362 0.411729 -0.67298 0.00126419 -2.68346 -1.45939 -0.907849 
 2.33553 0.0166719 0.0622818   0.128807 0.0277087 -0.338219  0.152626 -0.892169 -0.408392 -0.118132   -6.07361 -5.06183 -1.50391  -0.197754 12.0823 -1.53809   -0.496638 -0.0364365 0.741193  0.575393 0.536876 -0.616999 0.32151 -0.842134 -0.432945 -0.752033 0.0507425 -0.657169   573.131 573.131 573.131 34.3879 34.3879 34.3879  0 0 0 0 0 0   0.737362 0.411729 -0.67298 0.00126419 -2.68346 -1.45939 -0.907849 
 2.34553 0.0166719 0.0622818   0.128807 0.0277087 -0.338219  0.152626 -0.892169 -0.408392 -0.118132   -6.14929 -5.33716 -1.87988  -0.346069 12.2071 -1.62012   -0.496602 -0.0352447 0.740903  0.577528 0.535399 -0.616287 0.320037 -0.842966 -0.432417 -0.751024 0.0524979 -0.658184   573.131 573.131 573.131 34.3879 34.3879 34.3879  0 0 0 0 0 0   0.737362 0.411729 -0.67298 0.00126419 -2.68346 -1.45939 -0.907849 
 2.35554 0.0166719 0.0622818   0.128807 0.0277087 -0.338219  0.152626 -0.892169 -0.408392 -0.118132   -5.92224 -5.23126 -1.50391  -0.197754 11.9824 -1.70215   -0.496557 -0.0340951 0.740571  0.579771 0.533952 -0.615435 0.318743 -0.843778 -0.43179 -0.749846 0.0541737 -0.659391   573.131 573.131 573.131 34.3879 34.3879 34.3879  0 0 0 0 0 0   0.737362 0.411729 -0.67298 0.00126419 -2.68346 -1.45939 -0.907849 
 2.36553 0.0166719 0.0622818   0.128807 0.0277087 -0.338219  0.152626 -0.892169 -0.408392 -0.118132   -5.69519 -5.21008 -1.36292  -0.148315 11.583 -1.62012   -0.496506 -0.0329566 0.740198  0.582157 0.532498 -0.614442 0.31757 -0.844589 -0.431068 -0.748494 0.0558211 -0.660788   573.131 573.131 573.131 34.3879 34.3879 34.3879  0 0 0 0 0 0   0.737362 0.411729 -0.67298 0.00126419 -2.68346 -1.45939 -0.907849 
 2.37553 0.0187017 0.0416421   -0.0535367 -0.135994 0.341539  -0.704205 0.55699 -0.327033 0.294799   -6.52771 -5.10419 -1.31592  -0.247192 12.1821 -1.45605   -0.496462 -0.0317986 0.739779  0.584602 0.531007 -0.61341 0.316373 -0.845414 -0.430329 -0.747093 0.0575043 -0.662227   359.01 359.01 359.01 21.5406 21.5406 21.5406  0 0 0 0 0 0   0.737362 0.411729 -0.67298 0.00126419 -2.68346 -1.45939 -0.907849 
 2.38553 0.0187017 0.0416421   -0.0535367 -0.135994 0.341539  -0.704205 0.55699 -0.327033 0.294799   -6.60339 -5.27362 -1.83289  -0.247192 12.1821 -1.53809   -0.496422 -0.0306167 0.739304  0.587112 0.529473 -0.612338 0.315154 -0.846257 -0.429566 -0.745639 0.0592231 -0.663713   359.01 359.01 359.01 21.5406 21.5406 21.5406  0 0 0 0 0 0   0.737362 0.411729 -0.67298 0.00126419 -2.68346 -1.45939 -0.907849 
 2.39553 0.0187017 0.0416421   -0.0535367 -0.135994 0.341539  -0.704205 0.55699 -0.327033 0.294799   -5.69519 -4.95593 -1.36292  -0.173035 11.4832 -1.53809   -0.496374 -0.0294501 0.738778  0.589772 0.527931 -0.611112 0.314075 -0.847101 -0.428691 -0.743994 0.060895 -0.665406   359.01 359.01 359.01 21.5406 21.5406 21.5406  0 0 0 0 0 0   0.737362 0.411729 -0.67298 0.00126419 -2.68346 -1.45939 -0.907849 
 2.40552 0.0187017 0.0416421   -0.0535367 -0.135994 0.341539  -0.704205 0.55699 -0.327033 0.294799   -6.67908 -5.27362 -0.939941  -0.271912 12.0823 -1.53809   -0.496319 -0.0283196 0.738242  0.592436 0.526415 -0.609841 0.313098 -0.847928 -0.42777 -0.742286 0.0624862 -0.667163   359.01 359.01 359.01 21.5406 21.5406 21.5406  0 0 0 0 0 0   0.737362 0.411729 -0.67298 0.00126419 -2.68346 -1.45939 -0.907849 
