SugeethGopinathan/ManipubalityHRI/data/test/test1.dat
 TimeStamp manip.manip_measure_out_port manip.force_transmission_out_port tt.outport_grip.position.x tt.outport_grip.position.y tt.outport_grip.position.z tt.outport_grip.orientation.x tt.outport_grip.orientation.y tt.outport_grip.orientation.z tt.outport_grip.orientation.w jr3.ForceTorqueOutputPort.forces.0 jr3.ForceTorqueOutputPort.forces.1 jr3.ForceTorqueOutputPort.forces.2 jr3.ForceTorqueOutputPort.torques.0 jr3.ForceTorqueOutputPort.torques.1 jr3.ForceTorqueOutputPort.torques.2 test.cart_pose_loop_out_port.p.X test.cart_pose_loop_out_port.p.Y test.cart_pose_loop_out_port.p.Z test.cart_pose_loop_out_port.M.X_x test.cart_pose_loop_out_port.M.X_y test.cart_pose_loop_out_port.M.X_z test.cart_pose_loop_out_port.M.Y_x test.cart_pose_loop_out_port.M.Y_y test.cart_pose_loop_out_port.M.Y_z test.cart_pose_loop_out_port.M.Z_x test.cart_pose_loop_out_port.M.Z_y test.cart_pose_loop_out_port.M.Z_z stiff.cart_stiffdamp_out_port.stiffness.0 stiff.cart_stiffdamp_out_port.stiffness.1 stiff.cart_stiffdamp_out_port.stiffness.2 stiff.cart_stiffdamp_out_port.stiffness.3 stiff.cart_stiffdamp_out_port.stiffness.4 stiff.cart_stiffdamp_out_port.stiffness.5 stiff.cart_stiffdamp_out_port.damping.0 stiff.cart_stiffdamp_out_port.damping.1 stiff.cart_stiffdamp_out_port.damping.2 stiff.cart_stiffdamp_out_port.damping.3 stiff.cart_stiffdamp_out_port.damping.4 stiff.cart_stiffdamp_out_port.damping.5 lwr.current_joint_values.angles.0 lwr.current_joint_values.angles.1 lwr.current_joint_values.angles.2 lwr.current_joint_values.angles.3 lwr.current_joint_values.angles.4 lwr.current_joint_values.angles.5 lwr.current_joint_values.angles.6
 7.15e-07 0.0171457 0.045833   0.0954952 0.0417621 -0.362298  0.229329 -0.121752 0.545014 -0.79721   -4.52209 1.46136 0.187988  4.77081 4.66815 0.820312   -0.522359 -0.0226742 0.63477  0.657625 0.685498 -0.312446 0.52017 -0.713188 -0.46988 -0.544934 0.146479 -0.825585   402.488 402.488 402.488 24.1493 24.1493 24.1493  0 0 0 0 0 0   0.737362 0.411729 -0.67298 0.00126419 -2.68346 -1.45939 -0.907849 
 0.019441 0.0171457 0.045833   0.0954952 0.0417621 -0.362298  0.229329 -0.121752 0.545014 -0.79721   -4.46533 1.46136 0.187988  4.89441 4.74304 0.738281   -0.522356 -0.0227218 0.634771  0.657561 0.685559 -0.312446 0.520235 -0.713139 -0.469881 -0.544948 0.14643 -0.825584   402.488 402.488 402.488 24.1493 24.1493 24.1493  0 0 0 0 0 0   0.737362 0.411729 -0.67298 0.00126419 -2.68346 -1.45939 -0.907849 
 0.0294408 0.0171457 0.045833   0.0954952 0.0417621 -0.362298  0.229329 -0.121752 0.545014 -0.79721   -4.59778 1.54608 0.375977  4.82025 4.86786 0.820312   -0.522355 -0.0227447 0.634771  0.657531 0.685587 -0.312447 0.520266 -0.713116 -0.469881 -0.544956 0.146406 -0.825584   402.488 402.488 402.488 24.1493 24.1493 24.1493  0 0 0 0 0 0   0.737362 0.411729 -0.67298 0.00126419 -2.68346 -1.45939 -0.907849 
 0.0394453 0.0171457 0.045833   0.0954952 0.0417621 -0.362298  0.229329 -0.121752 0.545014 -0.79721   -4.74915 1.5249 0.610962  4.82025 4.94275 0.820312   -0.522354 -0.0227679 0.634771  0.657501 0.685616 -0.312446 0.520298 -0.713094 -0.46988 -0.544961 0.146382 -0.825585   402.488 402.488 402.488 24.1493 24.1493 24.1493  0 0 0 0 0 0   0.737362 0.411729 -0.67298 0.00126419 -2.68346 -1.45939 -0.907849 
 0.0494394 0.0171457 0.045833   0.0954952 0.0417621 -0.362298  0.229329 -0.121752 0.545014 -0.79721   -4.82483 1.60962 0.422974  4.84497 5.0426 0.820312   -0.522353 -0.0227939 0.634771  0.657467 0.685649 -0.312446 0.520334 -0.713068 -0.46988 -0.544968 0.146354 -0.825585   402.488 402.488 402.488 24.1493 24.1493 24.1493  0 0 0 0 0 0   0.737362 0.411729 -0.67298 0.00126419 -2.68346 -1.45939 -0.907849 
 0.0594387 0.0158552 0.0376528   0.0830541 0.0383435 -0.355655  0.600111 0.407196 -0.607184 -0.324632   -4.82483 1.5249 0.422974  4.69666 4.86786 0.738281   -0.522352 -0.0228191 0.634771  0.657434 0.685681 -0.312446 0.520368 -0.713042 -0.46988 -0.544975 0.146328 -0.825585   317.625 317.625 317.625 19.0575 19.0575 19.0575  0 0 0 0 0 0   0.737362 0.411729 -0.67298 0.00126419 -2.68346 -1.45939 -0.907849 
 0.0694401 0.0158552 0.0376528   0.0830541 0.0383435 -0.355655  0.600111 0.407196 -0.607184 -0.324632   -4.6167 1.6308 0.187988  4.69666 4.86786 0.738281   -0.522351 -0.022845 0.63477  0.6574 0.685714 -0.312446 0.520404 -0.713017 -0.46988 -0.544982 0.1463 -0.825585   317.625 317.625 317.625 19.0575 19.0575 19.0575  0 0 0 0 0 0   0.737362 0.411729 -0.67298 0.00126419 -2.68346 -1.45939 -0.907849 
 0.0794429 0.0158552 0.0376528   0.0830541 0.0383435 -0.355655  0.600111 0.407196 -0.607184 -0.324632   -4.59778 1.54608 0.751953  4.77081 4.5683 0.738281   -0.52235 -0.0228699 0.63477  0.657368 0.685745 -0.312445 0.520438 -0.712992 -0.469879 -0.544988 0.146275 -0.825586   317.625 317.625 317.625 19.0575 19.0575 19.0575  0 0 0 0 0 0   0.737362 0.411729 -0.67298 0.00126419 -2.68346 -1.45939 -0.907849 
 0.0894391 0.0158552 0.0376528   0.0830541 0.0383435 -0.355655  0.600111 0.407196 -0.607184 -0.324632   -4.52209 1.71552 0.375977  4.77081 4.66815 0.738281   -0.522349 -0.0228965 0.63477  0.657333 0.685778 -0.312445 0.520475 -0.712965 -0.469879 -0.544995 0.146247 -0.825586   317.625 317.625 317.625 19.0575 19.0575 19.0575  0 0 0 0 0 0   0.737362 0.411729 -0.67298 0.00126419 -2.68346 -1.45939 -0.907849 
 0.0994459 0.0158552 0.0376528   0.0830541 0.0383435 -0.355655  0.600111 0.407196 -0.607184 -0.324632   -4.59778 1.54608 0.986938  4.57306 4.66815 0.738281   -0.522348 -0.0229241 0.63477  0.657296 0.685813 -0.312446 0.520513 -0.712938 -0.469879 -0.545004 0.146217 -0.825586   317.625 317.625 317.625 19.0575 19.0575 19.0575  0 0 0 0 0 0   0.737362 0.411729 -0.67298 0.00126419 -2.68346 -1.45939 -0.907849 
 0.109439 0.0158552 0.0376528   0.0830541 0.0383435 -0.355655  0.600111 0.407196 -0.607184 -0.324632   -4.44641 1.54608 0.751953  4.54834 4.46844 0.820312   -0.522347 -0.0229501 0.63477  0.657261 0.685846 -0.312446 0.520548 -0.712912 -0.469879 -0.545011 0.14619 -0.825586   317.625 317.625 317.625 19.0575 19.0575 19.0575  0 0 0 0 0 0   0.737362 0.411729 -0.67298 0.00126419 -2.68346 -1.45939 -0.907849 
 0.11945 0.0158552 0.0376528   0.0830541 0.0383435 -0.355655  0.600111 0.407196 -0.607184 -0.324632   -4.37073 1.48254 0.939941  4.4989 4.26874 0.820312   -0.522346 -0.0229739 0.63477  0.65723 0.685877 -0.312444 0.520581 -0.712887 -0.46988 -0.545017 0.146166 -0.825586   317.625 317.625 317.625 19.0575 19.0575 19.0575  0 0 0 0 0 0   0.737362 0.411729 -0.67298 0.00126419 -2.68346 -1.45939 -0.907849 
 0.129476 0.0158552 0.0376528   0.0830541 0.0383435 -0.355655  0.600111 0.407196 -0.607184 -0.324632   -4.20044 1.48254 0.375977  4.37531 3.99414 0.738281   -0.522345 -0.0229948 0.63477  0.657202 0.685903 -0.312448 0.520608 -0.712867 -0.46988 -0.545026 0.146143 -0.825584   317.625 317.625 317.625 19.0575 19.0575 19.0575  0 0 0 0 0 0   0.737362 0.411729 -0.67298 0.00126419 -2.68346 -1.45939 -0.907849 
 0.139429 0.0158552 0.0376528   0.0830541 0.0383435 -0.355655  0.600111 0.407196 -0.607184 -0.324632   -4.12476 1.31311 0.375977  4.35059 3.89429 0.738281   -0.522344 -0.0230154 0.63477  0.657175 0.685929 -0.312446 0.520637 -0.712846 -0.469882 -0.545031 0.146123 -0.825584   317.625 317.625 317.625 19.0575 19.0575 19.0575  0 0 0 0 0 0   0.737362 0.411729 -0.67298 0.00126419 -2.68346 -1.45939 -0.907849 
 0.149447 0.0158552 0.0376528   0.0830541 0.0383435 -0.355655  0.600111 0.407196 -0.607184 -0.324632   -3.97339 1.24957 0.187988  4.25171 3.69458 0.738281   -0.522343 -0.0230334 0.634771  0.65715 0.685952 -0.312447 0.520661 -0.712827 -0.469883 -0.545038 0.146105 -0.825583   317.625 317.625 317.625 19.0575 19.0575 19.0575  0 0 0 0 0 0   0.737362 0.411729 -0.67298 0.00126419 -2.68346 -1.45939 -0.907849 
 0.159464 0.0145817 0.0306623   0.0725532 0.0397253 -0.348753  -0.234244 0.14778 -0.573138 0.771235   -3.82202 1.16486 0.939941  4.20227 3.59473 0.820312   -0.522343 -0.0230529 0.634771  0.657124 0.685977 -0.312448 0.520687 -0.712808 -0.469883 -0.545044 0.146084 -0.825582   245.104 245.104 245.104 14.7062 14.7062 14.7062  0 0 0 0 0 0   0.737362 0.411729 -0.67298 0.00126419 -2.68346 -1.45939 -0.907849 
 0.169438 0.0145817 0.0306623   0.0725532 0.0397253 -0.348753  -0.234244 0.14778 -0.573138 0.771235   -3.72742 1.16486 0.563965  4.07867 3.41998 0.820312   -0.522342 -0.0230703 0.634772  0.6571 0.685999 -0.312449 0.520709 -0.71279 -0.469885 -0.545051 0.146066 -0.825581   245.104 245.104 245.104 14.7062 14.7062 14.7062  0 0 0 0 0 0   0.737362 0.411729 -0.67298 0.00126419 -2.68346 -1.45939 -0.907849 
 0.179438 0.0145817 0.0306623   0.0725532 0.0397253 -0.348753  -0.234244 0.14778 -0.573138 0.771235   -3.50037 1.18604 0.939941  4.15283 3.19531 0.820312   -0.522342 -0.0230817 0.634774  0.657083 0.686014 -0.312452 0.520723 -0.712778 -0.469889 -0.54506 0.146055 -0.825577   245.104 245.104 245.104 14.7062 14.7062 14.7062  0 0 0 0 0 0   0.737362 0.411729 -0.67298 0.00126419 -2.68346 -1.45939 -0.907849 
 0.189438 0.0145817 0.0306623   0.0725532 0.0397253 -0.348753  -0.234244 0.14778 -0.573138 0.771235   -3.349 0.953064 0.516968  4.10339 2.89575 0.738281   -0.522342 -0.0230897 0.634777  0.657069 0.686025 -0.312457 0.52073 -0.712769 -0.469894 -0.545069 0.146047 -0.825573   245.104 245.104 245.104 14.7062 14.7062 14.7062  0 0 0 0 0 0   0.737362 0.411729 -0.67298 0.00126419 -2.68346 -1.45939 -0.907849 
 0.199517 0.0145817 0.0306623   0.0725532 0.0397253 -0.348753  -0.234244 0.14778 -0.573138 0.771235   -3.27332 0.953064 0.516968  3.9798 2.82086 0.738281   -0.522342 -0.0230955 0.634783  0.657056 0.686034 -0.312466 0.520732 -0.712762 -0.469903 -0.545084 0.146041 -0.825564   245.104 245.104 245.104 14.7062 14.7062 14.7062  0 0 0 0 0 0   0.737362 0.411729 -0.67298 0.00126419 -2.68346 -1.45939 -0.907849 
 0.209439 0.0145817 0.0306623   0.0725532 0.0397253 -0.348753  -0.234244 0.14778 -0.573138 0.771235   -3.17871 0.78363 0.328979  3.9798 2.72101 0.65625   -0.522344 -0.0231001 0.634794  0.65704 0.686042 -0.312481 0.520727 -0.712755 -0.46992 -0.545107 0.146039 -0.825549   245.104 245.104 245.104 14.7062 14.7062 14.7062  0 0 0 0 0 0   0.737362 0.411729 -0.67298 0.00126419 -2.68346 -1.45939 -0.907849 
 0.219444 0.0145817 0.0306623   0.0725532 0.0397253 -0.348753  -0.234244 0.14778 -0.573138 0.771235   -3.17871 0.614197 0.892944  3.9798 2.72101 0.738281   -0.522346 -0.023104 0.634809  0.657022 0.68605 -0.312502 0.520717 -0.712747 -0.469941 -0.545138 0.146037 -0.825529   245.104 245.104 245.104 14.7062 14.7062 14.7062  0 0 0 0 0 0   0.737362 0.411729 -0.67298 0.00126419 -2.68346 -1.45939 -0.907849 
 0.229449 0.0145817 0.0306623   0.0725532 0.0397253 -0.348753  -0.234244 0.14778 -0.573138 0.771235   -3.04626 0.698914 0.516968  3.9798 2.62115 0.65625   -0.522349 -0.0231076 0.634824  0.657005 0.686058 -0.312522 0.520707 -0.71274 -0.469963 -0.545169 0.146036 -0.825509   245.104 245.104 245.104 14.7062 14.7062 14.7062  0 0 0 0 0 0   0.737362 0.411729 -0.67298 0.00126419 -2.68346 -1.45939 -0.907849 
 0.239475 0.0145817 0.0306623   0.0725532 0.0397253 -0.348753  -0.234244 0.14778 -0.573138 0.771235   -3.19763 0.698914 0.516968  4.07867 2.7959 0.65625   -0.522352 -0.0231115 0.634842  0.656984 0.686066 -0.312547 0.520694 -0.712732 -0.46999 -0.545206 0.146034 -0.825484   245.104 245.104 245.104 14.7062 14.7062 14.7062  0 0 0 0 0 0   0.737362 0.411729 -0.67298 0.00126419 -2.68346 -1.45939 -0.907849 
 0.249447 0.0145817 0.0306623   0.0725532 0.0397253 -0.348753  -0.234244 0.14778 -0.573138 0.771235   -3.27332 0.78363 0.516968  4.07867 2.7959 0.65625   -0.522354 -0.0231155 0.634863  0.656961 0.686076 -0.312573 0.520681 -0.712723 -0.470019 -0.545247 0.146034 -0.825458   245.104 245.104 245.104 14.7062 14.7062 14.7062  0 0 0 0 0 0   0.737362 0.411729 -0.67298 0.00126419 -2.68346 -1.45939 -0.907849 
 0.259505 0.0140434 0.0279208   0.0674226 0.0361811 -0.345356  0.601747 0.388421 -0.607416 -0.34362   -3.19763 0.868347 0.516968  4.17755 2.69604 0.65625   -0.522358 -0.0231208 0.634888  0.656932 0.686088 -0.312607 0.520664 -0.712712 -0.470054 -0.545297 0.146031 -0.825425   216.663 216.663 216.663 12.9998 12.9998 12.9998  0 0 0 0 0 0   0.737362 0.411729 -0.67298 0.00126419 -2.68346 -1.45939 -0.907849 
 0.269469 0.0140434 0.0279208   0.0674226 0.0361811 -0.345356  0.601747 0.388421 -0.607416 -0.34362   -2.97058 0.80481 0.516968  4.25171 2.59619 0.65625   -0.522362 -0.0231281 0.634917  0.656897 0.686103 -0.312647 0.520644 -0.712698 -0.470097 -0.545358 0.146028 -0.825385   216.663 216.663 216.663 12.9998 12.9998 12.9998  0 0 0 0 0 0   0.737362 0.411729 -0.67298 0.00126419 -2.68346 -1.45939 -0.907849 
 0.279445 0.0140434 0.0279208   0.0674226 0.0361811 -0.345356  0.601747 0.388421 -0.607416 -0.34362   -2.95166 0.635376 0.328979  4.02924 2.5213 0.65625   -0.522368 -0.0231353 0.634952  0.656858 0.686119 -0.312693 0.520619 -0.712682 -0.470148 -0.545429 0.146026 -0.825339   216.663 216.663 216.663 12.9998 12.9998 12.9998  0 0 0 0 0 0   0.737362 0.411729 -0.67298 0.00126419 -2.68346 -1.45939 -0.907849 
 0.289456 0.0140434 0.0279208   0.0674226 0.0361811 -0.345356  0.601747 0.388421 -0.607416 -0.34362   -2.95166 0.635376 1.08093  4.05396 2.62115 0.65625   -0.522374 -0.0231444 0.634989  0.656814 0.686139 -0.312744 0.520593 -0.712664 -0.470204 -0.545507 0.146025 -0.825287   216.663 216.663 216.663 12.9998 12.9998 12.9998  0 0 0 0 0 0   0.737362 0.411729 -0.67298 0.00126419 -2.68346 -1.45939 -0.907849 
 0.299496 0.0140434 0.0279208   0.0674226 0.0361811 -0.345356  0.601747 0.388421 -0.607416 -0.34362   -2.97058 0.635376 0.328979  4.15283 2.59619 0.65625   -0.522381 -0.0231541 0.63503  0.656767 0.686159 -0.312798 0.520565 -0.712645 -0.470265 -0.545591 0.146022 -0.825232   216.663 216.663 216.663 12.9998 12.9998 12.9998  0 0 0 0 0 0   0.737362 0.411729 -0.67298 0.00126419 -2.68346 -1.45939 -0.907849 
 0.309474 0.0140434 0.0279208   0.0674226 0.0361811 -0.345356  0.601747 0.388421 -0.607416 -0.34362   -2.8949 0.720093 0.516968  4.35059 2.57123 0.574219   -0.522388 -0.0231643 0.635074  0.656716 0.686181 -0.312858 0.520535 -0.712624 -0.470329 -0.545681 0.146019 -0.825173   216.663 216.663 216.663 12.9998 12.9998 12.9998  0 0 0 0 0 0   0.737362 0.411729 -0.67298 0.00126419 -2.68346 -1.45939 -0.907849 
 0.319441 0.0140434 0.0279208   0.0674226 0.0361811 -0.345356  0.601747 0.388421 -0.607416 -0.34362   -2.8949 0.635376 0.281982  4.44946 2.57123 0.492188   -0.522396 -0.0231756 0.635123  0.656659 0.686206 -0.312923 0.520501 -0.712602 -0.470401 -0.545781 0.146016 -0.825107   216.663 216.663 216.663 12.9998 12.9998 12.9998  0 0 0 0 0 0   0.737362 0.411729 -0.67298 0.00126419 -2.68346 -1.45939 -0.907849 
 0.329438 0.0140434 0.0279208   0.0674226 0.0361811 -0.345356  0.601747 0.388421 -0.607416 -0.34362   -2.8949 0.720093 1.03394  4.42474 2.47137 0.594727   -0.522403 -0.0231872 0.635175  0.6566 0.68623 -0.312992 0.520467 -0.712579 -0.470474 -0.545885 0.146012 -0.825039   216.663 216.663 216.663 12.9998 12.9998 12.9998  0 0 0 0 0 0   0.737362 0.411729 -0.67298 0.00126419 -2.68346 -1.45939 -0.907849 
 0.33944 0.0140434 0.0279208   0.0674226 0.0361811 -0.345356  0.601747 0.388421 -0.607416 -0.34362   -2.97058 0.720093 0.469971  4.54834 2.57123 0.410156   -0.522412 -0.0231999 0.635229  0.656538 0.686258 -0.313062 0.52043 -0.712552 -0.470555 -0.545995 0.14601 -0.824967   216.663 216.663 216.663 12.9998 12.9998 12.9998  0 0 0 0 0 0   0.737362 0.411729 -0.67298 0.00126419 -2.68346 -1.45939 -0.907849 
 0.34944 0.0140434 0.0279208   0.0674226 0.0361811 -0.345356  0.601747 0.388421 -0.607416 -0.34362   -2.81921 0.465942 1.03394  4.35059 2.57123 0.492188   -0.522421 -0.0232122 0.63528  0.656479 0.686284 -0.313129 0.520396 -0.712528 -0.470629 -0.546099 0.146007 -0.824899   216.663 216.663 216.663 12.9998 12.9998 12.9998  0 0 0 0 0 0   0.737362 0.411729 -0.67298 0.00126419 -2.68346 -1.45939 -0.907849 
 0.359439 0.0139726 0.0280687   0.0672346 0.0321976 -0.344282  0.56459 -0.370825 -0.687436 -0.266755   -2.81921 0.296509 1.08093  4.25171 2.59619 0.410156   -0.522429 -0.0232239 0.635327  0.656421 0.686309 -0.313194 0.520362 -0.712504 -0.470702 -0.546199 0.146004 -0.824833   218.197 218.197 218.197 13.0918 13.0918 13.0918  0 0 0 0 0 0   0.737362 0.411729 -0.67298 0.00126419 -2.68346 -1.45939 -0.907849 
 0.369442 0.0139726 0.0280687   0.0672346 0.0321976 -0.344282  0.56459 -0.370825 -0.687436 -0.266755   -2.72461 0.232971 0.845947  4.22699 2.49634 0.328125   -0.522436 -0.0232333 0.635369  0.656369 0.686331 -0.313257 0.520328 -0.712484 -0.470771 -0.546295 0.146003 -0.82477   218.197 218.197 218.197 13.0918 13.0918 13.0918  0 0 0 0 0 0   0.737362 0.411729 -0.67298 0.00126419 -2.68346 -1.45939 -0.907849 
 0.37944 0.0139726 0.0280687   0.0672346 0.0321976 -0.344282  0.56459 -0.370825 -0.687436 -0.266755   -2.64893 0.148254 0.845947  4.22699 2.49634 0.328125   -0.522443 -0.0232416 0.635405  0.656319 0.686351 -0.313317 0.520295 -0.712465 -0.470837 -0.546386 0.146002 -0.824709   218.197 218.197 218.197 13.0918 13.0918 13.0918  0 0 0 0 0 0   0.737362 0.411729 -0.67298 0.00126419 -2.68346 -1.45939 -0.907849 
 0.389454 0.0139726 0.0280687   0.0672346 0.0321976 -0.344282  0.56459 -0.370825 -0.687436 -0.266755   -2.49756 0 1.22192  4.05396 2.09692 0.266602   -0.52245 -0.0232475 0.635436  0.656277 0.686367 -0.31337 0.520263 -0.712449 -0.470896 -0.546468 0.146004 -0.824655   218.197 218.197 218.197 13.0918 13.0918 13.0918  0 0 0 0 0 0   0.737362 0.411729 -0.67298 0.00126419 -2.68346 -1.45939 -0.907849 
 0.399448 0.0139726 0.0280687   0.0672346 0.0321976 -0.344282  0.56459 -0.370825 -0.687436 -0.266755   -2.42188 -0.25415 1.5979  4.02924 1.99707 0.18457   -0.522457 -0.0232511 0.635464  0.656233 0.686382 -0.313429 0.520222 -0.712433 -0.470965 -0.546559 0.14601 -0.824593   218.197 218.197 218.197 13.0918 13.0918 13.0918  0 0 0 0 0 0   0.737362 0.411729 -0.67298 0.00126419 -2.68346 -1.45939 -0.907849 
 0.409416 0.0139726 0.0280687   0.0672346 0.0321976 -0.344282  0.56459 -0.370825 -0.687436 -0.266755   -2.1759 -0.25415 1.5979  3.95508 2.12189 0.266602   -0.522466 -0.0232516 0.635486  0.656185 0.686396 -0.313498 0.520171 -0.712417 -0.471046 -0.546666 0.146021 -0.824521   218.197 218.197 218.197 13.0918 13.0918 13.0918  0 0 0 0 0 0   0.737362 0.411729 -0.67298 0.00126419 -2.68346 -1.45939 -0.907849 
 0.419445 0.0139726 0.0280687   0.0672346 0.0321976 -0.344282  0.56459 -0.370825 -0.687436 -0.266755   -2.10022 -0.338867 1.78589  4.05396 1.99707 0.348633   -0.522474 -0.0232458 0.635499  0.656145 0.686402 -0.31357 0.52011 -0.712408 -0.471126 -0.546772 0.146036 -0.824448   218.197 218.197 218.197 13.0918 13.0918 13.0918  0 0 0 0 0 0   0.737362 0.411729 -0.67298 0.00126419 -2.68346 -1.45939 -0.907849 
 0.429437 0.0139726 0.0280687   0.0672346 0.0321976 -0.344282  0.56459 -0.370825 -0.687436 -0.266755   -2.02454 -0.402405 1.5979  4.02924 1.89722 0.18457   -0.522481 -0.0232367 0.635509  0.656111 0.686404 -0.313637 0.520047 -0.712402 -0.471206 -0.546873 0.146057 -0.824377   218.197 218.197 218.197 13.0918 13.0918 13.0918  0 0 0 0 0 0   0.737362 0.411729 -0.67298 0.00126419 -2.68346 -1.45939 -0.907849 
 0.439449 0.0139726 0.0280687   0.0672346 0.0321976 -0.344282  0.56459 -0.370825 -0.687436 -0.266755   -2.10022 -0.508301 1.97388  4.12811 1.89722 0.266602   -0.522487 -0.0232278 0.635515  0.656091 0.686401 -0.313684 0.520001 -0.712402 -0.471257 -0.54694 0.146072 -0.82433   218.197 218.197 218.197 13.0918 13.0918 13.0918  0 0 0 0 0 0   0.737362 0.411729 -0.67298 0.00126419 -2.68346 -1.45939 -0.907849 
 0.44944 0.0139726 0.0280687   0.0672346 0.0321976 -0.344282  0.56459 -0.370825 -0.687436 -0.266755   -1.96777 -0.317688 1.92688  4.32587 1.87225 0.266602   -0.522489 -0.0232206 0.635522  0.656083 0.686397 -0.313711 0.519971 -0.712404 -0.471286 -0.546978 0.146082 -0.824303   218.197 218.197 218.197 13.0918 13.0918 13.0918  0 0 0 0 0 0   0.737362 0.411729 -0.67298 0.00126419 -2.68346 -1.45939 -0.907849 
 0.459441 0.0142619 0.0297554   0.0700163 0.0315336 -0.345748  0.5681 -0.370779 -0.685158 -0.265222   -1.89209 -0.317688 1.5509  4.40002 1.7724 0.266602   -0.522491 -0.0232156 0.635527  0.656081 0.686393 -0.313724 0.519955 -0.712406 -0.471301 -0.546996 0.146089 -0.824289   235.695 235.695 235.695 14.1417 14.1417 14.1417  0 0 0 0 0 0   0.737362 0.411729 -0.67298 0.00126419 -2.68346 -1.45939 -0.907849 
 0.469437 0.0142619 0.0297554   0.0700163 0.0315336 -0.345748  0.5681 -0.370779 -0.685158 -0.265222   -1.74072 -0.211792 1.73889  4.47418 1.54773 0.348633   -0.522493 -0.0232117 0.635533  0.656078 0.68639 -0.313735 0.51994 -0.712408 -0.471314 -0.547013 0.146095 -0.824277   235.695 235.695 235.695 14.1417 14.1417 14.1417  0 0 0 0 0 0   0.737362 0.411729 -0.67298 0.00126419 -2.68346 -1.45939 -0.907849 
 0.479443 0.0142619 0.0297554   0.0700163 0.0315336 -0.345748  0.5681 -0.370779 -0.685158 -0.265222   -1.43799 -0.296509 1.87988  4.64722 1.44788 0.348633   -0.522495 -0.0232079 0.635541  0.656071 0.686388 -0.313754 0.519922 -0.712408 -0.471334 -0.547039 0.146102 -0.824259   235.695 235.695 235.695 14.1417 14.1417 14.1417  0 0 0 0 0 0   0.737362 0.411729 -0.67298 0.00126419 -2.68346 -1.45939 -0.907849 
 0.489453 0.0142619 0.0297554   0.0700163 0.0315336 -0.345748  0.5681 -0.370779 -0.685158 -0.265222   -1.28662 -0.444763 2.06787  4.6225 1.24817 0.266602   -0.522499 -0.0232045 0.635554  0.656055 0.68639 -0.313783 0.519894 -0.712404 -0.47137 -0.547085 0.146111 -0.824227   235.695 235.695 235.695 14.1417 14.1417 14.1417  0 0 0 0 0 0   0.737362 0.411729 -0.67298 0.00126419 -2.68346 -1.45939 -0.907849 
 0.499447 0.0142619 0.0297554   0.0700163 0.0315336 -0.345748  0.5681 -0.370779 -0.685158 -0.265222   -1.28662 -0.614197 1.69189  4.4989 1.14832 0.18457   -0.522506 -0.0231982 0.635574  0.656029 0.686391 -0.313836 0.519846 -0.7124 -0.47143 -0.547162 0.146125 -0.824173   235.695 235.695 235.695 14.1417 14.1417 14.1417  0 0 0 0 0 0   0.737362 0.411729 -0.67298 0.00126419 -2.68346 -1.45939 -0.907849 
 0.509445 0.0142619 0.0297554   0.0700163 0.0315336 -0.345748  0.5681 -0.370779 -0.685158 -0.265222   -1.2677 -0.78363 2.25586  4.32587 1.27313 0.18457   -0.522517 -0.0231872 0.635604  0.655982 0.686394 -0.313929 0.51976 -0.712393 -0.471535 -0.5473 0.146151 -0.824077   235.695 235.695 235.695 14.1417 14.1417 14.1417  0 0 0 0 0 0   0.737362 0.411729 -0.67298 0.00126419 -2.68346 -1.45939 -0.907849 
 0.519441 0.0142619 0.0297554   0.0700163 0.0315336 -0.345748  0.5681 -0.370779 -0.685158 -0.265222   -1.11633 -0.868347 2.06787  4.40002 1.17328 0.102539   -0.522532 -0.0231702 0.635644  0.655922 0.686394 -0.314053 0.519642 -0.712384 -0.471678 -0.547484 0.146189 -0.823948   235.695 235.695 235.695 14.1417 14.1417 14.1417  0 0 0 0 0 0   0.737362 0.411729 -0.67298 0.00126419 -2.68346 -1.45939 -0.907849 
 0.529432 0.0142619 0.0297554   0.0700163 0.0315336 -0.345748  0.5681 -0.370779 -0.685158 -0.265222   -1.13525 -0.868347 1.69189  4.59778 1.14832 0.18457   -0.522548 -0.0231447 0.635696  0.65586 0.686387 -0.314198 0.519494 -0.71238 -0.471847 -0.547698 0.146242 -0.823796   235.695 235.695 235.695 14.1417 14.1417 14.1417  0 0 0 0 0 0   0.737362 0.411729 -0.67298 0.00126419 -2.68346 -1.45939 -0.907849 
 0.539479 0.0142619 0.0297554   0.0700163 0.0315336 -0.345748  0.5681 -0.370779 -0.685158 -0.265222   -0.889282 -0.847168 1.87988  4.47418 0.948608 0.18457   -0.522569 -0.0231131 0.635763  0.655784 0.686378 -0.314376 0.519309 -0.712375 -0.472058 -0.547964 0.14631 -0.823607   235.695 235.695 235.695 14.1417 14.1417 14.1417  0 0 0 0 0 0   0.737362 0.411729 -0.67298 0.00126419 -2.68346 -1.45939 -0.907849 
 0.549459 0.0142619 0.0297554   0.0700163 0.0315336 -0.345748  0.5681 -0.370779 -0.685158 -0.265222   -0.83252 -0.847168 1.83289  4.67194 0.948608 0.18457   -0.522595 -0.0230754 0.635849  0.655685 0.686369 -0.314602 0.519079 -0.712367 -0.472325 -0.548301 0.146393 -0.823368   235.695 235.695 235.695 14.1417 14.1417 14.1417  0 0 0 0 0 0   0.737362 0.411729 -0.67298 0.00126419 -2.68346 -1.45939 -0.907849 
 0.559443 0.0150226 0.0318418   0.0665584 0.00108449 -0.351791  0.30658 0.0885902 -0.121346 0.939913   -0.756836 -0.931885 2.02087  4.69666 1.12335 0.287109   -0.522624 -0.0230297 0.635952  0.655571 0.686358 -0.314864 0.518805 -0.712357 -0.47264 -0.548696 0.146496 -0.823087   257.34 257.34 257.34 15.4404 15.4404 15.4404  0 0 0 0 0 0   0.737362 0.411729 -0.67298 0.00126419 -2.68346 -1.45939 -0.907849 
 0.569458 0.0150226 0.0318418   0.0665584 0.00108449 -0.351791  0.30658 0.0885902 -0.121346 0.939913   -0.83252 -0.847168 1.83289  4.72137 1.22321 0.266602   -0.522661 -0.0229772 0.636071  0.655425 0.686348 -0.315189 0.518475 -0.712342 -0.473025 -0.549182 0.146615 -0.822741   257.34 257.34 257.34 15.4404 15.4404 15.4404  0 0 0 0 0 0   0.737362 0.411729 -0.67298 0.00126419 -2.68346 -1.45939 -0.907849 
 0.579446 0.0150226 0.0318418   0.0665584 0.00108449 -0.351791  0.30658 0.0885902 -0.121346 0.939913   -0.983887 -0.931885 2.06787  4.72137 1.32306 0.266602   -0.522705 -0.0229223 0.636214  0.655237 0.686347 -0.315583 0.518088 -0.712315 -0.473489 -0.549772 0.146748 -0.822323   257.34 257.34 257.34 15.4404 15.4404 15.4404  0 0 0 0 0 0   0.737362 0.411729 -0.67298 0.00126419 -2.68346 -1.45939 -0.907849 
 0.589445 0.0150226 0.0318418   0.0665584 0.00108449 -0.351791  0.30658 0.0885902 -0.121346 0.939913   -0.964966 -1.03778 1.69189  4.74609 1.32306 0.18457   -0.522757 -0.0228634 0.636371  0.655008 0.686353 -0.316044 0.517643 -0.712279 -0.47403 -0.550463 0.146896 -0.821834   257.34 257.34 257.34 15.4404 15.4404 15.4404  0 0 0 0 0 0   0.737362 0.411729 -0.67298 0.00126419 -2.68346 -1.45939 -0.907849 
 0.59944 0.0150226 0.0318418   0.0665584 0.00108449 -0.351791  0.30658 0.0885902 -0.121346 0.939913   -0.83252 -1.10132 2.02087  4.91913 1.32306 0.205078   -0.522816 -0.0227965 0.636546  0.654739 0.686363 -0.316579 0.517128 -0.712234 -0.474659 -0.551266 0.147066 -0.821265   257.34 257.34 257.34 15.4404 15.4404 15.4404  0 0 0 0 0 0   0.737362 0.411729 -0.67298 0.00126419 -2.68346 -1.45939 -0.907849 
 0.60946 0.0150226 0.0318418   0.0665584 0.00108449 -0.351791  0.30658 0.0885902 -0.121346 0.939913   -0.378418 -1.10132 1.83289  4.91913 1.12335 0.287109   -0.522881 -0.0227241 0.63674  0.654438 0.686376 -0.317172 0.516557 -0.712182 -0.475359 -0.552159 0.147256 -0.820631   257.34 257.34 257.34 15.4404 15.4404 15.4404  0 0 0 0 0 0   0.737362 0.411729 -0.67298 0.00126419 -2.68346 -1.45939 -0.907849 
 0.619483 0.0150226 0.0318418   0.0665584 0.00108449 -0.351791  0.30658 0.0885902 -0.121346 0.939913   -0.227051 -1.08014 1.5979  4.96857 0.798828 0.369141   -0.522943 -0.0226521 0.636953  0.654147 0.686386 -0.317752 0.515988 -0.712132 -0.476052 -0.553036 0.147452 -0.820005   257.34 257.34 257.34 15.4404 15.4404 15.4404  0 0 0 0 0 0   0.737362 0.411729 -0.67298 0.00126419 -2.68346 -1.45939 -0.907849 
 0.629445 0.0150226 0.0318418   0.0665584 0.00108449 -0.351791  0.30658 0.0885902 -0.121346 0.939913   -0.378418 -1.27075 1.97388  4.99329 1.09839 0.451172   -0.523003 -0.0225742 0.637192  0.653868 0.686387 -0.318323 0.515405 -0.712086 -0.476751 -0.553909 0.147667 -0.819377   257.34 257.34 257.34 15.4404 15.4404 15.4404  0 0 0 0 0 0   0.737362 0.411729 -0.67298 0.00126419 -2.68346 -1.45939 -0.907849 
 0.63944 0.0150226 0.0318418   0.0665584 0.00108449 -0.351791  0.30658 0.0885902 -0.121346 0.939913   -0.605469 -1.10132 1.6449  5.04272 1.39795 0.369141   -0.523064 -0.0224852 0.637455  0.653593 0.686376 -0.318912 0.514786 -0.712049 -0.477475 -0.554808 0.147903 -0.818726   257.34 257.34 257.34 15.4404 15.4404 15.4404  0 0 0 0 0 0   0.737362 0.411729 -0.67298 0.00126419 -2.68346 -1.45939 -0.907849 
 0.649445 0.0150226 0.0318418   0.0665584 0.00108449 -0.351791  0.30658 0.0885902 -0.121346 0.939913   -0.83252 -1.1225 1.45691  4.96857 1.4978 0.430664   -0.523128 -0.0223949 0.637733  0.653298 0.686368 -0.319532 0.51414 -0.712006 -0.478234 -0.555753 0.148145 -0.818041   257.34 257.34 257.34 15.4404 15.4404 15.4404  0 0 0 0 0 0   0.737362 0.411729 -0.67298 0.00126419 -2.68346 -1.45939 -0.907849 
 0.659442 0.027411 0.0166248   0.0256577 0.344039 0.102834  -0.357462 -0.455557 -0.232017 -0.781573   -0.737915 -1.37665 1.6449  4.86969 1.52277 0.348633   -0.523192 -0.022299 0.638021  0.653007 0.686354 -0.320157 0.513478 -0.711966 -0.479004 -0.556707 0.148399 -0.817346   99.4753 99.4753 99.4753 5.96852 5.96852 5.96852  0 0 0 0 0 0   0.737362 0.411729 -0.67298 0.00126419 -2.68346 -1.45939 -0.907849 
 0.669463 0.027411 0.0166248   0.0256577 0.344039 0.102834  -0.357462 -0.455557 -0.232017 -0.781573   -0.586548 -1.44019 2.02087  4.86969 1.52277 0.451172   -0.523256 -0.0222006 0.638338  0.652707 0.686339 -0.320799 0.512793 -0.711925 -0.479798 -0.557689 0.148664 -0.816629   99.4753 99.4753 99.4753 5.96852 5.96852 5.96852  0 0 0 0 0 0   0.737362 0.411729 -0.67298 0.00126419 -2.68346 -1.45939 -0.907849 
 0.679449 0.027411 0.0166248   0.0256577 0.344039 0.102834  -0.357462 -0.455557 -0.232017 -0.781573   -0.283813 -1.69434 1.45691  4.72137 1.22321 0.369141   -0.523314 -0.0220933 0.638677  0.652445 0.686305 -0.321404 0.512116 -0.7119 -0.480557 -0.558617 0.148941 -0.815944   99.4753 99.4753 99.4753 5.96852 5.96852 5.96852  0 0 0 0 0 0   0.737362 0.411729 -0.67298 0.00126419 -2.68346 -1.45939 -0.907849 
 0.689498 0.027411 0.0166248   0.0256577 0.344039 0.102834  -0.357462 -0.455557 -0.232017 -0.781573   -0.283813 -1.67316 1.78589  4.79553 1.0235 0.451172   -0.523365 -0.0219734 0.639027  0.652237 0.686245 -0.321955 0.511453 -0.711896 -0.481269 -0.559467 0.149236 -0.815307   99.4753 99.4753 99.4753 5.96852 5.96852 5.96852  0 0 0 0 0 0   0.737362 0.411729 -0.67298 0.00126419 -2.68346 -1.45939 -0.907849 
 0.699438 0.027411 0.0166248   0.0256577 0.344039 0.102834  -0.357462 -0.455557 -0.232017 -0.781573   -0.737915 -1.6308 1.83289  4.74609 1.42291 0.512695   -0.523414 -0.0218429 0.639398  0.652059 0.686166 -0.322481 0.510783 -0.711906 -0.481965 -0.560285 0.149552 -0.814687   99.4753 99.4753 99.4753 5.96852 5.96852 5.96852  0 0 0 0 0 0   0.737362 0.411729 -0.67298 0.00126419 -2.68346 -1.45939 -0.907849 
 0.709443 0.027411 0.0166248   0.0256577 0.344039 0.102834  -0.357462 -0.455557 -0.232017 -0.781573   -0.586548 -1.6308 2.02087  4.74609 1.42291 0.533203   -0.523457 -0.0216978 0.639778  0.65193 0.686061 -0.322966 0.510118 -0.711937 -0.482623 -0.56104 0.149886 -0.814106   99.4753 99.4753 99.4753 5.96852 5.96852 5.96852  0 0 0 0 0 0   0.737362 0.411729 -0.67298 0.00126419 -2.68346 -1.45939 -0.907849 
 0.719441 0.027411 0.0166248   0.0256577 0.344039 0.102834  -0.357462 -0.455557 -0.232017 -0.781573   -0.718994 -1.71552 1.6449  4.54834 1.44788 0.430664   -0.523499 -0.0215455 0.640178  0.651819 0.685946 -0.323435 0.509449 -0.711975 -0.483273 -0.561777 0.150233 -0.813534   99.4753 99.4753 99.4753 5.96852 5.96852 5.96852  0 0 0 0 0 0   0.737362 0.411729 -0.67298 0.00126419 -2.68346 -1.45939 -0.907849 
 0.729444 0.027411 0.0166248   0.0256577 0.344039 0.102834  -0.357462 -0.455557 -0.232017 -0.781573   -0.870361 -1.96967 1.31592  4.44946 1.34802 0.348633   -0.523538 -0.0213805 0.640584  0.651735 0.685815 -0.32388 0.508773 -0.712023 -0.483915 -0.562486 0.150603 -0.812975   99.4753 99.4753 99.4753 5.96852 5.96852 5.96852  0 0 0 0 0 0   0.737362 0.411729 -0.67298 0.00126419 -2.68346 -1.45939 -0.907849 
 0.739442 0.027411 0.0166248   0.0256577 0.344039 0.102834  -0.357462 -0.455557 -0.232017 -0.781573   -0.85144 -1.96967 1.69189  4.27643 1.57269 0.348633   -0.523573 -0.0211977 0.640996  0.651679 0.685664 -0.324313 0.508077 -0.712084 -0.484556 -0.563181 0.150999 -0.81242   99.4753 99.4753 99.4753 5.96852 5.96852 5.96852  0 0 0 0 0 0   0.737362 0.411729 -0.67298 0.00126419 -2.68346 -1.45939 -0.907849 
 0.749467 0.027411 0.0166248   0.0256577 0.344039 0.102834  -0.357462 -0.455557 -0.232017 -0.781573   -1.38123 -2.07556 1.31592  4.30115 1.7724 0.348633   -0.52361 -0.0209998 0.641434  0.651624 0.685496 -0.324779 0.507331 -0.712157 -0.48523 -0.563917 0.151417 -0.811832   99.4753 99.4753 99.4753 5.96852 5.96852 5.96852  0 0 0 0 0 0   0.737362 0.411729 -0.67298 0.00126419 -2.68346 -1.45939 -0.907849 
 0.759449 0.0157406 0.0294484   0.0599678 -0.00512031 -0.360756  0.29602 0.105767 -0.114205 0.942413   -1.24878 -1.90613 1.69189  4.6225 1.84729 0.348633   -0.523647 -0.0207833 0.641879  0.651592 0.685308 -0.325239 0.506547 -0.71224 -0.485926 -0.564658 0.151877 -0.811231   232.51 232.51 232.51 13.9506 13.9506 13.9506  0 0 0 0 0 0   0.737362 0.411729 -0.67298 0.00126419 -2.68346 -1.45939 -0.907849 
 0.769464 0.0157406 0.0294484   0.0599678 -0.00512031 -0.360756  0.29602 0.105767 -0.114205 0.942413   -1.15417 -2.07556 1.69189  4.40002 1.74744 0.348633   -0.523684 -0.0205594 0.642331  0.651567 0.685111 -0.325706 0.505744 -0.712329 -0.486632 -0.565406 0.15235 -0.81062   232.51 232.51 232.51 13.9506 13.9506 13.9506  0 0 0 0 0 0   0.737362 0.411729 -0.67298 0.00126419 -2.68346 -1.45939 -0.907849 
 0.779455 0.0157406 0.0294484   0.0599678 -0.00512031 -0.360756  0.29602 0.105767 -0.114205 0.942413   -0.85144 -2.22382 1.31592  4.32587 1.34802 0.266602   -0.523721 -0.0203239 0.642772  0.651564 0.684898 -0.326159 0.504937 -0.712431 -0.48732 -0.56613 0.15283 -0.810024   232.51 232.51 232.51 13.9506 13.9506 13.9506  0 0 0 0 0 0   0.737362 0.411729 -0.67298 0.00126419 -2.68346 -1.45939 -0.907849 
 0.78944 0.0157406 0.0294484   0.0599678 -0.00512031 -0.360756  0.29602 0.105767 -0.114205 0.942413   -1.15417 -2.16028 1.87988  4.27643 1.67255 0.348633   -0.523758 -0.0200685 0.643227  0.651575 0.684664 -0.326625 0.504088 -0.712545 -0.488032 -0.566873 0.153342 -0.809408   232.51 232.51 232.51 13.9506 13.9506 13.9506  0 0 0 0 0 0   0.737362 0.411729 -0.67298 0.00126419 -2.68346 -1.45939 -0.907849 
 0.799444 0.0157406 0.0294484   0.0599678 -0.00512031 -0.360756  0.29602 0.105767 -0.114205 0.942413   -1.30554 -2.245 2.06787  4.32587 1.97211 0.348633   -0.523793 -0.0198054 0.64369  0.65159 0.684418 -0.327114 0.503218 -0.712673 -0.488743 -0.567629 0.153851 -0.808781   232.51 232.51 232.51 13.9506 13.9506 13.9506  0 0 0 0 0 0   0.737362 0.411729 -0.67298 0.00126419 -2.68346 -1.45939 -0.907849 
 0.809446 0.0157406 0.0294484   0.0599678 -0.00512031 -0.360756  0.29602 0.105767 -0.114205 0.942413   -1.38123 -2.18146 1.92688  4.35059 2.07196 0.348633   -0.52383 -0.0195263 0.644165  0.651619 0.684149 -0.327617 0.502309 -0.712816 -0.489469 -0.568401 0.154382 -0.808138   232.51 232.51 232.51 13.9506 13.9506 13.9506  0 0 0 0 0 0   0.737362 0.411729 -0.67298 0.00126419 -2.68346 -1.45939 -0.907849 
 0.819446 0.0157406 0.0294484   0.0599678 -0.00512031 -0.360756  0.29602 0.105767 -0.114205 0.942413   -1.15417 -2.32971 1.50391  4.22699 1.97211 0.18457   -0.523866 -0.0192399 0.644624  0.651666 0.683869 -0.328107 0.501406 -0.712969 -0.490171 -0.569143 0.154913 -0.807514   232.51 232.51 232.51 13.9506 13.9506 13.9506  0 0 0 0 0 0   0.737362 0.411729 -0.67298 0.00126419 -2.68346 -1.45939 -0.907849 
 0.829439 0.0157406 0.0294484   0.0599678 -0.00512031 -0.360756  0.29602 0.105767 -0.114205 0.942413   -1.53259 -2.26617 1.5509  4.25171 2.27167 0.18457   -0.523902 -0.018933 0.645087  0.651738 0.683563 -0.328602 0.50047 -0.713143 -0.490874 -0.569883 0.155466 -0.806885   232.51 232.51 232.51 13.9506 13.9506 13.9506  0 0 0 0 0 0   0.737362 0.411729 -0.67298 0.00126419 -2.68346 -1.45939 -0.907849 
 0.839455 0.0157406 0.0294484   0.0599678 -0.00512031 -0.360756  0.29602 0.105767 -0.114205 0.942413   -1.45691 -2.26617 1.36292  4.40002 2.47137 0.266602   -0.52394 -0.0186181 0.64555  0.651821 0.683246 -0.329096 0.499523 -0.713323 -0.491577 -0.57062 0.156029 -0.806256   232.51 232.51 232.51 13.9506 13.9506 13.9506  0 0 0 0 0 0   0.737362 0.411729 -0.67298 0.00126419 -2.68346 -1.45939 -0.907849 
 0.849445 0.0157406 0.0294484   0.0599678 -0.00512031 -0.360756  0.29602 0.105767 -0.114205 0.942413   -1.53259 -2.26617 1.73889  4.20227 2.37152 0.18457   -0.523978 -0.018294 0.646021  0.651909 0.68292 -0.329599 0.498551 -0.713509 -0.492293 -0.571369 0.156608 -0.805613   232.51 232.51 232.51 13.9506 13.9506 13.9506  0 0 0 0 0 0   0.737362 0.411729 -0.67298 0.00126419 -2.68346 -1.45939 -0.907849 
 0.859463 0.0281806 0.0173637   0.0263053 0.353112 0.0959789  -0.458245 0.658012 0.495847 -0.333419   -1.07849 -2.41443 1.69189  4.25171 2.07196 0.18457   -0.524014 -0.0179603 0.646469  0.652026 0.682578 -0.330075 0.49759 -0.713707 -0.492977 -0.572072 0.157191 -0.805   107.141 107.141 107.141 6.42846 6.42846 6.42846  0 0 0 0 0 0   0.737362 0.411729 -0.67298 0.00126419 -2.68346 -1.45939 -0.907849 
 0.869447 0.0281806 0.0173637   0.0263053 0.353112 0.0959789  -0.458245 0.658012 0.495847 -0.333419   -1.43799 -2.60504 1.92688  3.9798 2.39648 0.102539   -0.524047 -0.0176043 0.646914  0.652175 0.68221 -0.330539 0.496603 -0.713923 -0.49366 -0.572759 0.157806 -0.804391   107.141 107.141 107.141 6.42846 6.42846 6.42846  0 0 0 0 0 0   0.737362 0.411729 -0.67298 0.00126419 -2.68346 -1.45939 -0.907849 
 0.879457 0.0281806 0.0173637   0.0263053 0.353112 0.0959789  -0.458245 0.658012 0.495847 -0.333419   -1.7218 -2.88037 1.97388  3.93036 2.59619 0.102539   -0.524078 -0.0172225 0.647343  0.652373 0.681814 -0.330968 0.495596 -0.714157 -0.494332 -0.573406 0.158462 -0.803801   107.141 107.141 107.141 6.42846 6.42846 6.42846  0 0 0 0 0 0   0.737362 0.411729 -0.67298 0.00126419 -2.68346 -1.45939 -0.907849 
 0.889464 0.0281806 0.0173637   0.0263053 0.353112 0.0959789  -0.458245 0.658012 0.495847 -0.333419   -1.7218 -2.79565 2.16187  3.83148 2.62115 0.102539   -0.524106 -0.0167949 0.647775  0.652632 0.681359 -0.331393 0.494519 -0.71443 -0.495016 -0.57404 0.159183 -0.803205   107.141 107.141 107.141 6.42846 6.42846 6.42846  0 0 0 0 0 0   0.737362 0.411729 -0.67298 0.00126419 -2.68346 -1.45939 -0.907849 
 0.899444 0.0281806 0.0173637   0.0263053 0.353112 0.0959789  -0.458245 0.658012 0.495847 -0.333419   -1.41907 -2.85919 2.16187  3.83148 2.62115 0.102539   -0.524131 -0.0163566 0.648188  0.652921 0.680881 -0.331807 0.493443 -0.714726 -0.495662 -0.574638 0.159901 -0.802635   107.141 107.141 107.141 6.42846 6.42846 6.42846  0 0 0 0 0 0   0.737362 0.411729 -0.67298 0.00126419 -2.68346 -1.45939 -0.907849 
 0.909507 0.0281806 0.0173637   0.0263053 0.353112 0.0959789  -0.458245 0.658012 0.495847 -0.333419   -1.2677 -2.94391 2.11487  3.78204 2.42145 -0.0615234   -0.52415 -0.0158849 0.64858  0.653275 0.680355 -0.332189 0.492338 -0.715056 -0.496284 -0.575183 0.160661 -0.802093   107.141 107.141 107.141 6.42846 6.42846 6.42846  0 0 0 0 0 0   0.737362 0.411729 -0.67298 0.00126419 -2.68346 -1.45939 -0.907849 
 0.919468 0.0281806 0.0173637   0.0263053 0.353112 0.0959789  -0.458245 0.658012 0.495847 -0.333419   -1.57043 -3.0498 2.34985  3.63373 2.64612 0.102539   -0.524166 -0.0153799 0.648965  0.653682 0.679787 -0.33255 0.491191 -0.715414 -0.496905 -0.5757 0.161472 -0.801558   107.141 107.141 107.141 6.42846 6.42846 6.42846  0 0 0 0 0 0   0.737362 0.411729 -0.67298 0.00126419 -2.68346 -1.45939 -0.907849 
 0.92945 0.0281806 0.0173637   0.0263053 0.353112 0.0959789  -0.458245 0.658012 0.495847 -0.333419   -1.57043 -3.0498 1.78589  3.65845 2.82086 0.102539   -0.524179 -0.0148326 0.649338  0.654155 0.679163 -0.332895 0.489997 -0.715811 -0.497511 -0.576181 0.162332 -0.801039   107.141 107.141 107.141 6.42846 6.42846 6.42846  0 0 0 0 0 0   0.737362 0.411729 -0.67298 0.00126419 -2.68346 -1.45939 -0.907849 
 0.939443 0.0281806 0.0173637   0.0263053 0.353112 0.0959789  -0.458245 0.658012 0.495847 -0.333419   -1.64612 -3.13452 2.34985  3.65845 2.92072 0.102539   -0.52419 -0.0142659 0.649706  0.65466 0.678509 -0.333235 0.488778 -0.716231 -0.498105 -0.576643 0.163211 -0.800528   107.141 107.141 107.141 6.42846 6.42846 6.42846  0 0 0 0 0 0   0.737362 0.411729 -0.67298 0.00126419 -2.68346 -1.45939 -0.907849 
 0.949442 0.0281806 0.0173637   0.0263053 0.353112 0.0959789  -0.458245 0.658012 0.495847 -0.333419   -1.64612 -3.0498 2.16187  3.65845 2.84583 0.0205078   -0.524197 -0.0136763 0.650055  0.655208 0.677823 -0.333553 0.487546 -0.716675 -0.498674 -0.577062 0.164113 -0.800041   107.141 107.141 107.141 6.42846 6.42846 6.42846  0 0 0 0 0 0   0.737362 0.411729 -0.67298 0.00126419 -2.68346 -1.45939 -0.907849 
 0.959439 0.0155439 0.00989953   -0.0279618 -0.0691603 0.364609  -0.610967 -0.353242 0.432584 -0.561079   -1.55151 -3.21924 2.53784  3.51013 2.84583 0.0205078   -0.524199 -0.0130464 0.650383  0.655829 0.677081 -0.33384 0.486277 -0.717158 -0.499219 -0.577428 0.165063 -0.799582   29.7062 29.7062 29.7062 1.78237 1.78237 1.78237  0 0 0 0 0 0   0.737362 0.411729 -0.67298 0.00126419 -2.68346 -1.45939 -0.907849 
 0.969445 0.0155439 0.00989953   -0.0279618 -0.0691603 0.364609  -0.610967 -0.353242 0.432584 -0.561079   -1.6272 -3.30396 1.97388  3.55957 2.94568 -0.0615234   -0.524195 -0.0123757 0.650694  0.656522 0.676278 -0.334105 0.484963 -0.717684 -0.499739 -0.577745 0.166062 -0.799146   29.7062 29.7062 29.7062 1.78237 1.78237 1.78237  0 0 0 0 0 0   0.737362 0.411729 -0.67298 0.00126419 -2.68346 -1.45939 -0.907849 
 0.979445 0.0155439 0.00989953   -0.0279618 -0.0691603 0.364609  -0.610967 -0.353242 0.432584 -0.561079   -2.00562 -3.32513 2.39685  3.60901 3.24524 0.0205078   -0.524186 -0.011665 0.650999  0.657277 0.675422 -0.334355 0.483595 -0.718247 -0.500257 -0.578034 0.167115 -0.798717   29.7062 29.7062 29.7062 1.78237 1.78237 1.78237  0 0 0 0 0 0   0.737362 0.411729 -0.67298 0.00126419 -2.68346 -1.45939 -0.907849 
 0.989471 0.0155439 0.00989953   -0.0279618 -0.0691603 0.364609  -0.610967 -0.353242 0.432584 -0.561079   -2.02454 -3.1557 1.97388  3.83148 3.41998 0.0205078   -0.524174 -0.0109157 0.651289  0.658095 0.674511 -0.334583 0.482187 -0.718846 -0.500756 -0.578279 0.168214 -0.798309   29.7062 29.7062 29.7062 1.78237 1.78237 1.78237  0 0 0 0 0 0   0.737362 0.411729 -0.67298 0.00126419 -2.68346 -1.45939 -0.907849 
 0.999451 0.0155439 0.00989953   -0.0279618 -0.0691603 0.364609  -0.610967 -0.353242 0.432584 -0.561079   -1.79749 -3.24042 1.97388  3.7326 3.32013 0.0205078   -0.524157 -0.0101517 0.651558  0.658948 0.673576 -0.334786 0.480779 -0.719461 -0.501226 -0.57848 0.169324 -0.797929   29.7062 29.7062 29.7062 1.78237 1.78237 1.78237  0 0 0 0 0 0   0.737362 0.411729 -0.67298 0.00126419 -2.68346 -1.45939 -0.907849 
 1.00944 0.0155439 0.00989953   -0.0279618 -0.0691603 0.364609  -0.610967 -0.353242 0.432584 -0.561079   -1.87317 -3.1557 1.78589  3.83148 3.32013 0.0205078   -0.524136 -0.00935087 0.651807  0.659866 0.672589 -0.334964 0.47934 -0.720114 -0.501667 -0.578628 0.170472 -0.797577   29.7062 29.7062 29.7062 1.78237 1.78237 1.78237  0 0 0 0 0 0   0.737362 0.411729 -0.67298 0.00126419 -2.68346 -1.45939 -0.907849 
 1.01947 0.0155439 0.00989953   -0.0279618 -0.0691603 0.364609  -0.610967 -0.353242 0.432584 -0.561079   -2.04346 -3.00745 2.16187  3.88092 3.61969 0.102539   -0.524109 -0.00850632 0.652039  0.660857 0.671538 -0.335119 0.477851 -0.720809 -0.502087 -0.578728 0.171671 -0.797247   29.7062 29.7062 29.7062 1.78237 1.78237 1.78237  0 0 0 0 0 0   0.737362 0.411729 -0.67298 0.00126419 -2.68346 -1.45939 -0.907849 
 1.02945 0.0155439 0.00989953   -0.0279618 -0.0691603 0.364609  -0.610967 -0.353242 0.432584 -0.561079   -2.11914 -2.92273 1.78589  4.10339 3.79443 0.0205078   -0.524076 -0.00763237 0.652253  0.661903 0.670442 -0.335249 0.476336 -0.721534 -0.502486 -0.578782 0.172906 -0.796941   29.7062 29.7062 29.7062 1.78237 1.78237 1.78237  0 0 0 0 0 0   0.737362 0.411729 -0.67298 0.00126419 -2.68346 -1.45939 -0.907849 
 1.03945 0.0155439 0.00989953   -0.0279618 -0.0691603 0.364609  -0.610967 -0.353242 0.432584 -0.561079   -2.02454 -3.17688 1.97388  3.9798 3.69458 0.18457   -0.524039 -0.00675103 0.652442  0.662978 0.66933 -0.335347 0.474836 -0.722268 -0.502851 -0.578784 0.174145 -0.79667   29.7062 29.7062 29.7062 1.78237 1.78237 1.78237  0 0 0 0 0 0   0.737362 0.411729 -0.67298 0.00126419 -2.68346 -1.45939 -0.907849 
 1.04944 0.0155439 0.00989953   -0.0279618 -0.0691603 0.364609  -0.610967 -0.353242 0.432584 -0.561079   -2.02454 -3.2616 2.34985  3.78204 3.71954 0.18457   -0.523993 -0.00582748 0.652609  0.664129 0.668156 -0.335412 0.473295 -0.723043 -0.503191 -0.578727 0.175435 -0.796428   29.7062 29.7062 29.7062 1.78237 1.78237 1.78237  0 0 0 0 0 0   0.737362 0.411729 -0.67298 0.00126419 -2.68346 -1.45939 -0.907849 
 1.05949 0.0290666 0.0219373   0.0330155 0.361938 0.0939609  0.13883 0.56611 -0.782547 -0.218784   -2.02454 -3.2616 2.02087  3.78204 3.71954 0.102539   -0.523941 -0.00485451 0.652752  0.665363 0.666909 -0.335447 0.471709 -0.723867 -0.503495 -0.578605 0.176773 -0.796221   154.588 154.588 154.588 9.2753 9.2753 9.2753  0 0 0 0 0 0   0.737362 0.411729 -0.67298 0.00126419 -2.68346 -1.45939 -0.907849 
 1.06945 0.0290666 0.0219373   0.0330155 0.361938 0.0939609  0.13883 0.56611 -0.782547 -0.218784   -2.10022 -3.17688 2.34985  3.93036 3.91925 0.18457   -0.523878 -0.00381076 0.652874  0.666712 0.665561 -0.335445 0.470033 -0.724755 -0.503785 -0.578415 0.178209 -0.796039   154.588 154.588 154.588 9.2753 9.2753 9.2753  0 0 0 0 0 0   0.737362 0.411729 -0.67298 0.00126419 -2.68346 -1.45939 -0.907849 
 1.07944 0.0290666 0.0219373   0.0330155 0.361938 0.0939609  0.13883 0.56611 -0.782547 -0.218784   -2.00562 -3.60046 2.02087  3.70789 3.8194 0.18457   -0.523812 -0.00275989 0.652982  0.668083 0.664195 -0.335424 0.468359 -0.725651 -0.504054 -0.578191 0.179651 -0.795877   154.588 154.588 154.588 9.2753 9.2753 9.2753  0 0 0 0 0 0   0.737362 0.411729 -0.67298 0.00126419 -2.68346 -1.45939 -0.907849 
 1.08945 0.0290666 0.0219373   0.0330155 0.361938 0.0939609  0.13883 0.56611 -0.782547 -0.218784   -2.25159 -3.17688 2.39685  3.93036 4.0191 0.18457   -0.523739 -0.00165271 0.653083  0.669531 0.662756 -0.335384 0.46661 -0.72659 -0.504323 -0.577929 0.181167 -0.795724   154.588 154.588 154.588 9.2753 9.2753 9.2753  0 0 0 0 0 0   0.737362 0.411729 -0.67298 0.00126419 -2.68346 -1.45939 -0.907849 
 1.09945 0.0290666 0.0219373   0.0330155 0.361938 0.0939609  0.13883 0.56611 -0.782547 -0.218784   -2.34619 -3.36749 2.53784  4.07867 4.19385 0.348633   -0.523666 -0.000531286 0.653177  0.670997 0.661291 -0.335345 0.464851 -0.727545 -0.504571 -0.577647 0.182681 -0.795583   154.588 154.588 154.588 9.2753 9.2753 9.2753  0 0 0 0 0 0   0.737362 0.411729 -0.67298 0.00126419 -2.68346 -1.45939 -0.907849 
 1.10946 0.0290666 0.0219373   0.0330155 0.361938 0.0939609  0.13883 0.56611 -0.782547 -0.218784   -2.57324 -2.85919 2.39685  4.30115 4.36859 0.266602   -0.523586 0.000643133 0.653275  0.672533 0.659752 -0.335301 0.463003 -0.72854 -0.504834 -0.577345 0.184272 -0.795434   154.588 154.588 154.588 9.2753 9.2753 9.2753  0 0 0 0 0 0   0.737362 0.411729 -0.67298 0.00126419 -2.68346 -1.45939 -0.907849 
 1.11944 0.0290666 0.0219373   0.0330155 0.361938 0.0939609  0.13883 0.56611 -0.782547 -0.218784   -2.72461 -3.13452 2.39685  4.25171 4.69312 0.18457   -0.523507 0.00181197 0.653361  0.674063 0.658215 -0.335249 0.461177 -0.729531 -0.505075 -0.577022 0.185843 -0.795303   154.588 154.588 154.588 9.2753 9.2753 9.2753  0 0 0 0 0 0   0.737362 0.411729 -0.67298 0.00126419 -2.68346 -1.45939 -0.907849 
 1.12944 0.0290666 0.0219373   0.0330155 0.361938 0.0939609  0.13883 0.56611 -0.782547 -0.218784   -2.70569 -3.30396 2.39685  3.95508 4.61823 0.348633   -0.523429 0.00297211 0.653435  0.675582 0.656686 -0.33519 0.459379 -0.730513 -0.505293 -0.57668 0.187388 -0.79519   154.588 154.588 154.588 9.2753 9.2753 9.2753  0 0 0 0 0 0   0.737362 0.411729 -0.67298 0.00126419 -2.68346 -1.45939 -0.907849 
 1.13944 0.0290666 0.0219373   0.0330155 0.361938 0.0939609  0.13883 0.56611 -0.782547 -0.218784   -2.80029 -2.96509 2.39685  4.30115 4.99268 0.18457   -0.523345 0.00414501 0.653507  0.677114 0.655136 -0.335132 0.457566 -0.731505 -0.505504 -0.576325 0.188938 -0.79508   154.588 154.588 154.588 9.2753 9.2753 9.2753  0 0 0 0 0 0   0.737362 0.411729 -0.67298 0.00126419 -2.68346 -1.45939 -0.907849 
 1.14946 0.0290666 0.0219373   0.0330155 0.361938 0.0939609  0.13883 0.56611 -0.782547 -0.218784   -3.04626 -3.07098 2.20886  4.32587 5.29224 0.328125   -0.523258 0.00533222 0.653578  0.678665 0.653561 -0.335071 0.455726 -0.732505 -0.505717 -0.575958 0.190512 -0.79497   154.588 154.588 154.588 9.2753 9.2753 9.2753  0 0 0 0 0 0   0.737362 0.411729 -0.67298 0.00126419 -2.68346 -1.45939 -0.907849 
 1.15947 0.0296524 0.0264059   0.0395989 0.368266 0.090736  0.137195 0.560501 -0.782954 -0.232376   -3.04626 -2.90155 2.39685  4.54834 5.36713 0.164062   -0.523165 0.00653672 0.653649  0.680239 0.651957 -0.335003 0.453858 -0.733516 -0.505933 -0.575576 0.192111 -0.794862   200.946 200.946 200.946 12.0568 12.0568 12.0568  0 0 0 0 0 0   0.737362 0.411729 -0.67298 0.00126419 -2.68346 -1.45939 -0.907849 
 1.16944 0.0296524 0.0264059   0.0395989 0.368266 0.090736  0.137195 0.560501 -0.782954 -0.232376   -3.12195 -2.90155 2.20886  4.77081 5.44202 0.328125   -0.523071 0.00772666 0.65371  0.681793 0.65037 -0.334928 0.452023 -0.734511 -0.506131 -0.575181 0.193682 -0.794767   200.946 200.946 200.946 12.0568 12.0568 12.0568  0 0 0 0 0 0   0.737362 0.411729 -0.67298 0.00126419 -2.68346 -1.45939 -0.907849 
 1.17947 0.0296524 0.0264059   0.0395989 0.368266 0.090736  0.137195 0.560501 -0.782954 -0.232376   -3.06519 -2.56268 2.02087  4.89441 5.64172 0.246094   -0.522974 0.00892178 0.653764  0.683356 0.648767 -0.334851 0.450184 -0.735513 -0.506316 -0.574768 0.195249 -0.794682   200.946 200.946 200.946 12.0568 12.0568 12.0568  0 0 0 0 0 0   0.737362 0.411729 -0.67298 0.00126419 -2.68346 -1.45939 -0.907849 
 1.18945 0.0296524 0.0264059   0.0395989 0.368266 0.090736  0.137195 0.560501 -0.782954 -0.232376   -3.29224 -2.66858 2.20886  4.74609 5.94128 0.410156   -0.522873 0.0101093 0.653815  0.684912 0.64717 -0.334764 0.448355 -0.736502 -0.5065 -0.574346 0.196815 -0.794601   200.946 200.946 200.946 12.0568 12.0568 12.0568  0 0 0 0 0 0   0.737362 0.411729 -0.67298 0.00126419 -2.68346 -1.45939 -0.907849 
 1.19949 0.0296524 0.0264059   0.0395989 0.368266 0.090736  0.137195 0.560501 -0.782954 -0.232376   -3.349 -2.66858 2.20886  4.74609 5.94128 0.410156   -0.522763 0.0113299 0.653863  0.686515 0.64552 -0.334666 0.446478 -0.737518 -0.506681 -0.573895 0.198423 -0.794527   200.946 200.946 200.946 12.0568 12.0568 12.0568  0 0 0 0 0 0   0.737362 0.411729 -0.67298 0.00126419 -2.68346 -1.45939 -0.907849 
 1.20944 0.0296524 0.0264059   0.0395989 0.368266 0.090736  0.137195 0.560501 -0.782954 -0.232376   -3.27332 -3.00745 2.39685  4.77081 6.04114 0.328125   -0.52265 0.0125633 0.653906  0.688133 0.643846 -0.334566 0.444581 -0.738542 -0.506855 -0.573428 0.200042 -0.794458   200.946 200.946 200.946 12.0568 12.0568 12.0568  0 0 0 0 0 0   0.737362 0.411729 -0.67298 0.00126419 -2.68346 -1.45939 -0.907849 
 1.21947 0.0296524 0.0264059   0.0395989 0.368266 0.090736  0.137195 0.560501 -0.782954 -0.232376   -3.53821 -2.41443 1.83289  5.19104 6.31573 0.164062   -0.522527 0.0138276 0.653942  0.689798 0.642125 -0.334445 0.442644 -0.739588 -0.507027 -0.572927 0.201706 -0.794399   200.946 200.946 200.946 12.0568 12.0568 12.0568  0 0 0 0 0 0   0.737362 0.411729 -0.67298 0.00126419 -2.68346 -1.45939 -0.907849 
 1.22944 0.0296524 0.0264059   0.0395989 0.368266 0.090736  0.137195 0.560501 -0.782954 -0.232376   -3.78418 -2.43561 2.02087  5.36407 6.69019 0.492188   -0.522398 0.0151139 0.653969  0.691497 0.640364 -0.334313 0.440679 -0.740651 -0.507186 -0.572393 0.203394 -0.794353   200.946 200.946 200.946 12.0568 12.0568 12.0568  0 0 0 0 0 0   0.737362 0.411729 -0.67298 0.00126419 -2.68346 -1.45939 -0.907849 
 1.23945 0.0296524 0.0264059   0.0395989 0.368266 0.090736  0.137195 0.560501 -0.782954 -0.232376   -3.91663 -2.52032 1.69189  5.16632 6.6153 0.410156   -0.522265 0.0163899 0.653981  0.693198 0.638606 -0.334155 0.438746 -0.741709 -0.507316 -0.571821 0.205061 -0.794337   200.946 200.946 200.946 12.0568 12.0568 12.0568  0 0 0 0 0 0   0.737362 0.411729 -0.67298 0.00126419 -2.68346 -1.45939 -0.907849 
 1.24944 0.0296524 0.0264059   0.0395989 0.368266 0.090736  0.137195 0.560501 -0.782954 -0.232376   -3.93555 -2.28735 2.02087  5.48767 6.88989 0.410156   -0.522129 0.0176467 0.653976  0.69488 0.636865 -0.333984 0.43686 -0.742754 -0.507415 -0.571222 0.206688 -0.794346   200.946 200.946 200.946 12.0568 12.0568 12.0568  0 0 0 0 0 0   0.737362 0.411729 -0.67298 0.00126419 -2.68346 -1.45939 -0.907849 
 1.25945 0.0301663 0.0298304   0.0441109 0.37696 0.0788158  0.140303 0.542131 -0.794896 -0.233559   -4.03015 -2.0332 1.83289  5.63599 7.16449 0.574219   -0.521988 0.0188933 0.653954  0.696564 0.635127 -0.333786 0.435013 -0.743794 -0.507478 -0.570581 0.208289 -0.794388   236.474 236.474 236.474 14.1884 14.1884 14.1884  0 0 0 0 0 0   0.737362 0.411729 -0.67298 0.00126419 -2.68346 -1.45939 -0.907849 
 1.26944 0.0301663 0.0298304   0.0441109 0.37696 0.0788158  0.140303 0.542131 -0.794896 -0.233559   -4.23828 -2.05438 2.06787  5.68542 7.46405 0.65625   -0.521841 0.0201338 0.653922  0.698259 0.633381 -0.333561 0.433188 -0.744834 -0.507514 -0.569897 0.209881 -0.79446   236.474 236.474 236.474 14.1884 14.1884 14.1884  0 0 0 0 0 0   0.737362 0.411729 -0.67298 0.00126419 -2.68346 -1.45939 -0.907849 
 1.27946 0.0301663 0.0298304   0.0441109 0.37696 0.0788158  0.140303 0.542131 -0.794896 -0.233559   -4.31396 -2.1391 1.69189  5.63599 7.68872 0.574219   -0.521688 0.0213619 0.653853  0.699972 0.631636 -0.333278 0.43143 -0.745875 -0.507482 -0.569128 0.211437 -0.794599   236.474 236.474 236.474 14.1884 14.1884 14.1884  0 0 0 0 0 0   0.737362 0.411729 -0.67298 0.00126419 -2.68346 -1.45939 -0.907849 
 1.28944 0.0301663 0.0298304   0.0441109 0.37696 0.0788158  0.140303 0.542131 -0.794896 -0.233559   -4.76807 -1.99084 1.69189  5.66071 7.86346 0.65625   -0.521536 0.0225572 0.653762  0.701645 0.62993 -0.33299 0.429734 -0.746892 -0.507426 -0.56835 0.212936 -0.794755   236.474 236.474 236.474 14.1884 14.1884 14.1884  0 0 0 0 0 0   0.737362 0.411729 -0.67298 0.00126419 -2.68346 -1.45939 -0.907849 
 1.29945 0.0301663 0.0298304   0.0441109 0.37696 0.0788158  0.140303 0.542131 -0.794896 -0.233559   -4.86267 -1.92731 2.06787  5.80902 8.26288 0.738281   -0.521381 0.0237354 0.653645  0.703306 0.628236 -0.332687 0.428082 -0.7479 -0.507338 -0.567545 0.214397 -0.794939   236.474 236.474 236.474 14.1884 14.1884 14.1884  0 0 0 0 0 0   0.737362 0.411729 -0.67298 0.00126419 -2.68346 -1.45939 -0.907849 
 1.30945 0.0301663 0.0298304   0.0441109 0.37696 0.0788158  0.140303 0.542131 -0.794896 -0.233559   -4.88159 -1.75787 2.06787  6.03149 8.23792 0.902344   -0.521218 0.0249141 0.653495  0.704994 0.626525 -0.332339 0.426459 -0.748916 -0.507205 -0.566671 0.215848 -0.795169   236.474 236.474 236.474 14.1884 14.1884 14.1884  0 0 0 0 0 0   0.737362 0.411729 -0.67298 0.00126419 -2.68346 -1.45939 -0.907849 
 1.31948 0.0301663 0.0298304   0.0441109 0.37696 0.0788158  0.140303 0.542131 -0.794896 -0.233559   -4.76807 -2.18146 1.87988  5.71014 8.16302 0.902344   -0.521057 0.0260425 0.653304  0.706634 0.624875 -0.331963 0.424943 -0.749899 -0.507026 -0.565767 0.217216 -0.79544   236.474 236.474 236.474 14.1884 14.1884 14.1884  0 0 0 0 0 0   0.737362 0.411729 -0.67298 0.00126419 -2.68346 -1.45939 -0.907849 
 1.32946 0.0301663 0.0298304   0.0441109 0.37696 0.0788158  0.140303 0.542131 -0.794896 -0.233559   -4.78699 -1.67316 1.50391  5.93262 8.26288 0.902344   -0.52089 0.0271748 0.653084  0.708288 0.62321 -0.331567 0.42344 -0.750889 -0.506818 -0.564824 0.218574 -0.795738   236.474 236.474 236.474 14.1884 14.1884 14.1884  0 0 0 0 0 0   0.737362 0.411729 -0.67298 0.00126419 -2.68346 -1.45939 -0.907849 
 1.33944 0.0301663 0.0298304   0.0441109 0.37696 0.0788158  0.140303 0.542131 -0.794896 -0.233559   -5.10864 -1.69434 2.06787  6.03149 8.33777 0.902344   -0.520711 0.0283095 0.652825  0.709973 0.621523 -0.331131 0.421974 -0.751899 -0.506544 -0.563805 0.219904 -0.796094   236.474 236.474 236.474 14.1884 14.1884 14.1884  0 0 0 0 0 0   0.737362 0.411729 -0.67298 0.00126419 -2.68346 -1.45939 -0.907849 
 1.34946 0.0301663 0.0298304   0.0441109 0.37696 0.0788158  0.140303 0.542131 -0.794896 -0.233559   -5.71411 -1.6308 2.11487  6.05621 9.03674 1.06641   -0.520524 0.0294507 0.652532  0.711698 0.619808 -0.330641 0.420521 -0.75292 -0.506235 -0.562715 0.221245 -0.796494   236.474 236.474 236.474 14.1884 14.1884 14.1884  0 0 0 0 0 0   0.737362 0.411729 -0.67298 0.00126419 -2.68346 -1.45939 -0.907849 
 1.35944 0.0306457 0.0392567   0.0583352 0.381933 0.0727565  -0.351744 0.344105 -0.104767 0.864229   -5.56274 -1.54608 1.92688  6.13037 8.93689 0.984375   -0.520326 0.0305889 0.652179  0.71348 0.618069 -0.330057 0.419142 -0.753963 -0.505826 -0.561486 0.222556 -0.796996   334.264 334.264 334.264 20.0558 20.0558 20.0558  0 0 0 0 0 0   0.737362 0.411729 -0.67298 0.00126419 -2.68346 -1.45939 -0.907849 
 1.36944 0.0306457 0.0392567   0.0583352 0.381933 0.0727565  -0.351744 0.344105 -0.104767 0.864229   -5.63843 -1.71552 2.11487  6.10565 9.03674 0.984375   -0.520128 0.0316978 0.651785  0.715242 0.616358 -0.329441 0.417845 -0.754994 -0.505361 -0.56021 0.2238 -0.797545   334.264 334.264 334.264 20.0558 20.0558 20.0558  0 0 0 0 0 0   0.737362 0.411729 -0.67298 0.00126419 -2.68346 -1.45939 -0.907849 
 1.37945 0.0306457 0.0392567   0.0583352 0.381933 0.0727565  -0.351744 0.344105 -0.104767 0.864229   -5.4303 -1.29193 1.69189  6.45172 9.01178 1.06641   -0.519922 0.032782 0.65132  0.717029 0.614655 -0.328738 0.416662 -0.756034 -0.504782 -0.558804 0.224971 -0.798202   334.264 334.264 334.264 20.0558 20.0558 20.0558  0 0 0 0 0 0   0.737362 0.411729 -0.67298 0.00126419 -2.68346 -1.45939 -0.907849 
 1.38945 0.0306457 0.0392567   0.0583352 0.381933 0.0727565  -0.351744 0.344105 -0.104767 0.864229   -6.20605 -1.14368 1.5509  6.69891 9.38623 1.14844   -0.519714 0.0338262 0.650856  0.718762 0.612998 -0.328048 0.41553 -0.757047 -0.504197 -0.557419 0.226083 -0.798856   334.264 334.264 334.264 20.0558 20.0558 20.0558  0 0 0 0 0 0   0.737362 0.411729 -0.67298 0.00126419 -2.68346 -1.45939 -0.907849 
 1.39945 0.0306457 0.0392567   0.0583352 0.381933 0.0727565  -0.351744 0.344105 -0.104767 0.864229   -5.67627 -0.78363 0.939941  6.87195 9.16156 1.06641   -0.519494 0.0348612 0.650329  0.720545 0.611315 -0.327275 0.41449 -0.758095 -0.503478 -0.555889 0.227127 -0.799625   334.264 334.264 334.264 20.0558 20.0558 20.0558  0 0 0 0 0 0   0.737362 0.411729 -0.67298 0.00126419 -2.68346 -1.45939 -0.907849 
 1.40944 0.0306457 0.0392567   0.0583352 0.381933 0.0727565  -0.351744 0.344105 -0.104767 0.864229   -5.5249 -1.03778 1.50391  6.87195 9.06171 1.23047   -0.51928 0.0358349 0.649771  0.722267 0.609707 -0.326478 0.413566 -0.759104 -0.502717 -0.554341 0.228076 -0.800429   334.264 334.264 334.264 20.0558 20.0558 20.0558  0 0 0 0 0 0   0.737362 0.411729 -0.67298 0.00126419 -2.68346 -1.45939 -0.907849 
 1.41948 0.0306457 0.0392567   0.0583352 0.381933 0.0727565  -0.351744 0.344105 -0.104767 0.864229   -5.979 -0.889526 1.17493  6.82251 9.46112 1.23047   -0.519063 0.0367689 0.64919  0.723954 0.608153 -0.325639 0.412734 -0.760082 -0.501922 -0.552758 0.228966 -0.80127   334.264 334.264 334.264 20.0558 20.0558 20.0558  0 0 0 0 0 0   0.737362 0.411729 -0.67298 0.00126419 -2.68346 -1.45939 -0.907849 
 1.42944 0.0306457 0.0392567   0.0583352 0.381933 0.0727565  -0.351744 0.344105 -0.104767 0.864229   -5.82764 -0.889526 1.17493  6.69891 9.28638 1.14844   -0.518841 0.0376577 0.648574  0.725611 0.606643 -0.324766 0.412014 -0.761049 -0.501048 -0.551121 0.229757 -0.802171   334.264 334.264 334.264 20.0558 20.0558 20.0558  0 0 0 0 0 0   0.737362 0.411729 -0.67298 0.00126419 -2.68346 -1.45939 -0.907849 
 1.43944 0.0306457 0.0392567   0.0583352 0.381933 0.0727565  -0.351744 0.344105 -0.104767 0.864229   -6.43311 -0.825989 1.5509  6.84723 9.66083 1.20996   -0.518619 0.0385195 0.647939  0.727232 0.605165 -0.323897 0.411337 -0.762001 -0.500156 -0.549487 0.230499 -0.803078   334.264 334.264 334.264 20.0558 20.0558 20.0558  0 0 0 0 0 0   0.737362 0.411729 -0.67298 0.00126419 -2.68346 -1.45939 -0.907849 
 1.4495 0.0306457 0.0392567   0.0583352 0.381933 0.0727565  -0.351744 0.344105 -0.104767 0.864229   -5.61951 -0.78363 0.939941  6.99554 9.16156 1.23047   -0.518391 0.0393389 0.647234  0.728875 0.603711 -0.322915 0.41081 -0.762957 -0.499131 -0.547701 0.231147 -0.804111   334.264 334.264 334.264 20.0558 20.0558 20.0558  0 0 0 0 0 0   0.737362 0.411729 -0.67298 0.00126419 -2.68346 -1.45939 -0.907849 
 1.45942 0.0309928 0.0426874   0.0631301 0.387894 0.0672331  -0.361472 0.350763 -0.109852 0.856876   -6.37634 -0.656555 1.17493  6.94611 9.56097 1.29199   -0.518165 0.0401015 0.646518  0.73044 0.602342 -0.321933 0.41037 -0.763864 -0.498105 -0.545943 0.231724 -0.80514   369.855 369.855 369.855 22.1913 22.1913 22.1913  0 0 0 0 0 0   0.737362 0.411729 -0.67298 0.00126419 -2.68346 -1.45939 -0.907849 
 1.46944 0.0309928 0.0426874   0.0631301 0.387894 0.0672331  -0.361472 0.350763 -0.109852 0.856876   -6.01685 -0.296509 0.939941  7.31689 9.3363 1.3125   -0.517928 0.0408333 0.645751  0.732015 0.600996 -0.320871 0.410044 -0.764772 -0.496979 -0.544075 0.232225 -0.806259   369.855 369.855 369.855 22.1913 22.1913 22.1913  0 0 0 0 0 0   0.737362 0.411729 -0.67298 0.00126419 -2.68346 -1.45939 -0.907849 
 1.47944 0.0309928 0.0426874   0.0631301 0.387894 0.0672331  -0.361472 0.350763 -0.109852 0.856876   -6.60339 -0.487122 0.79895  7.16858 9.63586 1.20996   -0.517692 0.0415148 0.644957  0.733535 0.599714 -0.319796 0.409818 -0.765653 -0.495806 -0.542195 0.232633 -0.807407   369.855 369.855 369.855 22.1913 22.1913 22.1913  0 0 0 0 0 0   0.737362 0.411729 -0.67298 0.00126419 -2.68346 -1.45939 -0.907849 
 1.48944 0.0309928 0.0426874   0.0631301 0.387894 0.0672331  -0.361472 0.350763 -0.109852 0.856876   -5.94116 -0.27533 0.751953  7.09442 9.26141 1.14844   -0.517441 0.0421668 0.644088  0.735094 0.598439 -0.318602 0.409728 -0.766552 -0.49449 -0.540147 0.232956 -0.808686   369.855 369.855 369.855 22.1913 22.1913 22.1913  0 0 0 0 0 0   0.737362 0.411729 -0.67298 0.00126419 -2.68346 -1.45939 -0.907849 
 1.49947 0.0309928 0.0426874   0.0631301 0.387894 0.0672331  -0.361472 0.350763 -0.109852 0.856876   -6.67908 -0.487122 0.79895  6.84723 9.56097 1.12793   -0.517195 0.0427728 0.643211  0.736587 0.597231 -0.31742 0.409706 -0.767416 -0.493166 -0.538127 0.233211 -0.809958   369.855 369.855 369.855 22.1913 22.1913 22.1913  0 0 0 0 0 0   0.737362 0.411729 -0.67298 0.00126419 -2.68346 -1.45939 -0.907849 
 1.50945 0.0309928 0.0426874   0.0631301 0.387894 0.0672331  -0.361472 0.350763 -0.109852 0.856876   -5.77087 -0.360046 0.939941  6.92139 8.862 1.14844   -0.516939 0.0433553 0.642289  0.738091 0.596034 -0.316172 0.409774 -0.76829 -0.491747 -0.53601 0.233395 -0.811307   369.855 369.855 369.855 22.1913 22.1913 22.1913  0 0 0 0 0 0   0.737362 0.411729 -0.67298 0.00126419 -2.68346 -1.45939 -0.907849 
 1.51944 0.0309928 0.0426874   0.0631301 0.387894 0.0672331  -0.361472 0.350763 -0.109852 0.856876   -6.60339 -0.571838 0.986938  6.79779 9.36127 1.0459   -0.51669 0.043883 0.641403  0.739463 0.59494 -0.315026 0.409869 -0.769103 -0.490396 -0.534043 0.23351 -0.812571   369.855 369.855 369.855 22.1913 22.1913 22.1913  0 0 0 0 0 0   0.737362 0.411729 -0.67298 0.00126419 -2.68346 -1.45939 -0.907849 
 1.52944 0.0309928 0.0426874   0.0631301 0.387894 0.0672331  -0.361472 0.350763 -0.109852 0.856876   -6.14929 -0.360046 0.610962  6.74835 8.98682 1.12793   -0.516437 0.0443642 0.640498  0.740784 0.593907 -0.313868 0.410052 -0.76989 -0.489005 -0.532067 0.233545 -0.813856   369.855 369.855 369.855 22.1913 22.1913 22.1913  0 0 0 0 0 0   0.737362 0.411729 -0.67298 0.00126419 -2.68346 -1.45939 -0.907849 
 1.53946 0.0309928 0.0426874   0.0631301 0.387894 0.0672331  -0.361472 0.350763 -0.109852 0.856876   -6.09253 -0.105896 0.563965  7.0697 9.06171 1.12793   -0.516182 0.0448064 0.639568  0.742057 0.592929 -0.312709 0.410303 -0.770653 -0.487592 -0.530097 0.233516 -0.815149   369.855 369.855 369.855 22.1913 22.1913 22.1913  0 0 0 0 0 0   0.737362 0.411729 -0.67298 0.00126419 -2.68346 -1.45939 -0.907849 
 1.54944 0.0309928 0.0426874   0.0631301 0.387894 0.0672331  -0.361472 0.350763 -0.109852 0.856876   -6.60339 -0.381226 0.986938  6.87195 9.06171 1.0459   -0.515927 0.0452175 0.638632  0.743276 0.592 -0.311571 0.410596 -0.771392 -0.486174 -0.528158 0.233432 -0.81643   369.855 369.855 369.855 22.1913 22.1913 22.1913  0 0 0 0 0 0   0.737362 0.411729 -0.67298 0.00126419 -2.68346 -1.45939 -0.907849 
 1.55949 0.0188706 0.027763   0.0571049 0.0828928 -0.390565  0.416246 0.122608 -0.129823 0.891545   -5.77087 -0.0847168 0.751953  6.99554 8.46259 1.23047   -0.515662 0.0456047 0.637618  0.744523 0.59108 -0.310337 0.41099 -0.77214 -0.484651 -0.526091 0.233288 -0.817805   215.026 215.026 215.026 12.9016 12.9016 12.9016  0 0 0 0 0 0   0.737362 0.411729 -0.67298 0.00126419 -2.68346 -1.45939 -0.907849 
 1.56944 0.0188706 0.027763   0.0571049 0.0828928 -0.390565  0.416246 0.122608 -0.129823 0.891545   -6.58447 -0.232971 0.610962  6.57532 9.08667 1.12793   -0.515399 0.0459496 0.636591  0.745719 0.590221 -0.309098 0.411455 -0.772859 -0.483109 -0.52403 0.233084 -0.819185   215.026 215.026 215.026 12.9016 12.9016 12.9016  0 0 0 0 0 0   0.737362 0.411729 -0.67298 0.00126419 -2.68346 -1.45939 -0.907849 
 1.57944 0.0188706 0.027763   0.0571049 0.0828928 -0.390565  0.416246 0.122608 -0.129823 0.891545   -6.05469 -0.27533 0.610962  6.60004 8.68726 1.20996   -0.515126 0.0462694 0.635522  0.746914 0.589382 -0.307814 0.411995 -0.77358 -0.481491 -0.5219 0.232814 -0.82062   215.026 215.026 215.026 12.9016 12.9016 12.9016  0 0 0 0 0 0   0.737362 0.411729 -0.67298 0.00126419 -2.68346 -1.45939 -0.907849 
 1.58944 0.0188706 0.027763   0.0571049 0.0828928 -0.390565  0.416246 0.122608 -0.129823 0.891545   -5.77087 -0.105896 0.375977  6.77307 8.48755 1.29199   -0.514853 0.0465584 0.634454  0.74806 0.588591 -0.306541 0.412585 -0.77428 -0.479858 -0.519788 0.232489 -0.822052   215.026 215.026 215.026 12.9016 12.9016 12.9016  0 0 0 0 0 0   0.737362 0.411729 -0.67298 0.00126419 -2.68346 -1.45939 -0.907849 
 1.59946 0.0188706 0.027763   0.0571049 0.0828928 -0.390565  0.416246 0.122608 -0.129823 0.891545   -6.37634 -0.127075 0.234985  6.72363 8.68726 1.37402   -0.514579 0.0468257 0.633415  0.749149 0.587842 -0.305316 0.413184 -0.774958 -0.478246 -0.51774 0.232126 -0.823445   215.026 215.026 215.026 12.9016 12.9016 12.9016  0 0 0 0 0 0   0.737362 0.411729 -0.67298 0.00126419 -2.68346 -1.45939 -0.907849 
 1.60944 0.0188706 0.027763   0.0571049 0.0828928 -0.390565  0.416246 0.122608 -0.129823 0.891545   -6.77368 0.27533 0.422974  6.94611 8.862 1.45605   -0.514305 0.0470733 0.632386  0.750203 0.587124 -0.304108 0.4138 -0.775619 -0.476639 -0.515718 0.231736 -0.824823   215.026 215.026 215.026 12.9016 12.9016 12.9016  0 0 0 0 0 0   0.737362 0.411729 -0.67298 0.00126419 -2.68346 -1.45939 -0.907849 
 1.61944 0.0188706 0.027763   0.0571049 0.0828928 -0.390565  0.416246 0.122608 -0.129823 0.891545   -5.979 0.825989 0.516968  7.48993 8.41266 1.64062   -0.514025 0.047313 0.631307  0.751287 0.586394 -0.302835 0.414466 -0.776297 -0.474954 -0.5136 0.231312 -0.826262   215.026 215.026 215.026 12.9016 12.9016 12.9016  0 0 0 0 0 0   0.737362 0.411729 -0.67298 0.00126419 -2.68346 -1.45939 -0.907849 
 1.62944 0.0188706 0.027763   0.0571049 0.0828928 -0.390565  0.416246 0.122608 -0.129823 0.891545   -6.66016 1.14368 0.187988  7.66296 8.88696 1.62012   -0.513746 0.0475368 0.630231  0.75235 0.585677 -0.301581 0.415138 -0.776973 -0.473258 -0.511497 0.230858 -0.827693   215.026 215.026 215.026 12.9016 12.9016 12.9016  0 0 0 0 0 0   0.737362 0.411729 -0.67298 0.00126419 -2.68346 -1.45939 -0.907849 
 1.63945 0.0188706 0.027763   0.0571049 0.0828928 -0.390565  0.416246 0.122608 -0.129823 0.891545   -7.03857 1.20721 0  7.58881 9.08667 1.62012   -0.513464 0.0477439 0.629098  0.753445 0.584969 -0.300218 0.415884 -0.777644 -0.471497 -0.509274 0.230391 -0.829192   215.026 215.026 215.026 12.9016 12.9016 12.9016  0 0 0 0 0 0   0.737362 0.411729 -0.67298 0.00126419 -2.68346 -1.45939 -0.907849 
 1.64947 0.0188706 0.027763   0.0571049 0.0828928 -0.390565  0.416246 0.122608 -0.129823 0.891545   -6.75476 1.31311 -0.375977  7.73712 8.68726 1.62012   -0.513173 0.0479429 0.627909  0.754592 0.584251 -0.298735 0.416701 -0.778327 -0.469645 -0.506904 0.229907 -0.830777   215.026 215.026 215.026 12.9016 12.9016 12.9016  0 0 0 0 0 0   0.737362 0.411729 -0.67298 0.00126419 -2.68346 -1.45939 -0.907849 
 1.65948 0.0189903 0.0293629   0.060105 0.0901298 -0.390935  0.421864 0.121117 -0.122862 0.890093   -6.37634 1.41901 -0.610962  7.78656 8.28784 1.62012   -0.512879 0.0481362 0.626735  0.755724 0.583541 -0.297256 0.417512 -0.779004 -0.4678 -0.504544 0.22942 -0.832347   231.623 231.623 231.623 13.8974 13.8974 13.8974  0 0 0 0 0 0   0.737362 0.411729 -0.67298 0.00126419 -2.68346 -1.45939 -0.907849 
 1.66947 0.0189903 0.0293629   0.060105 0.0901298 -0.390935  0.421864 0.121117 -0.122862 0.890093   -6.83044 1.39783 -0.375977  7.91016 8.56244 1.78418   -0.512591 0.0483135 0.625608  0.756786 0.582874 -0.295859 0.418293 -0.779648 -0.466026 -0.5023 0.228926 -0.833839   231.623 231.623 231.623 13.8974 13.8974 13.8974  0 0 0 0 0 0   0.737362 0.411729 -0.67298 0.00126419 -2.68346 -1.45939 -0.907849 
 1.67954 0.0189903 0.0293629   0.060105 0.0901298 -0.390935  0.421864 0.121117 -0.122862 0.890093   -7.07642 1.82141 -0.375977  8.23151 8.63733 1.78418   -0.512304 0.0484592 0.624485  0.757802 0.582257 -0.294471 0.419117 -0.780265 -0.464248 -0.500077 0.22839 -0.835321   231.623 231.623 231.623 13.8974 13.8974 13.8974  0 0 0 0 0 0   0.737362 0.411729 -0.67298 0.00126419 -2.68346 -1.45939 -0.907849 
 1.68941 0.0189903 0.0293629   0.060105 0.0901298 -0.390935  0.421864 0.121117 -0.122862 0.890093   -6.64124 2.09674 -0.610962  8.4787 8.31281 1.94824   -0.512015 0.0485753 0.623333  0.758814 0.581667 -0.293026 0.420018 -0.780879 -0.462399 -0.49778 0.227799 -0.836853   231.623 231.623 231.623 13.8974 13.8974 13.8974  0 0 0 0 0 0   0.737362 0.411729 -0.67298 0.00126419 -2.68346 -1.45939 -0.907849 
 1.69944 0.0189903 0.0293629   0.060105 0.0901298 -0.390935  0.421864 0.121117 -0.122862 0.890093   -6.81152 2.32971 -0.610962  8.62701 8.48755 1.94824   -0.511727 0.0486748 0.622179  0.759815 0.58109 -0.291574 0.420939 -0.781487 -0.460531 -0.495472 0.227184 -0.838389   231.623 231.623 231.623 13.8974 13.8974 13.8974  0 0 0 0 0 0   0.737362 0.411729 -0.67298 0.00126419 -2.68346 -1.45939 -0.907849 
 1.70944 0.0189903 0.0293629   0.060105 0.0901298 -0.390935  0.421864 0.121117 -0.122862 0.890093   -7.2467 2.22382 -0.422974  8.45398 8.81207 1.94824   -0.511432 0.0487586 0.620988  0.760844 0.580518 -0.290026 0.421925 -0.782098 -0.458588 -0.493047 0.226545 -0.839989   231.623 231.623 231.623 13.8974 13.8974 13.8974  0 0 0 0 0 0   0.737362 0.411729 -0.67298 0.00126419 -2.68346 -1.45939 -0.907849 
 1.71947 0.0189903 0.0293629   0.060105 0.0901298 -0.390935  0.421864 0.121117 -0.122862 0.890093   -6.98181 2.66858 -1.22192  8.82477 8.5874 2.03027   -0.511126 0.0488237 0.619768  0.761903 0.579946 -0.288385 0.422982 -0.782717 -0.456552 -0.490499 0.225867 -0.841662   231.623 231.623 231.623 13.8974 13.8974 13.8974  0 0 0 0 0 0   0.737362 0.411729 -0.67298 0.00126419 -2.68346 -1.45939 -0.907849 
 1.72946 0.0189903 0.0293629   0.060105 0.0901298 -0.390935  0.421864 0.121117 -0.122862 0.890093   -6.67908 2.85919 -1.22192  9.02252 8.46259 2.1123   -0.510824 0.048864 0.618591  0.762899 0.579408 -0.286829 0.424013 -0.783318 -0.454561 -0.488055 0.225165 -0.843269   231.623 231.623 231.623 13.8974 13.8974 13.8974  0 0 0 0 0 0   0.737362 0.411729 -0.67298 0.00126419 -2.68346 -1.45939 -0.907849 
 1.73944 0.0189903 0.0293629   0.060105 0.0901298 -0.390935  0.421864 0.121117 -0.122862 0.890093   -6.92505 2.92273 -1.22192  9.1214 8.56244 2.1123   -0.510526 0.0488709 0.617457  0.763836 0.578889 -0.285381 0.425002 -0.783912 -0.452609 -0.485724 0.224431 -0.844809   231.623 231.623 231.623 13.8974 13.8974 13.8974  0 0 0 0 0 0   0.737362 0.411729 -0.67298 0.00126419 -2.68346 -1.45939 -0.907849 
 1.74944 0.0189903 0.0293629   0.060105 0.0901298 -0.390935  0.421864 0.121117 -0.122862 0.890093   -7.45483 3.1557 -1.17493  9.19556 8.93689 2.1123   -0.510239 0.0488315 0.616352  0.764712 0.578396 -0.28403 0.425973 -0.7845 -0.450675 -0.48349 0.223648 -0.846298   231.623 231.623 231.623 13.8974 13.8974 13.8974  0 0 0 0 0 0   0.737362 0.411729 -0.67298 0.00126419 -2.68346 -1.45939 -0.907849 
 1.75944 0.0191777 0.0312713   0.0633488 0.093005 -0.391929  0.533582 -0.310215 -0.731254 -0.290387   -7.01965 3.2616 -1.40991  9.46747 8.71222 2.19434   -0.509946 0.0487604 0.61523  0.76561 0.577856 -0.282707 0.426927 -0.785139 -0.448654 -0.481221 0.222799 -0.847813   251.422 251.422 251.422 15.0853 15.0853 15.0853  0 0 0 0 0 0   0.737362 0.411729 -0.67298 0.00126419 -2.68346 -1.45939 -0.907849 
 1.76947 0.0191777 0.0312713   0.0633488 0.093005 -0.391929  0.533582 -0.310215 -0.731254 -0.290387   -7.01965 3.51575 -1.5979  9.56635 8.71222 2.27637   -0.509653 0.0486653 0.614111  0.766525 0.577254 -0.281454 0.427804 -0.785827 -0.446609 -0.478981 0.22193 -0.849308   251.422 251.422 251.422 15.0853 15.0853 15.0853  0 0 0 0 0 0   0.737362 0.411729 -0.67298 0.00126419 -2.68346 -1.45939 -0.907849 
 1.77943 0.0191777 0.0312713   0.0633488 0.093005 -0.391929  0.533582 -0.310215 -0.731254 -0.290387   -7.26562 3.68518 -1.5979  9.68994 8.81207 2.19434   -0.509365 0.0485326 0.612971  0.767466 0.576593 -0.280244 0.428631 -0.786568 -0.444507 -0.476731 0.221023 -0.85081   251.422 251.422 251.422 15.0853 15.0853 15.0853  0 0 0 0 0 0   0.737362 0.411729 -0.67298 0.00126419 -2.68346 -1.45939 -0.907849 
 1.78944 0.0191777 0.0312713   0.0633488 0.093005 -0.391929  0.533582 -0.310215 -0.731254 -0.290387   -7.26562 3.85461 -1.97388  9.78882 8.88696 2.27637   -0.509079 0.0483597 0.611824  0.768427 0.575864 -0.279106 0.429401 -0.787375 -0.44233 -0.474483 0.22005 -0.852317   251.422 251.422 251.422 15.0853 15.0853 15.0853  0 0 0 0 0 0   0.737362 0.411729 -0.67298 0.00126419 -2.68346 -1.45939 -0.907849 
 1.79945 0.0191777 0.0312713   0.0633488 0.093005 -0.391929  0.533582 -0.310215 -0.731254 -0.290387   -6.81152 3.79108 -2.20886  9.73938 8.51251 2.3584   -0.508801 0.0481404 0.610721  0.769317 0.575169 -0.278088 0.430148 -0.788169 -0.440185 -0.472361 0.219023 -0.853759   251.422 251.422 251.422 15.0853 15.0853 15.0853  0 0 0 0 0 0   0.737362 0.411729 -0.67298 0.00126419 -2.68346 -1.45939 -0.907849 
 1.80944 0.0191777 0.0312713   0.0633488 0.093005 -0.391929  0.533582 -0.310215 -0.731254 -0.290387   -6.81152 3.79108 -2.20886  9.68994 8.31281 2.19434   -0.508537 0.0478695 0.609684  0.770083 0.574578 -0.277185 0.430905 -0.788891 -0.438146 -0.470418 0.217968 -0.8551   251.422 251.422 251.422 15.0853 15.0853 15.0853  0 0 0 0 0 0   0.737362 0.411729 -0.67298 0.00126419 -2.68346 -1.45939 -0.907849 
 1.81944 0.0191777 0.0312713   0.0633488 0.093005 -0.391929  0.533582 -0.310215 -0.731254 -0.290387   -7.26562 3.85461 -1.78589  9.6405 8.61237 2.27637   -0.508279 0.0475634 0.608678  0.770758 0.574088 -0.276325 0.431706 -0.789543 -0.436179 -0.468575 0.216897 -0.856384   251.422 251.422 251.422 15.0853 15.0853 15.0853  0 0 0 0 0 0   0.737362 0.411729 -0.67298 0.00126419 -2.68346 -1.45939 -0.907849 
 1.82947 0.0191777 0.0312713   0.0633488 0.093005 -0.391929  0.533582 -0.310215 -0.731254 -0.290387   -6.67908 3.98169 -2.02087  9.98657 8.28784 2.21484   -0.50802 0.047211 0.607662  0.771452 0.57354 -0.275525 0.432474 -0.790257 -0.434121 -0.466721 0.215746 -0.857686   251.422 251.422 251.422 15.0853 15.0853 15.0853  0 0 0 0 0 0   0.737362 0.411729 -0.67298 0.00126419 -2.68346 -1.45939 -0.907849 
 1.83944 0.0191777 0.0312713   0.0633488 0.093005 -0.391929  0.533582 -0.310215 -0.731254 -0.290387   -6.88721 4.04523 -1.83289  9.81354 8.3877 2.19434   -0.507775 0.0468029 0.606675  0.772126 0.57295 -0.274861 0.433163 -0.791013 -0.432052 -0.464963 0.214539 -0.858943   251.422 251.422 251.422 15.0853 15.0853 15.0853  0 0 0 0 0 0   0.737362 0.411729 -0.67298 0.00126419 -2.68346 -1.45939 -0.907849 
 1.84944 0.0191777 0.0312713   0.0633488 0.093005 -0.391929  0.533582 -0.310215 -0.731254 -0.290387   -6.98181 4.12994 -1.6449  9.81354 8.28784 2.27637   -0.507531 0.0463513 0.605677  0.772787 0.572367 -0.274217 0.433872 -0.791776 -0.429936 -0.4632 0.213274 -0.860209   251.422 251.422 251.422 15.0853 15.0853 15.0853  0 0 0 0 0 0   0.737362 0.411729 -0.67298 0.00126419 -2.68346 -1.45939 -0.907849 
 1.85957 0.0189705 0.0342656   0.0699286 0.0985868 -0.388927  0.529061 -0.302274 -0.734272 -0.29928   -6.75476 4.15112 -2.02087  9.78882 8.18799 2.1123   -0.507284 0.0458441 0.604668  0.773396 0.571874 -0.273531 0.434689 -0.792487 -0.427797 -0.461415 0.211955 -0.861493   282.485 282.485 282.485 16.9491 16.9491 16.9491  0 0 0 0 0 0   0.737362 0.411729 -0.67298 0.00126419 -2.68346 -1.45939 -0.907849 
 1.86944 0.0189705 0.0342656   0.0699286 0.0985868 -0.388927  0.529061 -0.302274 -0.734272 -0.29928   -6.98181 4.21466 -1.83289  9.78882 8.18799 2.1123   -0.507049 0.0453112 0.603712  0.774051 0.571223 -0.273036 0.435276 -0.793303 -0.425683 -0.45976 0.210654 -0.862697   282.485 282.485 282.485 16.9491 16.9491 16.9491  0 0 0 0 0 0   0.737362 0.411729 -0.67298 0.00126419 -2.68346 -1.45939 -0.907849 
 1.87944 0.0189705 0.0342656   0.0699286 0.0985868 -0.388927  0.529061 -0.302274 -0.734272 -0.29928   -6.86829 3.72754 -2.02087  9.41803 7.81354 2.03027   -0.506822 0.0447375 0.602782  0.774667 0.570591 -0.272611 0.435843 -0.794107 -0.423597 -0.458183 0.209331 -0.863857   282.485 282.485 282.485 16.9491 16.9491 16.9491  0 0 0 0 0 0   0.737362 0.411729 -0.67298 0.00126419 -2.68346 -1.45939 -0.907849 
 1.88944 0.0189705 0.0342656   0.0699286 0.0985868 -0.388927  0.529061 -0.302274 -0.734272 -0.29928   -6.30066 4.34174 -1.87988  9.78882 7.58887 1.96875   -0.506594 0.0441395 0.601887  0.77525 0.569968 -0.272258 0.436376 -0.794905 -0.421547 -0.456688 0.207997 -0.86497   282.485 282.485 282.485 16.9491 16.9491 16.9491  0 0 0 0 0 0   0.737362 0.411729 -0.67298 0.00126419 -2.68346 -1.45939 -0.907849 
 1.89942 0.0189705 0.0342656   0.0699286 0.0985868 -0.388927  0.529061 -0.302274 -0.734272 -0.29928   -7.49268 4.02405 -1.5979  9.51691 8.41266 1.94824   -0.506387 0.0434715 0.601049  0.775813 0.569279 -0.272093 0.436784 -0.795758 -0.41951 -0.455339 0.206616 -0.866012   282.485 282.485 282.485 16.9491 16.9491 16.9491  0 0 0 0 0 0   0.737362 0.411729 -0.67298 0.00126419 -2.68346 -1.45939 -0.907849 
 1.90947 0.0189705 0.0342656   0.0699286 0.0985868 -0.388927  0.529061 -0.302274 -0.734272 -0.29928   -6.64124 3.81226 -1.6449  9.29443 7.53894 1.88672   -0.506172 0.0427879 0.600201  0.776359 0.568626 -0.271904 0.437241 -0.79659 -0.41745 -0.453969 0.205204 -0.867066   282.485 282.485 282.485 16.9491 16.9491 16.9491  0 0 0 0 0 0   0.737362 0.411729 -0.67298 0.00126419 -2.68346 -1.45939 -0.907849 
 1.91944 0.0189705 0.0342656   0.0699286 0.0985868 -0.388927  0.529061 -0.302274 -0.734272 -0.29928   -6.96289 4.15112 -1.40991  9.39331 7.63879 1.72266   -0.505964 0.0420865 0.599368  0.776945 0.567887 -0.271773 0.437589 -0.797474 -0.415393 -0.452628 0.203813 -0.868095   282.485 282.485 282.485 16.9491 16.9491 16.9491  0 0 0 0 0 0   0.737362 0.411729 -0.67298 0.00126419 -2.68346 -1.45939 -0.907849 
 1.92947 0.0189705 0.0342656   0.0699286 0.0985868 -0.388927  0.529061 -0.302274 -0.734272 -0.29928   -6.96289 4.15112 -1.5979  9.49219 7.61383 1.72266   -0.50575 0.0413642 0.598525  0.777452 0.567296 -0.271558 0.438089 -0.798253 -0.413365 -0.451273 0.202405 -0.869129   282.485 282.485 282.485 16.9491 16.9491 16.9491  0 0 0 0 0 0   0.737362 0.411729 -0.67298 0.00126419 -2.68346 -1.45939 -0.907849 
 1.93945 0.0189705 0.0342656   0.0699286 0.0985868 -0.388927  0.529061 -0.302274 -0.734272 -0.29928   -7.34131 4.21466 -1.40991  9.41803 7.8385 1.70215   -0.505544 0.0406149 0.597686  0.777967 0.566685 -0.271357 0.438559 -0.79904 -0.41134 -0.449925 0.201003 -0.870152   282.485 282.485 282.485 16.9491 16.9491 16.9491  0 0 0 0 0 0   0.737362 0.411729 -0.67298 0.00126419 -2.68346 -1.45939 -0.907849 
 1.94944 0.0189705 0.0342656   0.0699286 0.0985868 -0.388927  0.529061 -0.302274 -0.734272 -0.29928   -6.86829 3.89697 -1.5979  9.07196 7.46405 1.78418   -0.505338 0.039805 0.596841  0.77836 0.566269 -0.271099 0.439232 -0.799705 -0.409324 -0.448587 0.199526 -0.871182   282.485 282.485 282.485 16.9491 16.9491 16.9491  0 0 0 0 0 0   0.737362 0.411729 -0.67298 0.00126419 -2.68346 -1.45939 -0.907849 
 1.95945 0.0187215 0.0334105   0.0689985 0.0950642 -0.387072  -0.23753 -0.932999 0.107444 0.24809   -6.81152 4.34174 -1.5979  9.34387 7.43909 1.62012   -0.505146 0.0389529 0.596025  0.778745 0.565819 -0.270932 0.439838 -0.800394 -0.407323 -0.447324 0.198034 -0.872172   273.614 273.614 273.614 16.4168 16.4168 16.4168  0 0 0 0 0 0   0.737362 0.411729 -0.67298 0.00126419 -2.68346 -1.45939 -0.907849 
 1.96944 0.0187215 0.0334105   0.0689985 0.0950642 -0.387072  -0.23753 -0.932999 0.107444 0.24809   -6.92505 3.664 -1.22192  8.89893 7.16449 1.70215   -0.504965 0.0380271 0.595248  0.779004 0.565508 -0.270836 0.440549 -0.801003 -0.405353 -0.446171 0.196455 -0.873119   273.614 273.614 273.614 16.4168 16.4168 16.4168  0 0 0 0 0 0   0.737362 0.411729 -0.67298 0.00126419 -2.68346 -1.45939 -0.907849 
 1.97944 0.0187215 0.0334105   0.0689985 0.0950642 -0.387072  -0.23753 -0.932999 0.107444 0.24809   -6.48987 4.02405 -1.22192  8.94836 6.86493 1.47656   -0.504788 0.0370843 0.59448  0.779325 0.565083 -0.270804 0.441138 -0.801687 -0.403355 -0.445029 0.194883 -0.874054   273.614 273.614 273.614 16.4168 16.4168 16.4168  0 0 0 0 0 0   0.737362 0.411729 -0.67298 0.00126419 -2.68346 -1.45939 -0.907849 
 1.98943 0.0187215 0.0334105   0.0689985 0.0950642 -0.387072  -0.23753 -0.932999 0.107444 0.24809   -7.09534 3.98169 -0.79895  8.70117 7.18945 1.39453   -0.504623 0.0360929 0.593746  0.77956 0.564752 -0.270816 0.441788 -0.802309 -0.401402 -0.443971 0.193273 -0.874949   273.614 273.614 273.614 16.4168 16.4168 16.4168  0 0 0 0 0 0   0.737362 0.411729 -0.67298 0.00126419 -2.68346 -1.45939 -0.907849 
 1.99945 0.0187215 0.0334105   0.0689985 0.0950642 -0.387072  -0.23753 -0.932999 0.107444 0.24809   -6.7926 4.25702 -1.22192  8.87421 6.98975 1.47656   -0.50446 0.0350477 0.592996  0.77982 0.564373 -0.270858 0.442407 -0.802972 -0.39939 -0.442896 0.191622 -0.875856   273.614 273.614 273.614 16.4168 16.4168 16.4168  0 0 0 0 0 0   0.737362 0.411729 -0.67298 0.00126419 -2.68346 -1.45939 -0.907849 
 2.00944 0.0187215 0.0334105   0.0689985 0.0950642 -0.387072  -0.23753 -0.932999 0.107444 0.24809   -6.94397 4.00287 -0.845947  8.87421 6.96478 1.47656   -0.504307 0.0339691 0.592271  0.780014 0.564081 -0.270909 0.443083 -0.80357 -0.397432 -0.441878 0.189967 -0.876731   273.614 273.614 273.614 16.4168 16.4168 16.4168  0 0 0 0 0 0   0.737362 0.411729 -0.67298 0.00126419 -2.68346 -1.45939 -0.907849 
 2.01943 0.0187215 0.0334105   0.0689985 0.0950642 -0.387072  -0.23753 -0.932999 0.107444 0.24809   -6.47095 3.7699 -1.22192  8.62701 6.69019 1.39453   -0.504152 0.0328429 0.591537  0.780194 0.563801 -0.270973 0.443788 -0.804169 -0.39543 -0.440852 0.188258 -0.877616   273.614 273.614 273.614 16.4168 16.4168 16.4168  0 0 0 0 0 0   0.737362 0.411729 -0.67298 0.00126419 -2.68346 -1.45939 -0.907849 
 2.02945 0.0187215 0.0334105   0.0689985 0.0950642 -0.387072  -0.23753 -0.932999 0.107444 0.24809   -6.698 3.7699 -0.79895  8.40454 6.6153 1.39453   -0.503994 0.0317483 0.590822  0.78036 0.563556 -0.271004 0.444495 -0.804723 -0.393503 -0.439844 0.186614 -0.878471   273.614 273.614 273.614 16.4168 16.4168 16.4168  0 0 0 0 0 0   0.737362 0.411729 -0.67298 0.00126419 -2.68346 -1.45939 -0.907849 
 2.03944 0.0187215 0.0334105   0.0689985 0.0950642 -0.387072  -0.23753 -0.932999 0.107444 0.24809   -6.62231 3.7699 -0.610962  8.50342 6.51544 1.23047   -0.503826 0.0306607 0.590099  0.780538 0.563312 -0.270997 0.445208 -0.805269 -0.391575 -0.438805 0.184989 -0.879334   273.614 273.614 273.614 16.4168 16.4168 16.4168  0 0 0 0 0 0   0.737362 0.411729 -0.67298 0.00126419 -2.68346 -1.45939 -0.907849 
 2.04945 0.0187215 0.0334105   0.0689985 0.0950642 -0.387072  -0.23753 -0.932999 0.107444 0.24809   -6.60339 3.60046 -1.36292  8.28094 6.44055 1.0459   -0.503665 0.0295602 0.589361  0.780731 0.563065 -0.270953 0.445922 -0.805808 -0.38965 -0.437735 0.183388 -0.880203   273.614 273.614 273.614 16.4168 16.4168 16.4168  0 0 0 0 0 0   0.737362 0.411729 -0.67298 0.00126419 -2.68346 -1.45939 -0.907849 
 2.05952 0.0187116 0.0347655   0.0711452 0.0775364 -0.386442  -0.574373 0.313345 0.705074 0.273462   -6.83044 3.43103 -0.986938  8.08319 6.54041 0.963867   -0.503516 0.0284038 0.58865  0.780858 0.562891 -0.270952 0.446682 -0.8063 -0.387758 -0.436734 0.181754 -0.881038   287.671 287.671 287.671 17.2603 17.2603 17.2603  0 0 0 0 0 0   0.737362 0.411729 -0.67298 0.00126419 -2.68346 -1.45939 -0.907849 
 2.06946 0.0187116 0.0347655   0.0711452 0.0775364 -0.386442  -0.574373 0.313345 0.705074 0.273462   -6.43311 3.2616 -1.17493  7.95959 6.36566 0.984375   -0.503374 0.0271946 0.587969  0.780976 0.562671 -0.271067 0.447377 -0.806831 -0.385847 -0.43581 0.180068 -0.881842   287.671 287.671 287.671 17.2603 17.2603 17.2603  0 0 0 0 0 0   0.737362 0.411729 -0.67298 0.00126419 -2.68346 -1.45939 -0.907849 
 2.07945 0.0187116 0.0347655   0.0711452 0.0775364 -0.386442  -0.574373 0.313345 0.705074 0.273462   -6.60339 3.45221 -1.17493  8.03375 6.24084 0.799805   -0.503248 0.0259483 0.587336  0.78102 0.562523 -0.271249 0.448093 -0.807311 -0.384006 -0.434994 0.178372 -0.882589   287.671 287.671 287.671 17.2603 17.2603 17.2603  0 0 0 0 0 0   0.737362 0.411729 -0.67298 0.00126419 -2.68346 -1.45939 -0.907849 
 2.08944 0.0187116 0.0347655   0.0711452 0.0775364 -0.386442  -0.574373 0.313345 0.705074 0.273462   -6.01685 3.64282 -0.845947  8.50342 6.01617 0.984375   -0.503124 0.0246761 0.586694  0.781098 0.562318 -0.271448 0.448763 -0.807829 -0.382132 -0.434163 0.176667 -0.883341   287.671 287.671 287.671 17.2603 17.2603 17.2603  0 0 0 0 0 0   0.737362 0.411729 -0.67298 0.00126419 -2.68346 -1.45939 -0.907849 
 2.09945 0.0187116 0.0347655   0.0711452 0.0775364 -0.386442  -0.574373 0.313345 0.705074 0.273462   -6.30066 3.36749 -1.36292  8.23151 6.24084 0.820312   -0.503013 0.023388 0.586095  0.781147 0.562125 -0.271708 0.449396 -0.808329 -0.380326 -0.43342 0.174986 -0.88404   287.671 287.671 287.671 17.2603 17.2603 17.2603  0 0 0 0 0 0   0.737362 0.411729 -0.67298 0.00126419 -2.68346 -1.45939 -0.907849 
 2.10944 0.0187116 0.0347655   0.0711452 0.0775364 -0.386442  -0.574373 0.313345 0.705074 0.273462   -6.20605 3.30396 -1.17493  8.00903 6.0661 0.65625   -0.502904 0.0220805 0.585501  0.78113 0.562048 -0.271916 0.450135 -0.808743 -0.378567 -0.432683 0.173311 -0.884731   287.671 287.671 287.671 17.2603 17.2603 17.2603  0 0 0 0 0 0   0.737362 0.411729 -0.67298 0.00126419 -2.68346 -1.45939 -0.907849 
 2.11945 0.0187116 0.0347655   0.0711452 0.0775364 -0.386442  -0.574373 0.313345 0.705074 0.273462   -5.82764 3.0498 -1.5979  7.98431 5.86639 0.65625   -0.50279 0.0207929 0.584938  0.781119 0.561943 -0.272164 0.450816 -0.809166 -0.376848 -0.431994 0.171667 -0.885388   287.671 287.671 287.671 17.2603 17.2603 17.2603  0 0 0 0 0 0   0.737362 0.411729 -0.67298 0.00126419 -2.68346 -1.45939 -0.907849 
 2.12944 0.0187116 0.0347655   0.0711452 0.0775364 -0.386442  -0.574373 0.313345 0.705074 0.273462   -6.20605 2.88037 -1.36292  7.91016 6.0661 0.553711   -0.502673 0.0195277 0.584405  0.781087 0.561857 -0.272434 0.451484 -0.809568 -0.375183 -0.431353 0.170051 -0.886012   287.671 287.671 287.671 17.2603 17.2603 17.2603  0 0 0 0 0 0   0.737362 0.411729 -0.67298 0.00126419 -2.68346 -1.45939 -0.907849 
 2.13944 0.0187116 0.0347655   0.0711452 0.0775364 -0.386442  -0.574373 0.313345 0.705074 0.273462   -6.07361 3.30396 -1.03394  8.18207 5.94128 0.410156   -0.502556 0.0182796 0.583873  0.781098 0.56171 -0.272706 0.452089 -0.810001 -0.373516 -0.4307 0.168465 -0.886632   287.671 287.671 287.671 17.2603 17.2603 17.2603  0 0 0 0 0 0   0.737362 0.411729 -0.67298 0.00126419 -2.68346 -1.45939 -0.907849 
 2.14945 0.0187116 0.0347655   0.0711452 0.0775364 -0.386442  -0.574373 0.313345 0.705074 0.273462   -6.28174 2.96509 -1.36292  7.81128 6.16595 0.553711   -0.502453 0.0169865 0.583356  0.781111 0.56153 -0.273036 0.452645 -0.810455 -0.371853 -0.43009 0.16687 -0.88723   287.671 287.671 287.671 17.2603 17.2603 17.2603  0 0 0 0 0 0   0.737362 0.411729 -0.67298 0.00126419 -2.68346 -1.45939 -0.907849 
 2.15946 0.0198915 0.0635618   -0.0811404 -0.0650093 0.381769  0.675494 -0.611246 0.376135 -0.169139   -6.03577 2.79565 -1.5509  7.78656 5.96625 0.389648   -0.502357 0.0156334 0.582843  0.781048 0.561457 -0.273366 0.453308 -0.810844 -0.370195 -0.429506 0.165221 -0.887821   586.41 586.41 586.41 35.1846 35.1846 35.1846  0 0 0 0 0 0   0.737362 0.411729 -0.67298 0.00126419 -2.68346 -1.45939 -0.907849 
 2.16948 0.0198915 0.0635618   -0.0811404 -0.0650093 0.381769  0.675494 -0.611246 0.376135 -0.169139   -6.30066 3.55811 -1.5509  8.30566 6.14099 0.328125   -0.502265 0.0142689 0.582397  0.780944 0.56138 -0.273825 0.453913 -0.811235 -0.368594 -0.429057 0.163559 -0.888346   586.41 586.41 586.41 35.1846 35.1846 35.1846  0 0 0 0 0 0   0.737362 0.411729 -0.67298 0.00126419 -2.68346 -1.45939 -0.907849 
 2.17944 0.0198915 0.0635618   -0.0811404 -0.0650093 0.381769  0.675494 -0.611246 0.376135 -0.169139   -5.71411 3.57928 -1.40991  8.67645 5.89136 0.410156   -0.50218 0.0128601 0.581952  0.780788 0.561373 -0.274282 0.45459 -0.81158 -0.366995 -0.428623 0.16186 -0.888867   586.41 586.41 586.41 35.1846 35.1846 35.1846  0 0 0 0 0 0   0.737362 0.411729 -0.67298 0.00126419 -2.68346 -1.45939 -0.907849 
 2.18947 0.0198915 0.0635618   -0.0811404 -0.0650093 0.381769  0.675494 -0.611246 0.376135 -0.169139   -6.01685 3.32513 -1.40991  8.60229 6.09106 0.328125   -0.502108 0.0114469 0.581529  0.780536 0.561525 -0.274689 0.455392 -0.811805 -0.3655 -0.428231 0.160195 -0.889357   586.41 586.41 586.41 35.1846 35.1846 35.1846  0 0 0 0 0 0   0.737362 0.411729 -0.67298 0.00126419 -2.68346 -1.45939 -0.907849 
 2.19946 0.0198915 0.0635618   -0.0811404 -0.0650093 0.381769  0.675494 -0.611246 0.376135 -0.169139   -6.01685 3.32513 -1.22192  8.70117 6.09106 0.328125   -0.502032 0.01006 0.581132  0.780265 0.561704 -0.275091 0.45619 -0.811998 -0.364074 -0.427875 0.15858 -0.889818   586.41 586.41 586.41 35.1846 35.1846 35.1846  0 0 0 0 0 0   0.737362 0.411729 -0.67298 0.00126419 -2.68346 -1.45939 -0.907849 
 2.20944 0.0198915 0.0635618   -0.0811404 -0.0650093 0.381769  0.675494 -0.611246 0.376135 -0.169139   -6.09253 3.38867 -1.40991  8.65173 6.39062 0.410156   -0.501961 0.00869294 0.580784  0.779978 0.561877 -0.275551 0.456933 -0.812184 -0.362724 -0.427605 0.157008 -0.890226   586.41 586.41 586.41 35.1846 35.1846 35.1846  0 0 0 0 0 0   0.737362 0.411729 -0.67298 0.00126419 -2.68346 -1.45939 -0.907849 
 2.21944 0.0198915 0.0635618   -0.0811404 -0.0650093 0.381769  0.675494 -0.611246 0.376135 -0.169139   -5.35461 3.34631 -1.45691  8.97308 5.96625 0.246094   -0.501895 0.0073475 0.580461  0.77971 0.562005 -0.276048 0.457605 -0.81239 -0.361414 -0.427375 0.155477 -0.890605   586.41 586.41 586.41 35.1846 35.1846 35.1846  0 0 0 0 0 0   0.737362 0.411729 -0.67298 0.00126419 -2.68346 -1.45939 -0.907849 
 2.22944 0.0198915 0.0635618   -0.0811404 -0.0650093 0.381769  0.675494 -0.611246 0.376135 -0.169139   -5.56274 3.34631 -1.08093  8.89893 6.0661 0.410156   -0.501843 0.00596493 0.580168  0.77945 0.562069 -0.276652 0.458194 -0.812643 -0.360097 -0.427219 0.153917 -0.890951   586.41 586.41 586.41 35.1846 35.1846 35.1846  0 0 0 0 0 0   0.737362 0.411729 -0.67298 0.00126419 -2.68346 -1.45939 -0.907849 
 2.23944 0.0198915 0.0635618   -0.0811404 -0.0650093 0.381769  0.675494 -0.611246 0.376135 -0.169139   -5.67627 3.68518 -1.83289  9.39331 6.04114 0.410156   -0.501801 0.00456446 0.579913  0.77914 0.562172 -0.277316 0.45879 -0.812867 -0.358831 -0.427145 0.15235 -0.891256   586.41 586.41 586.41 35.1846 35.1846 35.1846  0 0 0 0 0 0   0.737362 0.411729 -0.67298 0.00126419 -2.68346 -1.45939 -0.907849 
 2.24956 0.0198915 0.0635618   -0.0811404 -0.0650093 0.381769  0.675494 -0.611246 0.376135 -0.169139   -5.44922 3.85461 -1.69189  9.61578 6.11603 0.410156   -0.501766 0.00311551 0.579701  0.778775 0.5623 -0.278081 0.459388 -0.813081 -0.357579 -0.427169 0.150726 -0.89152   586.41 586.41 586.41 35.1846 35.1846 35.1846  0 0 0 0 0 0   0.737362 0.411729 -0.67298 0.00126419 -2.68346 -1.45939 -0.907849 
 2.25946 0.0195072 0.0593064   -0.0751382 -0.0788906 0.375579  -0.653611 -0.29106 0.438696 -0.543711   -5.61951 4.08759 -1.31592  9.98657 6.59033 0.574219   -0.501744 0.00162508 0.579528  0.778351 0.562468 -0.278925 0.459997 -0.81327 -0.356364 -0.427285 0.149072 -0.891743   542.264 542.264 542.264 32.5359 32.5359 32.5359  0 0 0 0 0 0   0.737362 0.411729 -0.67298 0.00126419 -2.68346 -1.45939 -0.907849 
 2.26947 0.0195072 0.0593064   -0.0751382 -0.0788906 0.375579  -0.653611 -0.29106 0.438696 -0.543711   -5.41138 4.10876 -1.5509  10.2832 6.46552 0.492188   -0.50173 0.000101766 0.579378  0.777803 0.562817 -0.279751 0.460765 -0.813334 -0.355222 -0.427455 0.147393 -0.89194   542.264 542.264 542.264 32.5359 32.5359 32.5359  0 0 0 0 0 0   0.737362 0.411729 -0.67298 0.00126419 -2.68346 -1.45939 -0.907849 
 2.27944 0.0195072 0.0593064   -0.0751382 -0.0788906 0.375579  -0.653611 -0.29106 0.438696 -0.543711   -5.31677 3.60046 -1.50391  9.98657 6.49048 0.574219   -0.501726 -0.00144966 0.57926  0.777169 0.563267 -0.280604 0.461609 -0.813329 -0.354137 -0.427697 0.145695 -0.892103   542.264 542.264 542.264 32.5359 32.5359 32.5359  0 0 0 0 0 0   0.737362 0.411729 -0.67298 0.00126419 -2.68346 -1.45939 -0.907849 
 2.28945 0.0195072 0.0593064   -0.0751382 -0.0788906 0.375579  -0.653611 -0.29106 0.438696 -0.543711   -5.18433 3.85461 -1.36292  10.1843 6.46552 0.430664   -0.50172 -0.00295796 0.579194  0.776547 0.563661 -0.281534 0.462352 -0.81335 -0.353119 -0.428025 0.144045 -0.892214   542.264 542.264 542.264 32.5359 32.5359 32.5359  0 0 0 0 0 0   0.737362 0.411729 -0.67298 0.00126419 -2.68346 -1.45939 -0.907849 
 2.29944 0.0195072 0.0593064   -0.0751382 -0.0788906 0.375579  -0.653611 -0.29106 0.438696 -0.543711   -5.03296 3.87579 -1.5509  10.481 6.54041 0.512695   -0.501716 -0.00444953 0.579164  0.775916 0.564038 -0.282516 0.463047 -0.813374 -0.35215 -0.428417 0.142421 -0.892287   542.264 542.264 542.264 32.5359 32.5359 32.5359  0 0 0 0 0 0   0.737362 0.411729 -0.67298 0.00126419 -2.68346 -1.45939 -0.907849 
 2.30945 0.0195072 0.0593064   -0.0751382 -0.0788906 0.375579  -0.653611 -0.29106 0.438696 -0.543711   -4.73022 3.96051 -1.40991  10.4562 6.3407 0.676758   -0.50172 -0.00595662 0.579141  0.775332 0.564326 -0.283543 0.46365 -0.813455 -0.351168 -0.428823 0.140807 -0.892348   542.264 542.264 542.264 32.5359 32.5359 32.5359  0 0 0 0 0 0   0.737362 0.411729 -0.67298 0.00126419 -2.68346 -1.45939 -0.907849 
 2.31944 0.0195072 0.0593064   -0.0751382 -0.0788906 0.375579  -0.653611 -0.29106 0.438696 -0.543711   -4.50317 3.72754 -1.78589  10.3326 6.14099 0.512695   -0.501729 -0.00751544 0.579132  0.774683 0.564682 -0.284607 0.464319 -0.813495 -0.35019 -0.429272 0.139138 -0.892393   542.264 542.264 542.264 32.5359 32.5359 32.5359  0 0 0 0 0 0   0.737362 0.411729 -0.67298 0.00126419 -2.68346 -1.45939 -0.907849 
 2.32946 0.0195072 0.0593064   -0.0751382 -0.0788906 0.375579  -0.653611 -0.29106 0.438696 -0.543711   -4.33289 3.55811 -1.5979  10.1102 6.16595 0.430664   -0.501735 -0.00911696 0.579153  0.773938 0.56514 -0.285721 0.465082 -0.813473 -0.349228 -0.429789 0.137397 -0.892414   542.264 542.264 542.264 32.5359 32.5359 32.5359  0 0 0 0 0 0   0.737362 0.411729 -0.67298 0.00126419 -2.68346 -1.45939 -0.907849 
 2.33946 0.0195072 0.0593064   -0.0751382 -0.0788906 0.375579  -0.653611 -0.29106 0.438696 -0.543711   -4.29504 4.23584 -1.22192  10.654 6.3407 0.430664   -0.501732 -0.0107281 0.579203  0.773156 0.565617 -0.286893 0.465853 -0.81344 -0.348277 -0.430361 0.135623 -0.89241   542.264 542.264 542.264 32.5359 32.5359 32.5359  0 0 0 0 0 0   0.737362 0.411729 -0.67298 0.00126419 -2.68346 -1.45939 -0.907849 
 2.34944 0.0195072 0.0593064   -0.0751382 -0.0788906 0.375579  -0.653611 -0.29106 0.438696 -0.543711   -4.18152 3.38867 -1.40991  10.2338 6.26581 0.512695   -0.501732 -0.0124079 0.579242  0.772236 0.566312 -0.287998 0.466856 -0.813261 -0.347351 -0.430927 0.133783 -0.892415   542.264 542.264 542.264 32.5359 32.5359 32.5359  0 0 0 0 0 0   0.737362 0.411729 -0.67298 0.00126419 -2.68346 -1.45939 -0.907849 
 2.35948 0.0192043 0.0560849   -0.0708483 -0.0919108 0.368608  -0.656363 -0.299156 0.429796 -0.54311   -3.78418 3.1557 -1.78589  10.0113 6.09106 0.348633   -0.50172 -0.0140516 0.579295  0.771304 0.567024 -0.289092 0.467865 -0.813061 -0.34646 -0.4315 0.13197 -0.892408   508.844 508.844 508.844 30.5306 30.5306 30.5306  0 0 0 0 0 0   0.737362 0.411729 -0.67298 0.00126419 -2.68346 -1.45939 -0.907849 
 2.36945 0.0192043 0.0560849   -0.0708483 -0.0919108 0.368608  -0.656363 -0.299156 0.429796 -0.54311   -3.76526 2.81683 -1.03394  9.71466 6.11603 0.348633   -0.501694 -0.0156575 0.579374  0.770421 0.567626 -0.290261 0.468758 -0.812933 -0.345553 -0.432108 0.130159 -0.89238   508.844 508.844 508.844 30.5306 30.5306 30.5306  0 0 0 0 0 0   0.737362 0.411729 -0.67298 0.00126419 -2.68346 -1.45939 -0.907849 
 2.37945 0.0192043 0.0560849   -0.0708483 -0.0919108 0.368608  -0.656363 -0.299156 0.429796 -0.54311   -3.25439 3.09216 -1.6449  9.86298 5.81647 0.18457   -0.501663 -0.016887 0.579449  0.769758 0.568048 -0.291196 0.469398 -0.812859 -0.344855 -0.432595 0.128768 -0.892345   508.844 508.844 508.844 30.5306 30.5306 30.5306  0 0 0 0 0 0   0.737362 0.411729 -0.67298 0.00126419 -2.68346 -1.45939 -0.907849 
 2.38945 0.0192043 0.0560849   -0.0708483 -0.0919108 0.368608  -0.656363 -0.299156 0.429796 -0.54311   -3.53821 2.6474 -1.22192  9.59106 6.01617 0.348633   -0.501618 -0.0187207 0.579555  0.768874 0.568499 -0.292645 0.47019 -0.812868 -0.343753 -0.433305 0.126704 -0.892296   508.844 508.844 508.844 30.5306 30.5306 30.5306  0 0 0 0 0 0   0.737362 0.411729 -0.67298 0.00126419 -2.68346 -1.45939 -0.907849 
 2.39944 0.0192043 0.0560849   -0.0708483 -0.0919108 0.368608  -0.656363 -0.299156 0.429796 -0.54311   -3.61389 2.81683 -1.5979  9.71466 6.11603 0.266602   -0.501577 -0.0202562 0.579663  0.768139 0.568846 -0.293899 0.47082 -0.812895 -0.342829 -0.433926 0.124967 -0.89224   508.844 508.844 508.844 30.5306 30.5306 30.5306  0 0 0 0 0 0   0.737362 0.411729 -0.67298 0.00126419 -2.68346 -1.45939 -0.907849 
 2.40944 0.0192043 0.0560849   -0.0708483 -0.0919108 0.368608  -0.656363 -0.299156 0.429796 -0.54311   -3.61389 2.90155 -1.5979  9.71466 6.21588 0.102539   -0.501537 -0.0218453 0.57979  0.767333 0.569259 -0.295203 0.471518 -0.812882 -0.341899 -0.434594 0.123157 -0.892166   508.844 508.844 508.844 30.5306 30.5306 30.5306  0 0 0 0 0 0   0.737362 0.411729 -0.67298 0.00126419 -2.68346 -1.45939 -0.907849 
 2.41942 0.0192043 0.0560849   -0.0708483 -0.0919108 0.368608  -0.656363 -0.299156 0.429796 -0.54311   -3.48145 3.1557 -1.40991  9.91241 6.31573 0.0205078   -0.501493 -0.0234395 0.579938  0.766511 0.569661 -0.29656 0.472202 -0.812877 -0.340963 -0.4353 0.121316 -0.892074   508.844 508.844 508.844 30.5306 30.5306 30.5306  0 0 0 0 0 0   0.737362 0.411729 -0.67298 0.00126419 -2.68346 -1.45939 -0.907849 
 2.42944 0.0192043 0.0560849   -0.0708483 -0.0919108 0.368608  -0.656363 -0.299156 0.429796 -0.54311   -3.31116 2.7533 -1.5979  9.59106 6.04114 0.0205078   -0.501448 -0.0250434 0.580094  0.7656 0.5702 -0.297875 0.473015 -0.812773 -0.340085 -0.436021 0.119469 -0.891971   508.844 508.844 508.844 30.5306 30.5306 30.5306  0 0 0 0 0 0   0.737362 0.411729 -0.67298 0.00126419 -2.68346 -1.45939 -0.907849 
 2.43944 0.0192043 0.0560849   -0.0708483 -0.0919108 0.368608  -0.656363 -0.299156 0.429796 -0.54311   -3.06519 2.245 -1.03394  9.46747 5.94128 0.102539   -0.501398 -0.0266247 0.580252  0.76467 0.570776 -0.299155 0.473862 -0.812634 -0.339236 -0.436731 0.117645 -0.891866   508.844 508.844 508.844 30.5306 30.5306 30.5306  0 0 0 0 0 0   0.737362 0.411729 -0.67298 0.00126419 -2.68346 -1.45939 -0.907849 
